yqg36/assignment-2022fall/assignment3/MetaDrive-Tut-1Env-v0/td3/progress.csv
,log_dir,frame_per_second,episode_reward,total_steps,total_episodes,total_time,target_q,actor_loss,critic_loss,success_rate
0,MetaDrive-Tut-1Env-v0,432,4.685097036144128,1455,2,3.3638434410095215,,,,0.0
1,MetaDrive-Tut-1Env-v0,434,6.5095780707859605,2456,3,5.6576783657073975,,,,0.0
2,MetaDrive-Tut-1Env-v0,434,5.702399563287339,3709,5,8.541687488555908,,,,0.0
3,MetaDrive-Tut-1Env-v0,433,6.550075084369435,4710,6,10.864891290664673,,,,0.0
4,MetaDrive-Tut-1Env-v0,424,7.478136738945002,5711,7,13.444168329238892,,,,0.0
5,MetaDrive-Tut-1Env-v0,417,8.120705869075081,6712,8,16.084660530090332,,,,0.0
6,MetaDrive-Tut-1Env-v0,399,7.840930290395363,7532,9,18.839614868164062,,,,0.0
7,MetaDrive-Tut-1Env-v0,382,8.067168860618258,8533,10,22.290778398513794,,,,0.0
8,MetaDrive-Tut-1Env-v0,374,7.694573887314618,9983,12,26.652358293533325,,,,0.0
9,MetaDrive-Tut-1Env-v0,319,8.124973036635756,10069,13,31.550101280212402,-0.0008260617032647133,-0.001248167478479445,0.2018987536430359,0.0
10,MetaDrive-Tut-1Env-v0,131,1.8343330777000575,11001,46,83.8015501499176,0.10173076391220093,-0.0991673618555069,0.015356083400547504,0.0
11,MetaDrive-Tut-1Env-v0,84,0.14254707635567032,12041,74,143.21729946136475,0.10053565353155136,-0.11978952586650848,0.21769142150878906,0.0
12,MetaDrive-Tut-1Env-v0,65,-0.7169063508476661,13020,101,199.02792239189148,0.0744280219078064,,0.543694794178009,0.0
13,MetaDrive-Tut-1Env-v0,50,-1.8429758082675005,14629,112,286.96782898902893,0.21978697180747986,-0.27272969484329224,0.0149775305762887,0.0
14,MetaDrive-Tut-1Env-v0,45,-1.9537255261464497,15630,113,341.900515794754,0.23911947011947632,,0.037287674844264984,0.0
15,MetaDrive-Tut-1Env-v0,41,-2.0296232397275027,16631,114,397.10638666152954,0.2664003372192383,-0.30540114641189575,0.013673564419150352,0.0
16,MetaDrive-Tut-1Env-v0,39,-2.1860936178427726,17632,115,452.01437306404114,0.22459998726844788,,0.2182045429944992,0.0
17,MetaDrive-Tut-1Env-v0,36,-2.2254261690770276,18633,116,507.0021035671234,0.29469388723373413,-0.39658403396606445,0.022708196192979813,0.0
18,MetaDrive-Tut-1Env-v0,34,-2.275882072719314,19634,117,561.722731590271,0.45538365840911865,,0.01296655461192131,0.0
19,MetaDrive-Tut-1Env-v0,33,-2.333160400935978,20635,118,616.387008190155,0.4092111587524414,-0.46204692125320435,0.01282682828605175,0.0
20,MetaDrive-Tut-1Env-v0,32,-2.3856725235851837,21636,119,671.5779190063477,0.458048552274704,,0.011254865676164627,0.0
21,MetaDrive-Tut-1Env-v0,31,-2.389748343406832,22637,120,726.5654351711273,0.43106019496917725,-0.46684399247169495,0.0201251320540905,0.0
22,MetaDrive-Tut-1Env-v0,30,-2.3740812723612392,23638,121,781.5471999645233,0.4258204400539398,,0.024708667770028114,0.0
23,MetaDrive-Tut-1Env-v0,29,-2.2137226377619568,24192,124,813.2003221511841,0.4774634838104248,,0.021616067737340927,0.0
24,MetaDrive-Tut-1Env-v0,28,-2.042360929041291,25428,126,882.8238794803619,0.5233167409896851,,0.04137660935521126,0.0
25,MetaDrive-Tut-1Env-v0,28,-1.9289363230213192,26429,127,939.3551845550537,0.6049522161483765,-0.6632013916969299,0.17590241134166718,0.0
26,MetaDrive-Tut-1Env-v0,27,-1.540922934001208,27539,130,1001.5326752662659,0.6738503575325012,-0.7187609672546387,0.022167492657899857,0.0
27,MetaDrive-Tut-1Env-v0,26,-1.433547996957428,28540,131,1057.8469579219818,0.6755098700523376,,0.027851220220327377,0.0
28,MetaDrive-Tut-1Env-v0,26,-1.2643134840585437,29027,134,1085.3793172836304,0.7250568866729736,-0.7527441382408142,0.014293212443590164,0.0
29,MetaDrive-Tut-1Env-v0,26,-0.8272228885004804,30267,138,1155.4095239639282,0.8484793305397034,-0.915292501449585,0.029462430626153946,0.0
30,MetaDrive-Tut-1Env-v0,25,-0.6655659089694268,31311,141,1214.5817818641663,0.8149691820144653,-0.919248104095459,0.6388101577758789,0.0
31,MetaDrive-Tut-1Env-v0,25,-0.4293986559789957,32409,143,1276.745099067688,0.8705362677574158,-0.8960960507392883,0.018560923635959625,0.0
32,MetaDrive-Tut-1Env-v0,25,-0.20495625724845848,33131,146,1317.7584385871887,0.9676723480224609,-0.9923855066299438,0.01850987784564495,0.0
33,MetaDrive-Tut-1Env-v0,24,0.1506561428629106,34511,149,1396.5722234249115,0.9636789560317993,-1.0237109661102295,0.04908827692270279,0.0
34,MetaDrive-Tut-1Env-v0,24,0.4722385994671556,35690,151,1464.0909090042114,1.0746469497680664,,0.09042763710021973,0.0
35,MetaDrive-Tut-1Env-v0,24,0.7486680701939011,36170,155,1492.0103793144226,0.9035701751708984,,0.013989141210913658,0.0
36,MetaDrive-Tut-1Env-v0,24,1.215282003667218,37058,164,1543.4760341644287,1.151298999786377,,0.019134074449539185,0.0
37,MetaDrive-Tut-1Env-v0,23,1.3023971401820753,38059,165,1600.7801117897034,1.2374727725982666,-1.2936184406280518,0.1395827680826187,0.0
38,MetaDrive-Tut-1Env-v0,23,1.4600366209826163,39087,167,1660.1350901126862,0.9550451040267944,-0.9948116540908813,0.14638370275497437,0.0
39,MetaDrive-Tut-1Env-v0,23,2.0896897616082346,40785,175,1757.869369983673,1.1698054075241089,-1.2164478302001953,0.27402180433273315,0.0
40,MetaDrive-Tut-1Env-v0,23,2.211991569372285,41786,176,1814.954553604126,1.2197473049163818,,0.01824389025568962,0.0
41,MetaDrive-Tut-1Env-v0,22,2.27368905362272,42206,177,1839.4351935386658,1.2040319442749023,,0.5744791030883789,0.0
42,MetaDrive-Tut-1Env-v0,22,2.4363504113902312,43129,179,1892.0932323932648,1.2655208110809326,-1.372876524925232,0.6080948114395142,0.0
43,MetaDrive-Tut-1Env-v0,22,2.778475771045948,44187,181,1952.425534248352,1.2082464694976807,-1.3062127828598022,0.14411160349845886,0.0
44,MetaDrive-Tut-1Env-v0,22,3.147234869269046,45261,184,2014.7300417423248,1.1815999746322632,-1.2648478746414185,0.027095694094896317,0.0
45,MetaDrive-Tut-1Env-v0,22,3.3346975356694757,46643,186,2093.5669679641724,1.3341668844223022,-1.4271876811981201,0.19762402772903442,0.0
46,MetaDrive-Tut-1Env-v0,22,3.593620725857304,47262,188,2128.686473608017,1.2626807689666748,,0.10759829729795456,0.0
47,MetaDrive-Tut-1Env-v0,22,3.972280272189273,48891,191,2220.563752412796,1.476007103919983,-1.5644097328186035,0.01790747046470642,0.0
48,MetaDrive-Tut-1Env-v0,21,4.066265201852403,49119,192,2233.5286910533905,1.6316375732421875,-1.7348523139953613,0.18422473967075348,0.0
49,MetaDrive-Tut-1Env-v0,21,4.3539477792958685,50321,194,2301.2840700149536,1.5248982906341553,-1.584810733795166,0.027829060330986977,0.0
50,MetaDrive-Tut-1Env-v0,21,4.4860750980533,51322,195,2357.9794523715973,1.5585763454437256,,0.12251947820186615,0.0
51,MetaDrive-Tut-1Env-v0,21,4.6136278657343475,52323,196,2414.5601060390472,1.4057936668395996,-1.5227344036102295,0.20562787353992462,0.0
52,MetaDrive-Tut-1Env-v0,21,4.7710252031259115,53324,197,2470.3758380413055,1.471091389656067,,0.036235228180885315,0.0
53,MetaDrive-Tut-1Env-v0,21,4.880709880315337,54325,198,2526.973464488983,1.792784333229065,-1.8477650880813599,0.16593745350837708,0.0
54,MetaDrive-Tut-1Env-v0,21,5.166872486793984,55062,200,2568.7403457164764,1.524810791015625,,0.025893501937389374,0.0
55,MetaDrive-Tut-1Env-v0,21,5.458402750852793,56326,202,2640.502452611923,1.584973931312561,,0.02647818624973297,0.0
56,MetaDrive-Tut-1Env-v0,21,5.992508341093121,57060,205,2682.2640039920807,1.7455443143844604,,0.034824833273887634,0.0
57,MetaDrive-Tut-1Env-v0,21,6.248579895483699,58061,206,2738.702460050583,1.5879652500152588,-1.7133591175079346,0.031165309250354767,0.0
58,MetaDrive-Tut-1Env-v0,21,6.410402892488104,59062,207,2794.957291841507,1.3511676788330078,,0.9343464374542236,0.0
59,MetaDrive-Tut-1Env-v0,21,6.623292690370249,60063,208,2851.3714241981506,1.6614100933074951,-1.7267756462097168,0.024419784545898438,0.0
60,MetaDrive-Tut-1Env-v0,21,6.807817432692402,61005,210,2904.5832319259644,1.8069357872009277,-1.854853630065918,0.0579511933028698,0.0
61,MetaDrive-Tut-1Env-v0,20,8.064655408620578,62112,213,2967.2652485370636,1.7324305772781372,,0.05279577895998955,0.0
62,MetaDrive-Tut-1Env-v0,20,8.791212780328495,63430,215,3041.634314775467,1.9875774383544922,,0.03962632268667221,0.0
63,MetaDrive-Tut-1Env-v0,20,9.072782301005809,64431,216,3098.3915569782257,1.744422197341919,-1.8853332996368408,1.0486847162246704,0.0
64,MetaDrive-Tut-1Env-v0,20,9.973967245783335,65225,218,3143.7110674381256,1.5011930465698242,-1.4970040321350098,0.19070802628993988,0.0
65,MetaDrive-Tut-1Env-v0,20,10.886640729100739,66210,220,3199.128597021103,1.9302215576171875,,0.18255123496055603,0.0
66,MetaDrive-Tut-1Env-v0,20,11.193517613708837,67785,225,3288.8396186828613,1.976902723312378,-2.0179286003112793,0.17321214079856873,0.0
67,MetaDrive-Tut-1Env-v0,20,11.313238121537758,68079,227,3305.469095468521,2.0661230087280273,-2.132777452468872,1.1987507343292236,0.0
68,MetaDrive-Tut-1Env-v0,20,11.76575634215176,69114,235,3364.5144231319427,1.8116488456726074,,0.023283377289772034,0.0
69,MetaDrive-Tut-1Env-v0,20,12.298050503583267,70104,244,3421.1448254585266,1.8643364906311035,,0.0804552510380745,0.0
70,MetaDrive-Tut-1Env-v0,20,12.841749900994323,71102,250,3478.026081085205,1.8464595079421997,,0.030181236565113068,0.0
71,MetaDrive-Tut-1Env-v0,20,13.286977598583855,72406,255,3551.7522127628326,2.131866693496704,,0.03444085642695427,0.0
72,MetaDrive-Tut-1Env-v0,20,13.611068925955284,73512,258,3614.0817346572876,2.062887668609619,,0.1837003529071808,0.0
73,MetaDrive-Tut-1Env-v0,20,13.97822570036977,74513,259,3671.000691652298,2.0002200603485107,-2.100064277648926,0.03408467769622803,0.0
74,MetaDrive-Tut-1Env-v0,20,14.67791546980943,75027,264,3700.5108513832092,2.361546039581299,-2.4289956092834473,0.08972219377756119,0.0
75,MetaDrive-Tut-1Env-v0,20,15.877334181556154,76416,269,3779.66623711586,2.266659736633301,,1.4223756790161133,0.0
76,MetaDrive-Tut-1Env-v0,20,16.867234871607984,77037,274,3815.132220029831,2.362023115158081,-2.4459733963012695,0.0681435763835907,0.0
77,MetaDrive-Tut-1Env-v0,20,18.254488730123786,78239,277,3883.7571592330933,2.1776344776153564,-2.263676166534424,0.2051188051700592,0.0
78,MetaDrive-Tut-1Env-v0,20,19.167509986375318,79541,281,3957.604947566986,1.9641368389129639,-2.0048828125,0.05828152596950531,0.0
79,MetaDrive-Tut-1Env-v0,20,21.14197051334962,80716,290,4024.4709103107452,2.757448196411133,,0.06700000166893005,0.0
80,MetaDrive-Tut-1Env-v0,20,22.747069181228067,81629,292,4076.203745365143,2.8512754440307617,-2.8602371215820312,0.09412798285484314,0.0
81,MetaDrive-Tut-1Env-v0,19,24.969480967225937,82622,295,4132.49644947052,3.396895408630371,,0.9862089157104492,0.0
82,MetaDrive-Tut-1Env-v0,19,26.613959168163902,83366,297,4174.745671510696,3.545781135559082,,0.12548792362213135,0.0
83,MetaDrive-Tut-1Env-v0,19,30.46673138379794,84320,299,4228.799869298935,3.1554946899414062,,0.12404027581214905,0.0
84,MetaDrive-Tut-1Env-v0,19,34.00486070503498,85477,302,4294.400521278381,3.015428066253662,-3.0392746925354004,0.07973311841487885,0.0
85,MetaDrive-Tut-1Env-v0,19,36.10215436731896,86072,303,4328.417336702347,3.6372761726379395,,0.10778068006038666,0.0
86,MetaDrive-Tut-1Env-v0,19,41.325943514792904,87459,307,4407.55156993866,3.8684182167053223,-3.908813238143921,0.20547038316726685,0.0
87,MetaDrive-Tut-1Env-v0,19,44.382512230526075,88229,309,4451.447558164597,3.564594268798828,-3.75538969039917,0.10178451240062714,0.0
88,MetaDrive-Tut-1Env-v0,19,48.314828382023435,89266,312,4510.010505914688,3.882530689239502,,0.9968019723892212,0.0
89,MetaDrive-Tut-1Env-v0,19,52.27971618345282,90390,314,4574.13418006897,3.818570375442505,,2.17610502243042,0.0
90,MetaDrive-Tut-1Env-v0,19,56.687110930404884,91248,316,4622.876355409622,4.324165344238281,,0.24143245816230774,0.0
91,MetaDrive-Tut-1Env-v0,19,59.54677211057547,92013,319,4665.859409332275,4.336002826690674,-4.611687660217285,4.702829360961914,0.0
92,MetaDrive-Tut-1Env-v0,19,65.90881013048288,93121,322,4728.882926464081,4.700850009918213,-4.775339126586914,0.2541765868663788,0.0
93,MetaDrive-Tut-1Env-v0,19,73.49373675360576,94309,326,4796.180971622467,4.512487888336182,-4.665836334228516,0.10719610750675201,0.0
94,MetaDrive-Tut-1Env-v0,19,78.95952467564868,95197,328,4846.56982755661,5.237478256225586,-5.346103668212891,0.23048213124275208,0.0
95,MetaDrive-Tut-1Env-v0,19,86.18922020282604,96304,331,4909.253022909164,5.402231693267822,,0.3515443205833435,0.0
96,MetaDrive-Tut-1Env-v0,19,93.17220154773895,97331,333,4967.060781478882,5.619687080383301,-5.8213982582092285,1.7876734733581543,0.01
97,MetaDrive-Tut-1Env-v0,19,98.09454999013741,98115,335,5011.8080496788025,5.824098587036133,-5.8720808029174805,0.26143351197242737,0.01
98,MetaDrive-Tut-1Env-v0,19,104.47302014859959,99078,337,5066.9203288555145,6.065242767333984,,0.22775882482528687,0.01
99,MetaDrive-Tut-1Env-v0,19,113.73023787338367,100474,340,5146.554079055786,7.402951240539551,,0.252812922000885,0.02
100,MetaDrive-Tut-1Env-v0,19,118.8035028853549,101195,342,5187.525436162949,7.46401309967041,-7.497342109680176,0.23974215984344482,0.02
101,MetaDrive-Tut-1Env-v0,19,127.22409358550607,102351,345,5253.736210346222,8.07695198059082,-8.356122970581055,0.2109038531780243,0.02
102,MetaDrive-Tut-1Env-v0,19,132.28695897433232,103170,349,5300.297155380249,7.686175346374512,,0.37404507398605347,0.02
103,MetaDrive-Tut-1Env-v0,19,137.85767614893186,104094,355,5352.680081605911,7.363368034362793,,0.4991593360900879,0.02
104,MetaDrive-Tut-1Env-v0,19,144.2792251081305,105057,360,5407.625197649002,9.833910942077637,-9.877445220947266,1.8656396865844727,0.02
105,MetaDrive-Tut-1Env-v0,19,150.33942106780682,106067,366,5465.317734241486,9.316740036010742,-9.385299682617188,0.4863404631614685,0.02
106,MetaDrive-Tut-1Env-v0,19,153.00862388206323,107357,369,5538.169363737106,8.34670639038086,-8.574176788330078,4.86309814453125,0.02
107,MetaDrive-Tut-1Env-v0,19,156.7450100285049,108034,374,5576.513003349304,9.505964279174805,,0.37079575657844543,0.02
108,MetaDrive-Tut-1Env-v0,19,161.71483034981185,109123,383,5638.303623199463,9.69569206237793,-9.821871757507324,0.4127073287963867,0.02
109,MetaDrive-Tut-1Env-v0,19,163.67535585917994,110198,385,5699.187528848648,9.566308975219727,,15.09292221069336,0.02
110,MetaDrive-Tut-1Env-v0,19,165.95089693180674,111034,392,5746.577782392502,10.796554565429688,,0.3677716851234436,0.02
111,MetaDrive-Tut-1Env-v0,19,165.4280775291041,112073,399,5806.088205337524,10.989667892456055,-11.113689422607422,0.8527067303657532,0.02
112,MetaDrive-Tut-1Env-v0,19,163.0839221419244,113011,406,5859.330312490463,11.387969970703125,-11.628106117248535,8.020112991333008,0.02
113,MetaDrive-Tut-1Env-v0,19,152.51661793633687,114007,415,5916.495665073395,12.1339111328125,-12.471441268920898,0.6379299759864807,0.02
114,MetaDrive-Tut-1Env-v0,19,143.61698291375438,115113,424,5978.923476696014,11.91441535949707,-12.117471694946289,0.7341758012771606,0.02
115,MetaDrive-Tut-1Env-v0,19,123.81641830305247,116131,434,6036.717425107956,11.70923137664795,-11.900812149047852,0.6502963304519653,0.01
116,MetaDrive-Tut-1Env-v0,19,122.94016177008129,117132,435,6092.830443143845,12.601663589477539,,4.857745170593262,0.01
117,MetaDrive-Tut-1Env-v0,19,108.1123333924218,118036,442,6144.876272439957,13.485763549804688,,10.29458999633789,0.0
118,MetaDrive-Tut-1Env-v0,19,97.49424301350722,119715,451,6240.479643106461,12.558895111083984,-12.567632675170898,7.16274356842041,0.0
119,MetaDrive-Tut-1Env-v0,19,98.63260161410902,120089,453,6261.848969221115,12.546866416931152,-12.655487060546875,9.015892028808594,0.0
120,MetaDrive-Tut-1Env-v0,19,101.0735187714517,121090,454,6318.163284540176,12.35474967956543,,0.7551854848861694,0.0
121,MetaDrive-Tut-1Env-v0,19,102.98154966684086,122669,458,6407.253338575363,12.595804214477539,-12.73969841003418,0.6190800666809082,0.0
122,MetaDrive-Tut-1Env-v0,19,103.71826594993794,123069,460,6430.063584566116,13.78672981262207,-14.064743995666504,0.8530458807945251,0.0
123,MetaDrive-Tut-1Env-v0,19,106.07144823124753,124070,461,6486.640503406525,13.136956214904785,,8.2932767868042,0.0
124,MetaDrive-Tut-1Env-v0,19,109.4946609098899,125158,463,6547.994254589081,13.940495491027832,,15.309728622436523,0.0
125,MetaDrive-Tut-1Env-v0,19,111.02433168803981,126330,465,6614.326322793961,14.831104278564453,,0.8561804294586182,0.0
126,MetaDrive-Tut-1Env-v0,19,114.66852601147072,127637,467,6688.336357831955,14.786803245544434,-14.822242736816406,5.949319839477539,0.0
127,MetaDrive-Tut-1Env-v0,19,118.88434152400092,128278,468,6724.83554983139,14.780624389648438,,1.1462773084640503,0.01
128,MetaDrive-Tut-1Env-v0,19,120.22694596449622,129279,469,6780.89887046814,16.48035430908203,-16.877456665039062,9.818516731262207,0.01
129,MetaDrive-Tut-1Env-v0,19,125.10888019901367,130112,471,6828.612015247345,17.493207931518555,,1.1708693504333496,0.01
130,MetaDrive-Tut-1Env-v0,19,132.1694001773041,131168,473,6888.658601522446,17.536529541015625,,9.102583885192871,0.02
131,MetaDrive-Tut-1Env-v0,19,141.13109389155704,132435,475,6960.485728740692,17.255441665649414,-17.331809997558594,0.7631882429122925,0.04
132,MetaDrive-Tut-1Env-v0,19,144.97806198011412,133051,476,6995.461716890335,16.077123641967773,-16.564762115478516,3.8947196006774902,0.05
133,MetaDrive-Tut-1Env-v0,19,152.5438072055389,134309,478,7066.733511209488,17.922285079956055,-18.27655029296875,6.0263800621032715,0.07
134,MetaDrive-Tut-1Env-v0,18,161.44989776126175,135546,480,7137.334570169449,18.108966827392578,,1.386022925376892,0.09
135,MetaDrive-Tut-1Env-v0,18,166.1630403387387,136165,481,7172.664679765701,18.760921478271484,-19.397891998291016,1.312748908996582,0.1
136,MetaDrive-Tut-1Env-v0,18,174.79404903486284,137453,483,7245.601838350296,18.666976928710938,-18.92704963684082,1.2491250038146973,0.12
137,MetaDrive-Tut-1Env-v0,18,179.47080660327097,138063,484,7280.355391740799,18.499479293823242,-19.02944564819336,9.77206039428711,0.13
138,MetaDrive-Tut-1Env-v0,18,187.31790538575893,139254,487,7348.020912408829,19.508142471313477,,1.1878166198730469,0.14
139,MetaDrive-Tut-1Env-v0,18,196.33222039748355,140490,489,7418.114398479462,21.81456756591797,,5.598840713500977,0.16
140,MetaDrive-Tut-1Env-v0,18,200.7427196814868,141101,490,7452.711268424988,21.123004913330078,-21.321956634521484,1.8920903205871582,0.17
141,MetaDrive-Tut-1Env-v0,18,207.94039347703762,142350,492,7523.594871044159,20.339536666870117,,3.0288286209106445,0.19
142,MetaDrive-Tut-1Env-v0,18,214.4148232413324,143536,495,7591.269711256027,20.769813537597656,,3.7519474029541016,0.2
143,MetaDrive-Tut-1Env-v0,18,218.56053296644183,144134,496,7625.100150346756,22.729766845703125,,15.739534378051758,0.21
144,MetaDrive-Tut-1Env-v0,18,227.56589573108045,145345,498,7694.078937530518,22.150257110595703,-22.170989990234375,1.5824918746948242,0.23
145,MetaDrive-Tut-1Env-v0,18,235.16897021830934,146541,500,7761.767788171768,24.869327545166016,-25.00192642211914,2.4203402996063232,0.25
146,MetaDrive-Tut-1Env-v0,18,238.9945445426552,147136,501,7795.802335500717,25.990686416625977,,1.583085060119629,0.26
147,MetaDrive-Tut-1Env-v0,18,247.45197614469387,148386,503,7866.588427066803,23.466793060302734,,1.6834931373596191,0.28
148,MetaDrive-Tut-1Env-v0,18,253.2873298609519,149292,505,7918.230713129044,24.880725860595703,,1.3262555599212646,0.29
149,MetaDrive-Tut-1Env-v0,18,259.91689910853745,150130,508,7966.414207935333,24.601598739624023,,24.281536102294922,0.29
150,MetaDrive-Tut-1Env-v0,18,268.800933951164,151361,510,8036.86706161499,23.90972137451172,-24.329463958740234,3.693490505218506,0.31
151,MetaDrive-Tut-1Env-v0,18,273.9586795661121,152257,513,8087.991630792618,26.482595443725586,-26.90868377685547,4.3385186195373535,0.31
152,MetaDrive-Tut-1Env-v0,18,279.835800383984,153190,516,8141.205059289932,25.826417922973633,,5.5952043533325195,0.31
153,MetaDrive-Tut-1Env-v0,18,285.8198030179735,154147,519,8195.83538556099,29.219871520996094,-29.379058837890625,1.7547128200531006,0.31
154,MetaDrive-Tut-1Env-v0,18,290.65640178405647,155155,521,8253.096841573715,26.854402542114258,-27.228696823120117,4.055477142333984,0.31
155,MetaDrive-Tut-1Env-v0,18,295.2050254010656,156249,523,8315.330332279205,29.338581085205078,-30.047119140625,13.518085479736328,0.32
156,MetaDrive-Tut-1Env-v0,18,301.3194488515066,157230,525,8370.92959189415,29.016708374023438,,4.866420745849609,0.33
157,MetaDrive-Tut-1Env-v0,18,311.25516615993956,158616,527,8449.7101187706,30.589508056640625,,11.445762634277344,0.35
158,MetaDrive-Tut-1Env-v0,18,315.84106347048805,159510,528,8500.186022281647,30.409305572509766,,2.0235490798950195,0.36
159,MetaDrive-Tut-1Env-v0,18,317.83117067076245,160511,529,8556.18362736702,28.334497451782227,-28.63292694091797,2.470791816711426,0.36
160,MetaDrive-Tut-1Env-v0,18,322.6330722377436,161338,530,8602.67292380333,31.135944366455078,,15.756513595581055,0.37
161,MetaDrive-Tut-1Env-v0,18,326.5404398513404,162121,531,8646.739718437195,32.21006393432617,-32.66926193237305,20.83823013305664,0.38
162,MetaDrive-Tut-1Env-v0,18,335.4250289882028,163433,533,8721.184019327164,30.393463134765625,-30.975379943847656,3.6036267280578613,0.4
163,MetaDrive-Tut-1Env-v0,18,340.1777480798456,164425,535,8777.411629199982,31.31850814819336,-31.573997497558594,8.429254531860352,0.41
164,MetaDrive-Tut-1Env-v0,18,343.9981384101302,165026,536,8811.426746845245,30.66712760925293,,11.410070419311523,0.42
165,MetaDrive-Tut-1Env-v0,18,353.0278329369814,166174,538,8876.47205901146,32.59450912475586,,8.750751495361328,0.44
166,MetaDrive-Tut-1Env-v0,18,361.11854288841334,167098,540,8929.112183570862,30.568679809570312,,13.869922637939453,0.45
167,MetaDrive-Tut-1Env-v0,18,367.01765709515377,168095,542,8985.378219604492,31.365795135498047,-31.9765625,2.9750585556030273,0.46
168,MetaDrive-Tut-1Env-v0,18,375.66424949716884,169188,545,9047.380209445953,32.87672424316406,,14.773087501525879,0.46
169,MetaDrive-Tut-1Env-v0,18,383.97370139163775,170138,547,9101.24597287178,29.72730255126953,,1.838144063949585,0.47
170,MetaDrive-Tut-1Env-v0,18,393.8477568921351,171271,549,9165.988968133926,29.708383560180664,-30.496376037597656,2.8049092292785645,0.49
171,MetaDrive-Tut-1Env-v0,18,399.13867284761415,172237,551,9221.289929628372,32.58536148071289,-33.301475524902344,3.9153780937194824,0.5
172,MetaDrive-Tut-1Env-v0,18,406.44548827007014,173415,553,9288.477276802063,32.51375198364258,-33.03251647949219,4.3321733474731445,0.52
173,MetaDrive-Tut-1Env-v0,18,410.9031268675049,174421,555,9346.016538619995,31.232017517089844,-31.559505462646484,6.097481727600098,0.53
174,MetaDrive-Tut-1Env-v0,18,417.9960638974927,175589,557,9412.203391075134,29.844266891479492,-30.356719970703125,9.662042617797852,0.55
175,MetaDrive-Tut-1Env-v0,18,420.38900217963345,176162,558,9445.399140119553,32.31950378417969,,3.666231632232666,0.56
176,MetaDrive-Tut-1Env-v0,18,425.65697497305604,177418,561,9516.988132953644,33.772552490234375,,31.753217697143555,0.57
177,MetaDrive-Tut-1Env-v0,18,429.10797582123996,178018,562,9550.934361934662,34.39914321899414,,47.6545295715332,0.58
178,MetaDrive-Tut-1Env-v0,18,433.19696084937726,179237,564,9619.949793338776,35.35694122314453,-36.162757873535156,22.363950729370117,0.6
179,MetaDrive-Tut-1Env-v0,18,438.12568564034024,180425,566,9687.754488945007,35.627899169921875,-36.57325744628906,5.479495048522949,0.62
180,MetaDrive-Tut-1Env-v0,18,440.68128932351095,181570,568,9752.829191684723,34.55354690551758,,13.266331672668457,0.63
181,MetaDrive-Tut-1Env-v0,18,443.15113129248834,182155,569,9786.26803278923,35.30769348144531,-35.883628845214844,7.007171630859375,0.64
182,MetaDrive-Tut-1Env-v0,18,444.9129941311648,183124,571,9841.821657419205,36.35357666015625,,9.394159317016602,0.65
183,MetaDrive-Tut-1Env-v0,18,446.7396391953145,184302,573,9908.888388872147,34.885704040527344,,9.76422119140625,0.66
184,MetaDrive-Tut-1Env-v0,18,446.9192784156206,185528,575,9978.986420869827,33.873111724853516,,24.451812744140625,0.66
185,MetaDrive-Tut-1Env-v0,18,446.99734691924124,186144,576,10014.279604434967,34.269805908203125,,7.818331241607666,0.66
186,MetaDrive-Tut-1Env-v0,18,447.1242149665122,187302,578,10079.95669913292,35.932518005371094,,7.476840972900391,0.66
187,MetaDrive-Tut-1Env-v0,18,447.2674206667894,188477,580,10146.862136125565,37.001686096191406,-38.00639343261719,2.9507617950439453,0.66
188,MetaDrive-Tut-1Env-v0,18,447.3349079174706,189052,581,10179.52057504654,33.662841796875,,3.075977325439453,0.66
189,MetaDrive-Tut-1Env-v0,18,447.4360376408076,190271,583,10248.843720912933,41.08921813964844,-42.01100158691406,34.222900390625,0.66
190,MetaDrive-Tut-1Env-v0,18,450.0086142860986,191460,585,10316.550205469131,41.71563720703125,,3.57171893119812,0.67
191,MetaDrive-Tut-1Env-v0,18,452.55215591283064,192045,586,10349.69303226471,37.92263412475586,-38.91321563720703,33.030235290527344,0.68
192,MetaDrive-Tut-1Env-v0,18,452.634181946143,193242,588,10417.667591571808,40.090362548828125,,8.196232795715332,0.68
193,MetaDrive-Tut-1Env-v0,18,452.75338593581824,194408,590,10483.149640321732,37.28764343261719,,3.690438747406006,0.68
194,MetaDrive-Tut-1Env-v0,18,452.16050321653245,195544,592,10547.57171034813,40.93140411376953,,16.73794174194336,0.67
195,MetaDrive-Tut-1Env-v0,18,454.655727922839,196131,593,10580.938203334808,39.66034698486328,-40.49945831298828,7.534256935119629,0.68
196,MetaDrive-Tut-1Env-v0,18,457.2037428374645,197308,595,10647.753175258636,47.269264221191406,,4.884038925170898,0.69
197,MetaDrive-Tut-1Env-v0,18,457.3166349639621,198463,597,10713.677576303482,41.10776138305664,-42.98974609375,36.806884765625,0.69
198,MetaDrive-Tut-1Env-v0,18,454.91677853895305,199271,599,10759.897776603699,41.851470947265625,-43.06519317626953,4.837768077850342,0.68
199,MetaDrive-Tut-1Env-v0,18,454.9221978752279,200445,601,10826.31882762909,43.512672424316406,-44.686336517333984,7.133172988891602,0.68
200,MetaDrive-Tut-1Env-v0,18,454.9810057280284,201033,602,10859.747814178467,43.40674591064453,-44.83142852783203,32.383392333984375,0.68
201,MetaDrive-Tut-1Env-v0,18,457.51484029314616,202174,604,10924.392029762268,41.392120361328125,,21.055770874023438,0.69
202,MetaDrive-Tut-1Env-v0,18,460.03013141314943,203332,606,10990.27237868309,43.214420318603516,,3.081698417663574,0.7
203,MetaDrive-Tut-1Env-v0,18,462.40911521178487,204177,608,11038.407143592834,45.26476287841797,-46.06531524658203,7.544137954711914,0.71
204,MetaDrive-Tut-1Env-v0,18,462.40907565952597,205343,610,11104.809991836548,43.81130599975586,-44.039268493652344,20.715774536132812,0.71
205,MetaDrive-Tut-1Env-v0,18,467.4685732852016,206540,612,11173.114964008331,45.00811767578125,,5.424377918243408,0.73
206,MetaDrive-Tut-1Env-v0,18,469.979458367825,207191,613,11210.230143547058,48.360877990722656,-49.424598693847656,31.426868438720703,0.74
207,MetaDrive-Tut-1Env-v0,18,474.2870815560954,208579,616,11289.543165922165,46.2609748840332,-47.692626953125,24.17660903930664,0.76
208,MetaDrive-Tut-1Env-v0,18,476.81457633302904,209164,617,11322.95537161827,48.067718505859375,,13.590507507324219,0.77
209,MetaDrive-Tut-1Env-v0,18,481.84141114647616,210385,619,11392.647519350052,45.58411407470703,-46.52985763549805,4.55696964263916,0.79
210,MetaDrive-Tut-1Env-v0,18,486.8167421766249,211583,621,11460.565856695175,46.99909973144531,-47.676002502441406,3.8431761264801025,0.81
211,MetaDrive-Tut-1Env-v0,18,489.27276899605647,212192,622,11495.21977686882,46.61719512939453,,9.720680236816406,0.82
212,MetaDrive-Tut-1Env-v0,18,489.255350913307,213395,624,11563.689930200577,45.27294921875,-46.99130630493164,7.318260192871094,0.82
213,MetaDrive-Tut-1Env-v0,18,491.73134868349575,214576,626,11631.132772445679,49.90384292602539,,7.40936279296875,0.83
214,MetaDrive-Tut-1Env-v0,18,491.7243030538294,215161,627,11664.439760446548,49.15205764770508,-49.85426712036133,28.363876342773438,0.83
215,MetaDrive-Tut-1Env-v0,18,494.1583417231811,216363,629,11732.746495008469,45.29875946044922,-46.470558166503906,11.914817810058594,0.84
216,MetaDrive-Tut-1Env-v0,18,494.13438012585743,217567,631,11801.034155845642,49.26879119873047,-50.33148956298828,4.208108425140381,0.84
217,MetaDrive-Tut-1Env-v0,18,494.0947559963772,218198,632,11836.613722801208,48.90977478027344,,24.70489501953125,0.84
218,MetaDrive-Tut-1Env-v0,18,495.68798793382734,219464,634,11908.370100736618,51.6474723815918,,4.745375156402588,0.85
219,MetaDrive-Tut-1Env-v0,18,495.65286908511206,220066,635,11942.55685377121,49.12848663330078,,36.070655822753906,0.85
220,MetaDrive-Tut-1Env-v0,18,495.59679769161403,221276,637,12010.664776086807,49.39231872558594,,4.589616298675537,0.85
221,MetaDrive-Tut-1Env-v0,18,497.1745418829064,222504,639,12080.412697792053,47.43799591064453,,40.44310760498047,0.86
222,MetaDrive-Tut-1Env-v0,18,497.1518060786457,223118,640,12115.261717557907,51.160247802734375,,44.71769714355469,0.86
223,MetaDrive-Tut-1Env-v0,18,498.77437720074596,224356,642,12185.557428836823,51.833229064941406,,5.878025054931641,0.87
224,MetaDrive-Tut-1Env-v0,18,502.31383566613835,225602,644,12255.97223353386,54.03290557861328,,20.865509033203125,0.89
225,MetaDrive-Tut-1Env-v0,18,503.98592316071125,226251,645,12292.881761550903,50.6586799621582,-51.738014221191406,7.188424587249756,0.9
226,MetaDrive-Tut-1Env-v0,18,505.4474330010833,227508,647,12364.203120470047,50.124488830566406,,3.1222360134124756,0.91
227,MetaDrive-Tut-1Env-v0,18,502.6168074572361,228326,649,12410.577066659927,53.40402603149414,,27.189544677734375,0.9
228,MetaDrive-Tut-1Env-v0,18,504.0898669550853,229538,651,12479.456036567688,50.40081024169922,,39.42991638183594,0.91
229,MetaDrive-Tut-1Env-v0,18,504.07212592443716,230162,652,12514.612606525421,52.889469146728516,,47.940040588378906,0.91
230,MetaDrive-Tut-1Env-v0,18,505.3698081279781,231410,654,12585.600119829178,54.50748062133789,,9.168806076049805,0.92
231,MetaDrive-Tut-1Env-v0,18,505.34964679466685,232031,655,12620.88080573082,52.50041198730469,-52.84661102294922,4.830807685852051,0.92
232,MetaDrive-Tut-1Env-v0,18,505.32123955157135,233265,657,12690.587758302689,53.441688537597656,-54.22346115112305,3.409555196762085,0.92
233,MetaDrive-Tut-1Env-v0,18,504.55022759427135,234109,659,12738.766695022583,50.12400817871094,-51.208251953125,9.354338645935059,0.92
234,MetaDrive-Tut-1Env-v0,18,507.00067982764284,235331,661,12808.037407875061,54.42804718017578,-55.092899322509766,7.815158843994141,0.93
235,MetaDrive-Tut-1Env-v0,18,506.9527835919043,236526,663,12875.359467744827,54.02482604980469,,4.215539932250977,0.93
236,MetaDrive-Tut-1Env-v0,18,506.943294234488,237138,664,12910.062976837158,57.188377380371094,,42.20335388183594,0.93
237,MetaDrive-Tut-1Env-v0,18,506.93782639199424,238353,666,12979.397648334503,55.65129089355469,-56.80281066894531,5.269053936004639,0.93
238,MetaDrive-Tut-1Env-v0,18,506.9208136230857,239527,668,13045.810337543488,53.138999938964844,-54.043212890625,29.099403381347656,0.93
239,MetaDrive-Tut-1Env-v0,18,506.8816214590251,240103,669,13078.593846321106,54.520809173583984,-55.00859069824219,4.684323310852051,0.93
240,MetaDrive-Tut-1Env-v0,18,505.8651083042946,241515,672,13158.973064184189,56.78880310058594,-57.51734161376953,4.771512031555176,0.93
241,MetaDrive-Tut-1Env-v0,18,505.84314523756746,242146,673,13194.603809833527,52.1506462097168,,27.277103424072266,0.93
242,MetaDrive-Tut-1Env-v0,18,503.3629419463412,243007,675,13243.501208782196,57.53429412841797,-58.824920654296875,7.193254470825195,0.92
243,MetaDrive-Tut-1Env-v0,18,503.33213498221613,244210,677,13311.836386919022,55.734004974365234,,6.792226791381836,0.92
244,MetaDrive-Tut-1Env-v0,18,503.3045690531906,245398,679,13378.995156049728,57.35266876220703,,36.02120590209961,0.92
245,MetaDrive-Tut-1Env-v0,18,500.89400587943373,246226,681,13425.923555135727,54.1982536315918,,7.962131500244141,0.91
246,MetaDrive-Tut-1Env-v0,18,499.6508737947072,247262,683,13485.073733091354,58.45109558105469,,6.109989643096924,0.9
247,MetaDrive-Tut-1Env-v0,18,499.5599200716767,248511,685,13555.992441892624,56.777198791503906,-57.81769943237305,5.611586093902588,0.9
248,MetaDrive-Tut-1Env-v0,18,499.49778817123837,249119,686,13590.714800357819,56.70075225830078,-56.697654724121094,7.639312744140625,0.9
249,MetaDrive-Tut-1Env-v0,18,499.4231276825462,250340,688,13659.734743833542,59.79545593261719,,16.40403938293457,0.9
250,MetaDrive-Tut-1Env-v0,18,499.3359020164431,251549,690,13728.322926282883,59.59931182861328,-60.50146484375,25.788909912109375,0.9
251,MetaDrive-Tut-1Env-v0,18,499.93544915355494,252176,691,13763.623527765274,57.99364471435547,,9.159709930419922,0.91
252,MetaDrive-Tut-1Env-v0,18,499.92244042911284,253420,693,13834.294432640076,60.174232482910156,,3.9196877479553223,0.91
253,MetaDrive-Tut-1Env-v0,18,499.9043134862134,254010,694,13867.969362735748,60.16240692138672,,5.317392826080322,0.91
254,MetaDrive-Tut-1Env-v0,18,499.83868839257343,255317,696,13942.376425981522,58.30833435058594,-59.021812438964844,5.901478290557861,0.91
255,MetaDrive-Tut-1Env-v0,18,502.2366829652641,256567,698,14012.896145820618,58.53748321533203,-59.657798767089844,35.27598571777344,0.92
256,MetaDrive-Tut-1Env-v0,18,502.21669334749976,257238,699,14051.025003671646,62.42245864868164,,9.38726806640625,0.92
257,MetaDrive-Tut-1Env-v0,18,502.1450523920708,258539,701,14125.049179553986,60.01860809326172,-61.31672286987305,9.927400588989258,0.92
258,MetaDrive-Tut-1Env-v0,18,502.105318836229,259203,702,14162.529344558716,59.54304504394531,-60.59599304199219,22.03185272216797,0.92
259,MetaDrive-Tut-1Env-v0,18,498.70937602129993,260025,704,14209.274944067001,61.095603942871094,-62.15338134765625,3.8457610607147217,0.91
260,MetaDrive-Tut-1Env-v0,18,498.73771507281924,261341,706,14283.973294258118,60.903160095214844,-61.711483001708984,5.934084892272949,0.91
261,MetaDrive-Tut-1Env-v0,18,497.7932138360762,262156,708,14329.988115310669,61.516876220703125,,9.925481796264648,0.91
262,MetaDrive-Tut-1Env-v0,18,497.7390731773911,263439,710,14402.737767219543,61.54644775390625,-62.3292121887207,21.603588104248047,0.91
263,MetaDrive-Tut-1Env-v0,18,497.72830458037157,264085,711,14438.801490545273,60.94585037231445,-62.229087829589844,14.616838455200195,0.91
264,MetaDrive-Tut-1Env-v0,18,496.3295398575232,265437,714,14515.664855480194,62.555850982666016,-63.62574768066406,5.5915327072143555,0.9
265,MetaDrive-Tut-1Env-v0,18,495.74319142014065,266027,715,14549.400805473328,59.557865142822266,-60.50001907348633,7.467352390289307,0.89
266,MetaDrive-Tut-1Env-v0,18,495.7413810058053,267318,717,14622.367121696472,62.733970642089844,,15.86654281616211,0.89
267,MetaDrive-Tut-1Env-v0,18,491.74922845053095,268097,719,14666.450077295303,62.72749328613281,-63.8239631652832,9.201251029968262,0.88
268,MetaDrive-Tut-1Env-v0,18,490.5440698181729,269188,721,14728.285238027573,62.62043762207031,,3.2413134574890137,0.87
269,MetaDrive-Tut-1Env-v0,18,490.53909620070374,270511,723,14803.065325021744,63.37477111816406,-64.13546752929688,8.795963287353516,0.87
270,MetaDrive-Tut-1Env-v0,18,490.54519157265423,271161,724,14839.759826660156,61.55168914794922,-61.85761260986328,8.721138000488281,0.87
271,MetaDrive-Tut-1Env-v0,18,482.7830782195456,272064,727,14891.096153020859,64.19192504882812,,13.983328819274902,0.85
272,MetaDrive-Tut-1Env-v0,18,482.8093186362167,273411,729,14967.105856895447,58.78871154785156,-59.4554443359375,7.496607780456543,0.85
273,MetaDrive-Tut-1Env-v0,18,482.8161138651022,274084,730,15005.021969079971,60.60987854003906,,25.258047103881836,0.85
274,MetaDrive-Tut-1Env-v0,18,482.87997443296837,275429,732,15080.571920156479,61.57228088378906,-62.3681526184082,5.746158599853516,0.85
275,MetaDrive-Tut-1Env-v0,18,482.8852885416904,276091,733,15117.800672531128,63.618125915527344,-63.82386016845703,6.629422187805176,0.85
276,MetaDrive-Tut-1Env-v0,18,478.9980402303303,277581,736,15202.124417304993,62.7961311340332,-63.979583740234375,8.242887496948242,0.84
277,MetaDrive-Tut-1Env-v0,18,479.02526917689033,278247,737,15239.977786064148,60.92377471923828,-61.786468505859375,9.766575813293457,0.84
278,MetaDrive-Tut-1Env-v0,18,479.0686798332065,279579,739,15314.784064292908,61.98867416381836,-63.04199981689453,4.400341987609863,0.84
279,MetaDrive-Tut-1Env-v0,18,479.0979186992874,280276,740,15353.858273506165,62.944618225097656,,21.077594757080078,0.84
280,MetaDrive-Tut-1Env-v0,18,479.11899356768066,281674,742,15433.467110157013,63.91041946411133,,7.999129295349121,0.84
281,MetaDrive-Tut-1Env-v0,18,479.1200257247567,282370,743,15472.960060834885,63.52488327026367,,4.282900810241699,0.84
282,MetaDrive-Tut-1Env-v0,18,479.12720579416185,283069,744,15512.659461975098,59.92789840698242,-61.282997131347656,3.457874298095703,0.84
283,MetaDrive-Tut-1Env-v0,18,479.15315936094106,284489,746,15592.786545038223,61.015201568603516,-61.50932312011719,4.801210403442383,0.84
284,MetaDrive-Tut-1Env-v0,18,479.19003591945176,285183,747,15631.987293720245,60.2408447265625,-61.38333511352539,8.09568977355957,0.84
285,MetaDrive-Tut-1Env-v0,18,481.9905951128623,286580,749,15710.891479730606,63.139678955078125,,3.520171642303467,0.85
286,MetaDrive-Tut-1Env-v0,18,481.99520422269217,287282,750,15750.552941322327,62.84550476074219,,15.386192321777344,0.85
287,MetaDrive-Tut-1Env-v0,18,481.98906506807106,288677,752,15828.742615699768,61.371376037597656,-62.280540466308594,6.274237632751465,0.85
288,MetaDrive-Tut-1Env-v0,18,482.0003973287016,289357,753,15866.888256072998,63.08019256591797,-64.24447631835938,5.65357780456543,0.85
289,MetaDrive-Tut-1Env-v0,18,478.15683729964127,290234,755,15916.626406669617,64.53922271728516,,33.963233947753906,0.84
290,MetaDrive-Tut-1Env-v0,18,478.1978413362811,291659,757,15997.418198823929,62.091094970703125,-62.296443939208984,3.04826021194458,0.84
291,MetaDrive-Tut-1Env-v0,18,478.18521151822955,292362,758,16037.163576841354,66.02644348144531,,34.70842742919922,0.84
292,MetaDrive-Tut-1Env-v0,18,480.61853125322915,293107,759,16079.243904590607,61.90553283691406,-62.639915466308594,3.38527250289917,0.85
293,MetaDrive-Tut-1Env-v0,18,480.47002914878544,294108,760,16135.337809801102,63.69745635986328,,5.992273807525635,0.84
294,MetaDrive-Tut-1Env-v0,18,480.5137468624671,295675,762,16223.946016311646,61.93750762939453,-62.7913932800293,6.506997108459473,0.84
295,MetaDrive-Tut-1Env-v0,18,480.52147101017954,296402,763,16264.73727607727,63.93273162841797,,51.70833969116211,0.84
296,MetaDrive-Tut-1Env-v0,18,480.54286705747336,297184,764,16309.197600364685,63.15904998779297,,8.599626541137695,0.84
297,MetaDrive-Tut-1Env-v0,18,480.50260159588004,298048,765,16357.451478242874,66.0774154663086,,14.291763305664062,0.84
298,MetaDrive-Tut-1Env-v0,18,479.77155729902637,299049,766,16413.46391558647,61.311065673828125,-62.05661392211914,2.134967803955078,0.83
299,MetaDrive-Tut-1Env-v0,18,479.7782911959037,300643,768,16503.416234254837,62.394447326660156,-63.83251190185547,5.802552223205566,0.83
300,MetaDrive-Tut-1Env-v0,18,479.80555094492854,301494,769,16551.57203912735,64.10208892822266,,24.70272445678711,0.83
301,MetaDrive-Tut-1Env-v0,18,479.85677649691263,302260,770,16594.57585000992,62.95231628417969,,16.997203826904297,0.83
302,MetaDrive-Tut-1Env-v0,18,482.342543596971,303100,771,16641.43838262558,63.36592102050781,,4.48798942565918,0.84
303,MetaDrive-Tut-1Env-v0,18,481.6087240711926,304101,772,16697.597219228745,64.50672912597656,-66.05525207519531,6.394550323486328,0.83
304,MetaDrive-Tut-1Env-v0,18,480.86501311679496,305102,773,16754.185020923615,62.901344299316406,,5.616497039794922,0.82
305,MetaDrive-Tut-1Env-v0,18,480.12998237925456,306103,774,16809.921256542206,61.66314697265625,-61.6525993347168,4.881792068481445,0.81
306,MetaDrive-Tut-1Env-v0,18,482.57352375859887,307003,775,16860.497272014618,61.15475082397461,-61.30692672729492,4.028002738952637,0.82
307,MetaDrive-Tut-1Env-v0,18,482.56409035758946,308463,777,16943.265993595123,62.613548278808594,-62.81859588623047,6.939404487609863,0.82
308,MetaDrive-Tut-1Env-v0,18,482.58723879486695,309217,778,16985.905423402786,63.505760192871094,-64.46562194824219,3.740525960922241,0.82
309,MetaDrive-Tut-1Env-v0,18,482.9458346674581,310304,780,17047.326718330383,62.70635223388672,,6.535007476806641,0.82
310,MetaDrive-Tut-1Env-v0,18,482.92319736238926,311078,781,17090.982985258102,59.928611755371094,,7.8306169509887695,0.82
311,MetaDrive-Tut-1Env-v0,18,484.1563688843697,312588,783,17176.169890403748,63.05149841308594,,12.093914031982422,0.83
312,MetaDrive-Tut-1Env-v0,18,484.229805158012,313334,784,17217.937530755997,61.23632049560547,,11.541786193847656,0.83
313,MetaDrive-Tut-1Env-v0,18,484.24495171117485,314114,785,17262.202888965607,58.34404373168945,,4.922075271606445,0.83
314,MetaDrive-Tut-1Env-v0,18,482.2136730048811,315209,787,17324.043504476547,61.02674865722656,-62.914894104003906,24.07692527770996,0.82
315,MetaDrive-Tut-1Env-v0,18,482.26376117576314,316010,788,17369.121233463287,59.72040939331055,,53.66090774536133,0.82
316,MetaDrive-Tut-1Env-v0,18,482.29653865726317,317609,790,17459.388818502426,65.63882446289062,-66.07112121582031,6.1018877029418945,0.82
317,MetaDrive-Tut-1Env-v0,18,482.35847235644155,318414,791,17504.820090055466,61.00917053222656,,7.16018009185791,0.82
318,MetaDrive-Tut-1Env-v0,18,473.49838087290135,319061,794,17541.892800807953,62.805198669433594,-62.939483642578125,7.798647880554199,0.79
319,MetaDrive-Tut-1Env-v0,18,473.3157000200365,320062,795,17597.941376924515,62.78526306152344,,42.99913787841797,0.78
320,MetaDrive-Tut-1Env-v0,18,473.12535993684827,321063,796,17654.31966137886,63.12042999267578,-63.58637237548828,27.68498992919922,0.77
321,MetaDrive-Tut-1Env-v0,18,472.96214212696884,322064,797,17710.332293510437,60.35083770751953,,20.834922790527344,0.76
322,MetaDrive-Tut-1Env-v0,18,472.7309880066941,323065,798,17766.398349523544,62.79964065551758,-63.42039489746094,14.167418479919434,0.75
323,MetaDrive-Tut-1Env-v0,18,472.5154982631186,324066,799,17822.57813000679,55.936344146728516,,5.6831512451171875,0.74
324,MetaDrive-Tut-1Env-v0,18,472.3057358440204,325067,800,17878.269262075424,60.4588623046875,-61.42481994628906,8.084463119506836,0.73
325,MetaDrive-Tut-1Env-v0,18,472.17087830938107,326068,801,17934.370487213135,60.67279052734375,,6.885458946228027,0.72
326,MetaDrive-Tut-1Env-v0,18,471.9604603324526,327069,802,17990.175119400024,60.175514221191406,-61.68389892578125,16.651447296142578,0.71
327,MetaDrive-Tut-1Env-v0,18,475.1967555867602,328070,803,18045.593859434128,60.23051452636719,,3.0460500717163086,0.71
328,MetaDrive-Tut-1Env-v0,18,474.9798971500373,329071,804,18101.69350171089,57.566673278808594,-58.311241149902344,12.296457290649414,0.7
329,MetaDrive-Tut-1Env-v0,18,474.79434287403967,330072,805,18157.7415163517,60.09926986694336,,5.3624186515808105,0.69
330,MetaDrive-Tut-1Env-v0,18,474.6653243613088,331073,806,18213.814113616943,57.14961242675781,-57.73090362548828,9.761838912963867,0.68
331,MetaDrive-Tut-1Env-v0,18,478.21125635630773,332074,807,18269.834843873978,58.68175506591797,,6.223099708557129,0.68
332,MetaDrive-Tut-1Env-v0,18,478.0448161633883,333075,808,18325.84189581871,58.339698791503906,-59.58852767944336,6.724649429321289,0.67
333,MetaDrive-Tut-1Env-v0,18,477.98915213783476,334985,810,18432.54308104515,61.80565643310547,-62.62998580932617,10.452042579650879,0.66
334,MetaDrive-Tut-1Env-v0,18,478.02313487683875,335810,811,18478.919976711273,59.97929763793945,,7.734081268310547,0.66
335,MetaDrive-Tut-1Env-v0,18,482.0748580574593,336753,812,18531.994587421417,58.39048767089844,-59.62451934814453,11.559341430664062,0.67
336,MetaDrive-Tut-1Env-v0,18,480.11763568317,337077,813,18550.768487215042,58.44011688232422,-58.86670684814453,4.462008476257324,0.66
337,MetaDrive-Tut-1Env-v0,18,480.56783085743655,338483,815,18630.500004053116,60.290714263916016,-61.86061477661133,7.231325626373291,0.67
338,MetaDrive-Tut-1Env-v0,18,480.4512024683375,339484,816,18686.489711284637,56.8564567565918,,24.99077796936035,0.66
339,MetaDrive-Tut-1Env-v0,18,480.44224465119805,340245,817,18729.394312620163,57.56779479980469,-58.25169372558594,6.373653888702393,0.66
340,MetaDrive-Tut-1Env-v0,18,484.44911532226865,341039,818,18774.439729213715,60.77973937988281,-60.82958221435547,4.880663871765137,0.67
341,MetaDrive-Tut-1Env-v0,18,485.719443082456,342620,820,18863.5925180912,57.836578369140625,,8.756515502929688,0.68
342,MetaDrive-Tut-1Env-v0,18,485.6720572470663,343413,821,18908.33384490013,61.17886734008789,-61.93450164794922,3.5411782264709473,0.68
343,MetaDrive-Tut-1Env-v0,18,485.6603995271806,344165,822,18950.676393032074,59.384010314941406,-60.05085754394531,11.015231132507324,0.68
344,MetaDrive-Tut-1Env-v0,18,485.6534124679636,345540,824,19028.14440846443,60.65153121948242,,6.599775791168213,0.68
345,MetaDrive-Tut-1Env-v0,18,489.4895487780702,346333,825,19072.976334095,60.2099609375,-61.14411163330078,8.592967987060547,0.69
346,MetaDrive-Tut-1Env-v0,18,489.47977470906056,347120,826,19117.225175619125,59.97344207763672,,33.57492446899414,0.69
347,MetaDrive-Tut-1Env-v0,18,491.34605941371854,348216,828,19179.61322236061,60.392051696777344,,5.401036262512207,0.69
348,MetaDrive-Tut-1Env-v0,18,491.3455801996995,349733,830,19264.985352039337,57.94729232788086,-58.61480712890625,4.116562366485596,0.69
349,MetaDrive-Tut-1Env-v0,18,491.2834666119255,350427,831,19304.056171894073,59.09815979003906,-59.35980987548828,24.766468048095703,0.69
350,MetaDrive-Tut-1Env-v0,18,491.26480828206047,351191,832,19347.145973920822,60.46100616455078,-61.18293762207031,6.068218231201172,0.69
351,MetaDrive-Tut-1Env-v0,18,495.10481470504965,352727,834,19433.62365937233,60.051673889160156,-59.60314178466797,10.375787734985352,0.7
352,MetaDrive-Tut-1Env-v0,18,495.1472466008588,353460,835,19474.859710931778,60.506011962890625,,12.574786186218262,0.7
353,MetaDrive-Tut-1Env-v0,18,495.1243560671095,354198,836,19516.221575975418,55.881378173828125,,11.925954818725586,0.7
354,MetaDrive-Tut-1Env-v0,18,493.0483582680788,355242,838,19575.720078468323,59.2176513671875,,4.9370551109313965,0.69
355,MetaDrive-Tut-1Env-v0,18,493.0220070084421,356712,840,19658.772399425507,60.00743865966797,,5.808499336242676,0.69
356,MetaDrive-Tut-1Env-v0,18,492.96725388916934,357421,841,19698.64918589592,57.241912841796875,-58.235107421875,7.192520618438721,0.69
357,MetaDrive-Tut-1Env-v0,18,492.9546552311464,358179,842,19741.430245161057,54.59324645996094,-55.760108947753906,41.754241943359375,0.69
358,MetaDrive-Tut-1Env-v0,18,490.9137074632483,359306,844,19805.13529729843,59.9271240234375,,8.617154121398926,0.68
359,MetaDrive-Tut-1Env-v0,18,490.8859359940907,360050,845,19847.219928503036,53.16788101196289,,35.23472213745117,0.68
360,MetaDrive-Tut-1Env-v0,18,486.9937107859221,361714,848,19940.432354688644,55.958282470703125,,6.224915027618408,0.67
361,MetaDrive-Tut-1Env-v0,18,486.97398336525686,362430,849,19980.9545109272,56.54140090942383,,17.35120964050293,0.67
362,MetaDrive-Tut-1Env-v0,18,486.9834285486312,363214,850,20025.21147942543,58.326324462890625,,3.126040458679199,0.67
363,MetaDrive-Tut-1Env-v0,18,486.9658796077544,364700,852,20109.283905744553,57.4434928894043,,4.9262471199035645,0.67
364,MetaDrive-Tut-1Env-v0,18,486.96898802287035,365404,853,20148.80091881752,57.549468994140625,,3.6907308101654053,0.67
365,MetaDrive-Tut-1Env-v0,18,490.7817026803623,366144,854,20190.768278360367,58.115928649902344,,10.784423828125,0.68
366,MetaDrive-Tut-1Env-v0,18,490.8093087553033,367574,856,20271.398674964905,57.99835968017578,,6.8299970626831055,0.68
367,MetaDrive-Tut-1Env-v0,18,490.79724535888045,368314,857,20313.052353858948,56.103546142578125,,6.5869550704956055,0.68
368,MetaDrive-Tut-1Env-v0,18,490.80410059913294,369726,859,20392.55753993988,56.64155578613281,,12.429997444152832,0.68
369,MetaDrive-Tut-1Env-v0,18,487.31652064287346,370632,861,20443.88556742668,56.03597640991211,,4.091549873352051,0.68
370,MetaDrive-Tut-1Env-v0,18,487.2922535081572,371290,862,20480.911296606064,56.16300964355469,,17.565099716186523,0.68
371,MetaDrive-Tut-1Env-v0,18,487.2767488519894,372027,863,20522.411284685135,57.79816436767578,-58.370723724365234,8.64349365234375,0.68
372,MetaDrive-Tut-1Env-v0,18,479.6043715438925,373271,867,20593.54517674446,55.45550537109375,-55.940006256103516,4.694344520568848,0.65
373,MetaDrive-Tut-1Env-v0,18,479.60760919102364,374673,869,20672.551733970642,58.218719482421875,-58.785804748535156,6.758088111877441,0.65
374,MetaDrive-Tut-1Env-v0,18,479.5804654486201,375400,870,20713.70573782921,59.039329528808594,,23.052227020263672,0.65
375,MetaDrive-Tut-1Env-v0,18,478.2541050959829,376409,872,20771.016669750214,55.2823600769043,-55.54303741455078,7.001546382904053,0.65
376,MetaDrive-Tut-1Env-v0,18,478.9981909752243,377181,873,20814.575133562088,57.30217742919922,-58.40401840209961,7.992197036743164,0.66
377,MetaDrive-Tut-1Env-v0,18,477.59155167645577,378178,875,20871.101440429688,56.65117263793945,,6.692098140716553,0.66
378,MetaDrive-Tut-1Env-v0,18,477.62176495006963,379568,877,20949.938116550446,56.53351974487305,,5.536313056945801,0.66
379,MetaDrive-Tut-1Env-v0,18,477.64126459479945,380243,878,20988.150020122528,57.06877899169922,-57.016334533691406,4.084758758544922,0.66
380,MetaDrive-Tut-1Env-v0,18,478.91989985707556,381455,880,21057.14095711708,57.98406219482422,-58.75865173339844,36.42273712158203,0.66
381,MetaDrive-Tut-1Env-v0,18,478.9161535793337,382103,881,21093.70514678955,59.24028015136719,-59.80995178222656,6.386155128479004,0.66
382,MetaDrive-Tut-1Env-v0,18,474.4647045151911,383413,884,21168.231497764587,57.32085418701172,-57.520999908447266,10.702122688293457,0.64
383,MetaDrive-Tut-1Env-v0,18,475.7737572467117,384592,886,21235.097319602966,56.01636505126953,,5.784423828125,0.64
384,MetaDrive-Tut-1Env-v0,18,473.76726829609237,385648,888,21295.328387975693,57.05447006225586,,4.410652160644531,0.63
385,MetaDrive-Tut-1Env-v0,18,472.71338621235105,386106,889,21321.705746650696,57.842777252197266,,9.84616470336914,0.62
386,MetaDrive-Tut-1Env-v0,18,472.7044461046195,387493,891,21400.32250380516,55.19894790649414,-56.6170654296875,6.653061866760254,0.62
387,MetaDrive-Tut-1Env-v0,18,476.1544393264007,388206,892,21440.537221431732,56.81657409667969,,3.419638156890869,0.63
388,MetaDrive-Tut-1Env-v0,18,481.6220506789677,389698,894,21524.825266838074,57.60861587524414,,14.151106834411621,0.65
389,MetaDrive-Tut-1Env-v0,18,481.830301412381,390389,895,21564.00639629364,58.93608093261719,-59.822174072265625,4.641290664672852,0.66
390,MetaDrive-Tut-1Env-v0,18,482.05462908013834,391044,896,21601.16570997238,55.800289154052734,,8.016265869140625,0.67
391,MetaDrive-Tut-1Env-v0,18,482.50566966992557,392577,898,21687.688544273376,58.08732604980469,-58.88817596435547,6.102141380310059,0.69
392,MetaDrive-Tut-1Env-v0,18,481.6396292502883,393054,899,21714.94100856781,58.076988220214844,,4.8003034591674805,0.69
393,MetaDrive-Tut-1Env-v0,18,479.96991502041715,394333,901,21787.204310417175,59.372093200683594,-60.29433059692383,17.6942138671875,0.7
394,MetaDrive-Tut-1Env-v0,18,478.2804142644113,395489,903,21852.11380314827,55.5509033203125,-56.01862335205078,6.368353366851807,0.71
395,MetaDrive-Tut-1Env-v0,18,478.4894843176703,396198,904,21892.408373594284,59.6236572265625,,3.862671136856079,0.72
396,MetaDrive-Tut-1Env-v0,18,476.60462435946806,397521,906,21966.566830158234,57.541908264160156,-57.53511047363281,3.9306113719940186,0.72
397,MetaDrive-Tut-1Env-v0,18,473.99223524502764,398321,908,22012.53808093071,55.60179901123047,-55.790382385253906,4.750247001647949,0.72
398,MetaDrive-Tut-1Env-v0,18,473.9822997009151,399237,909,22063.73454785347,59.02136993408203,-59.693870544433594,8.377107620239258,0.72
399,MetaDrive-Tut-1Env-v0,18,473.96950404939264,400238,910,22119.425208568573,60.39035415649414,,5.806499481201172,0.72
400,MetaDrive-Tut-1Env-v0,18,473.83643786450426,401239,911,22175.18647670746,57.912742614746094,-58.95830535888672,7.350379467010498,0.71
401,MetaDrive-Tut-1Env-v0,18,473.61800729560906,402559,913,22249.49883532524,55.42279815673828,-55.80839538574219,3.1217758655548096,0.7
402,MetaDrive-Tut-1Env-v0,18,474.2987812651946,403468,914,22300.492341279984,59.1713981628418,,5.447492599487305,0.71
403,MetaDrive-Tut-1Env-v0,18,474.19223668752187,404469,915,22356.514867067337,58.396480560302734,-59.62578201293945,13.695869445800781,0.7
404,MetaDrive-Tut-1Env-v0,18,474.1859441919541,405470,916,22412.4621925354,54.37830352783203,,3.9916892051696777,0.7
405,MetaDrive-Tut-1Env-v0,18,474.07775491567,406471,917,22468.41453933716,57.056640625,-57.685665130615234,3.6667227745056152,0.69
406,MetaDrive-Tut-1Env-v0,18,473.9612319647174,407472,918,22524.546242952347,57.48922348022461,,8.484640121459961,0.68
407,MetaDrive-Tut-1Env-v0,18,473.83288728416113,408473,919,22580.412608623505,56.91495895385742,-56.983558654785156,12.833037376403809,0.67
408,MetaDrive-Tut-1Env-v0,18,473.7003614708491,409474,920,22636.740459680557,57.66900634765625,,7.908247470855713,0.66
409,MetaDrive-Tut-1Env-v0,18,473.578456726203,410475,921,22692.755813598633,53.823524475097656,-54.9547119140625,27.5190486907959,0.65
410,MetaDrive-Tut-1Env-v0,18,473.45774908688037,411476,922,22748.716675519943,57.88232421875,,6.8090691566467285,0.64
411,MetaDrive-Tut-1Env-v0,18,473.2933815219048,412477,923,22804.656564950943,55.060386657714844,-55.38376235961914,6.119301795959473,0.63
412,MetaDrive-Tut-1Env-v0,18,471.7120705727513,413478,925,22862.09227490425,55.35385513305664,,5.102691173553467,0.61
413,MetaDrive-Tut-1Env-v0,18,471.58855547815017,414479,926,22918.04178214073,56.264225006103516,-56.64519500732422,8.772197723388672,0.6
414,MetaDrive-Tut-1Env-v0,18,469.024282391087,415480,927,22974.50471496582,57.074546813964844,,28.44019889831543,0.59
415,MetaDrive-Tut-1Env-v0,18,470.86495261815816,416481,928,23030.820094823837,57.918006896972656,-57.82956314086914,4.56561803817749,0.59
416,MetaDrive-Tut-1Env-v0,18,466.8478612909155,417619,930,23094.45579814911,54.646484375,-54.805824279785156,3.9240360260009766,0.57
417,MetaDrive-Tut-1Env-v0,18,466.67887229358945,418620,931,23150.115417718887,54.260196685791016,,3.250532865524292,0.56
418,MetaDrive-Tut-1Env-v0,18,464.0944296052084,419621,932,23206.828077077866,59.378395080566406,-59.792564392089844,6.288376808166504,0.55
419,MetaDrive-Tut-1Env-v0,18,463.9507041609078,420622,933,23262.957038402557,58.08216094970703,,5.23096227645874,0.54
420,MetaDrive-Tut-1Env-v0,18,461.33148479743033,421623,934,23319.3866853714,56.58626937866211,-56.561439514160156,7.1677680015563965,0.53
421,MetaDrive-Tut-1Env-v0,18,458.68173694109885,422624,935,23375.820910453796,55.905765533447266,,14.272356033325195,0.52
422,MetaDrive-Tut-1Env-v0,18,456.0626672529139,423625,936,23432.29435610771,55.02126693725586,-55.04652786254883,5.5825066566467285,0.51
423,MetaDrive-Tut-1Env-v0,18,453.42815408472495,424626,937,23488.623830080032,58.29705810546875,,3.475860357284546,0.5
424,MetaDrive-Tut-1Env-v0,18,452.8241840450379,425627,938,23545.20786356926,57.44646453857422,-58.248809814453125,3.565868377685547,0.5
425,MetaDrive-Tut-1Env-v0,18,446.6754590419067,426781,940,23610.852549552917,60.53395080566406,-61.315921783447266,8.232868194580078,0.48
426,MetaDrive-Tut-1Env-v0,18,444.14603223407335,427782,941,23667.700521230698,60.00676727294922,,6.374327659606934,0.47
427,MetaDrive-Tut-1Env-v0,18,438.958326086586,428189,943,23690.884241104126,59.71868133544922,-60.333858489990234,7.024750232696533,0.45
428,MetaDrive-Tut-1Env-v0,18,437.0867265327748,429601,946,23771.17117667198,55.24106979370117,-56.12054443359375,13.286283493041992,0.44
429,MetaDrive-Tut-1Env-v0,18,431.9261717426182,430016,948,23794.90261387825,55.250892639160156,,6.355715751647949,0.42
430,MetaDrive-Tut-1Env-v0,18,426.75105448510686,431219,950,23862.844654798508,55.738441467285156,-56.370811462402344,4.881837368011475,0.4
431,MetaDrive-Tut-1Env-v0,18,420.82963768106407,432922,953,23959.59041285515,59.70753479003906,,6.05802583694458,0.37
432,MetaDrive-Tut-1Env-v0,18,418.24063847464276,433132,954,23971.429928064346,57.458587646484375,,8.838155746459961,0.36
433,MetaDrive-Tut-1Env-v0,18,412.1904538948388,434540,957,24051.498463869095,53.7108154296875,,6.794804573059082,0.33
434,MetaDrive-Tut-1Env-v0,18,409.6346060986764,435541,958,24108.132920265198,56.90779113769531,-57.545928955078125,16.803510665893555,0.32
435,MetaDrive-Tut-1Env-v0,18,407.07033348558014,436542,959,24164.897315502167,56.740867614746094,,7.295489311218262,0.31
436,MetaDrive-Tut-1Env-v0,18,408.1198919382088,437543,960,24221.430272579193,55.304542541503906,-56.04160690307617,5.413724899291992,0.31
437,MetaDrive-Tut-1Env-v0,18,405.32000105281656,438760,962,24289.78123664856,55.06270980834961,,27.707901000976562,0.29
438,MetaDrive-Tut-1Env-v0,18,402.7634534762575,439761,963,24346.2227101326,55.083335876464844,-55.99043273925781,20.23518943786621,0.28
439,MetaDrive-Tut-1Env-v0,18,404.71308081778005,440762,964,24402.712408065796,56.43891143798828,,5.395269870758057,0.28
440,MetaDrive-Tut-1Env-v0,18,406.0043364489644,441239,965,24429.863486528397,57.90248107910156,-58.40113830566406,8.179767608642578,0.28
441,MetaDrive-Tut-1Env-v0,18,406.7353395305043,442940,968,24525.927428483963,54.23701477050781,,5.036252498626709,0.27
442,MetaDrive-Tut-1Env-v0,18,404.17812084779865,443143,969,24537.716145038605,55.16413116455078,-55.944740295410156,3.80279541015625,0.26
443,MetaDrive-Tut-1Env-v0,18,405.0655738233301,444635,971,24622.120646953583,54.09789276123047,-54.71883773803711,7.854808807373047,0.25
444,MetaDrive-Tut-1Env-v0,18,402.3305318506823,445834,973,24689.363498210907,55.067161560058594,,21.962141036987305,0.23
445,MetaDrive-Tut-1Env-v0,18,401.9191108743242,446835,974,24746.108068227768,52.84328842163086,-53.268310546875,5.198722839355469,0.23
446,MetaDrive-Tut-1Env-v0,18,401.01066259452716,447304,975,24773.42799925804,55.297271728515625,,5.417488098144531,0.22
447,MetaDrive-Tut-1Env-v0,18,399.9038261771548,448769,977,24856.065725803375,55.988365173339844,-56.56182098388672,11.401266098022461,0.2
448,MetaDrive-Tut-1Env-v0,18,399.05727251822185,449219,978,24882.24477291107,55.6771240234375,-55.68712615966797,6.386211395263672,0.19
449,MetaDrive-Tut-1Env-v0,18,399.6587346671533,450220,979,24938.145427703857,55.00429153442383,,5.063582897186279,0.19
450,MetaDrive-Tut-1Env-v0,18,397.6976065135108,451064,982,24986.391474723816,54.38667297363281,,7.708443641662598,0.17
451,MetaDrive-Tut-1Env-v0,18,395.93555522621654,452065,983,25042.817353010178,54.61775207519531,-54.728302001953125,3.7413923740386963,0.17
452,MetaDrive-Tut-1Env-v0,18,395.112140671501,453023,985,25097.810410261154,56.7817497253418,-57.393035888671875,4.586896896362305,0.16
453,MetaDrive-Tut-1Env-v0,18,395.3609467379587,454432,987,25178.132694721222,56.14967346191406,,9.429811477661133,0.15
454,MetaDrive-Tut-1Env-v0,18,395.2379977965257,455433,988,25233.731069087982,57.069053649902344,-57.55430603027344,7.026457786560059,0.14
455,MetaDrive-Tut-1Env-v0,18,396.2307211617674,456434,989,25289.472611904144,56.415279388427734,,4.061152458190918,0.14
456,MetaDrive-Tut-1Env-v0,18,396.0615748442799,457435,990,25345.49522948265,54.50891876220703,-55.62120819091797,60.229637145996094,0.13
457,MetaDrive-Tut-1Env-v0,18,394.49626649303104,458398,992,25401.076633930206,51.94391632080078,,4.309689521789551,0.11
458,MetaDrive-Tut-1Env-v0,18,394.408877453359,459399,993,25457.193868160248,49.977684020996094,-49.996925354003906,5.487107276916504,0.1
459,MetaDrive-Tut-1Env-v0,18,392.7741009914822,460349,995,25511.367640972137,55.1169548034668,-55.57038879394531,6.3441267013549805,0.08
460,MetaDrive-Tut-1Env-v0,18,389.2038743047953,461513,997,25576.785281658173,52.057682037353516,-52.205238342285156,8.499004364013672,0.06
461,MetaDrive-Tut-1Env-v0,18,389.06623053827667,462514,998,25632.75015926361,48.762359619140625,,4.40418815612793,0.05
462,MetaDrive-Tut-1Env-v0,18,390.01244947227633,463515,999,25688.68542122841,52.83565902709961,-53.46214294433594,6.764304161071777,0.05
463,MetaDrive-Tut-1Env-v0,18,391.92048580507225,464516,1000,25744.455804347992,52.124183654785156,,19.759849548339844,0.05
464,MetaDrive-Tut-1Env-v0,18,391.11915541340625,465002,1001,25772.543595075607,55.39177322387695,,3.9816901683807373,0.04
465,MetaDrive-Tut-1Env-v0,18,389.32875470133973,466688,1004,25867.857049942017,53.10350036621094,,11.295174598693848,0.02
466,MetaDrive-Tut-1Env-v0,18,390.44510772831114,467156,1005,25894.564774513245,52.494667053222656,,7.149506568908691,0.02
467,MetaDrive-Tut-1Env-v0,18,390.4279307664538,468157,1006,25950.380930662155,54.729644775390625,-55.48512268066406,6.051726341247559,0.02
468,MetaDrive-Tut-1Env-v0,18,388.73518724274,469782,1009,26042.413741350174,51.21809005737305,,11.924484252929688,0.01
469,MetaDrive-Tut-1Env-v0,18,388.70155296451367,470783,1010,26098.445025205612,53.31199645996094,-54.213016510009766,7.572286128997803,0.01
470,MetaDrive-Tut-1Env-v0,18,386.15577835298916,471014,1011,26111.819414377213,54.99456024169922,,4.159811973571777,0.01
471,MetaDrive-Tut-1Env-v0,18,381.8886272170514,472887,1015,26218.717357873917,55.656497955322266,-57.2677116394043,11.308744430541992,0.0
472,MetaDrive-Tut-1Env-v0,18,381.1669976107149,473373,1016,26246.517278909683,56.928680419921875,-57.65452575683594,7.593297958374023,0.0
473,MetaDrive-Tut-1Env-v0,18,381.0841604733183,474374,1017,26302.566324949265,52.24391174316406,,4.791589260101318,0.0
474,MetaDrive-Tut-1Env-v0,18,381.0270466281486,475375,1018,26358.45005607605,52.823482513427734,-53.91233825683594,9.618430137634277,0.0
475,MetaDrive-Tut-1Env-v0,18,380.92143608754907,476376,1019,26414.5501871109,56.38542175292969,,19.396024703979492,0.0
476,MetaDrive-Tut-1Env-v0,18,380.85740656321497,477377,1020,26470.703755140305,53.58684539794922,-54.07725524902344,4.4797210693359375,0.0
477,MetaDrive-Tut-1Env-v0,18,380.8019871288044,478378,1021,26527.19784474373,51.63675308227539,,4.786267280578613,0.0
478,MetaDrive-Tut-1Env-v0,18,378.07158844154367,479577,1023,26594.329220294952,51.23054504394531,-51.721458435058594,3.159203052520752,0.0
479,MetaDrive-Tut-1Env-v0,18,378.68762916060564,480578,1024,26650.43264389038,49.976444244384766,,3.7960071563720703,0.0
480,MetaDrive-Tut-1Env-v0,18,379.2709681517643,481579,1025,26706.53148317337,51.82720947265625,-52.581703186035156,7.250593185424805,0.0
481,MetaDrive-Tut-1Env-v0,18,379.17750115998854,482580,1026,26762.661864757538,49.33688735961914,,5.466838836669922,0.0
482,MetaDrive-Tut-1Env-v0,18,381.53377952280886,483581,1027,26818.650608301163,54.460411071777344,-53.70534133911133,20.221529006958008,0.0
483,MetaDrive-Tut-1Env-v0,18,381.52747409296734,484582,1028,26874.77140903473,52.783050537109375,,5.164381980895996,0.0
484,MetaDrive-Tut-1Env-v0,18,384.5828585900753,485059,1029,26902.10538983345,56.94774627685547,-57.569087982177734,4.240561485290527,0.0
485,MetaDrive-Tut-1Env-v0,18,384.5782429840816,486060,1030,26958.311252117157,49.68247985839844,,5.085765838623047,0.0
486,MetaDrive-Tut-1Env-v0,18,383.8326717380602,487754,1033,27053.71230363846,50.986595153808594,,6.86977481842041,0.0
487,MetaDrive-Tut-1Env-v0,18,386.2312963714422,488755,1034,27110.08169913292,54.34120178222656,-54.84954833984375,6.623237133026123,0.0
488,MetaDrive-Tut-1Env-v0,18,387.9037084040343,489903,1036,27174.504835128784,54.090309143066406,-54.71918487548828,5.424964427947998,0.0
489,MetaDrive-Tut-1Env-v0,18,390.30556786579035,490904,1037,27230.261600255966,55.79181671142578,,43.56732940673828,0.0
490,MetaDrive-Tut-1Env-v0,18,392.6811991187503,491905,1038,27286.290495872498,52.955230712890625,-53.472801208496094,7.860008239746094,0.0
491,MetaDrive-Tut-1Env-v0,18,396.0289901888887,492906,1039,27342.553153276443,52.6961669921875,,7.859058380126953,0.0
492,MetaDrive-Tut-1Env-v0,18,398.6553059027215,493855,1040,27390.47025370598,53.82706069946289,-54.68617248535156,7.5535125732421875,0.01
493,MetaDrive-Tut-1Env-v0,18,401.21210604715424,494425,1041,27416.79549074173,54.9293212890625,-56.47013854980469,2.788282632827759,0.02
494,MetaDrive-Tut-1Env-v0,18,406.43350057438505,495553,1043,27450.335078716278,53.25808334350586,-54.484130859375,7.726984977722168,0.04
495,MetaDrive-Tut-1Env-v0,18,409.0198635793048,496115,1044,27457.20890688896,49.458778381347656,-49.936405181884766,7.237969398498535,0.05
496,MetaDrive-Tut-1Env-v0,18,414.22640040577323,497214,1046,27470.248822450638,51.542457580566406,,5.366175174713135,0.07
497,MetaDrive-Tut-1Env-v0,18,419.3719532664524,498321,1048,27479.183479309082,54.30735778808594,-55.608341217041016,3.6587324142456055,0.09
498,MetaDrive-Tut-1Env-v0,18,420.7996990135678,499498,1051,27488.666971683502,53.52094268798828,,6.578283786773682,0.1
