yqg36/assignment-2022fall/assignment3/MetaDrive-Tut-50Env-v0/td3/progress.csv
,log_dir,frame_per_second,episode_reward,total_steps,total_episodes,total_time,target_q,actor_loss,critic_loss,success_rate
0,MetaDrive-Tut-50Env-v0,494,11.480666973129015,2001,2,4.046865940093994,,,,0.0
1,MetaDrive-Tut-50Env-v0,497,11.42965453603066,3002,3,6.030324935913086,,,,0.0
2,MetaDrive-Tut-50Env-v0,534,10.825612625582451,4003,4,7.4948647022247314,,,,0.0
3,MetaDrive-Tut-50Env-v0,534,10.435412866095348,5930,6,11.084882974624634,,,,0.0
4,MetaDrive-Tut-50Env-v0,549,10.823005842144322,6931,7,12.618998765945435,,,,0.0
5,MetaDrive-Tut-50Env-v0,553,10.547311690476723,7932,8,14.320573329925537,,,,0.0
6,MetaDrive-Tut-50Env-v0,557,9.315608625432139,8330,9,14.951240062713623,,,,0.0
7,MetaDrive-Tut-50Env-v0,560,9.451100426492944,9331,10,16.635138273239136,,,,0.0
8,MetaDrive-Tut-50Env-v0,473,9.247802003972744,10045,11,21.22863459587097,0.013607529923319817,-0.015196124091744423,0.0009532287949696183,0.0
9,MetaDrive-Tut-50Env-v0,144,1.0390554751596306,11002,46,76.19006252288818,0.05559226870536804,,0.20771825313568115,0.0
10,MetaDrive-Tut-50Env-v0,80,-0.48450400742287664,12398,73,154.7861545085907,0.03796534985303879,,0.18680164217948914,0.0
11,MetaDrive-Tut-50Env-v0,68,-0.5324091869518911,13002,85,188.76681876182556,0.008860635571181774,,0.527326226234436,0.0
12,MetaDrive-Tut-50Env-v0,56,-1.383250036008572,14021,114,246.88882446289062,0.09344736486673355,-0.12466251850128174,0.10152384638786316,0.0
13,MetaDrive-Tut-50Env-v0,49,0.2642416199051953,15003,138,303.35967087745667,0.11007457971572876,-0.11550672352313995,0.6070873737335205,0.0
14,MetaDrive-Tut-50Env-v0,44,4.100917590231206,16063,154,362.99607610702515,0.2313566505908966,-0.2828919589519501,0.39946186542510986,0.0
15,MetaDrive-Tut-50Env-v0,40,7.346987342029561,17048,168,418.13161611557007,0.34807106852531433,,1.0756319761276245,0.0
16,MetaDrive-Tut-50Env-v0,38,10.127226062685244,18034,184,474.0849378108978,0.7754344344139099,,0.45298367738723755,0.0
17,MetaDrive-Tut-50Env-v0,35,12.798035025175563,19004,199,528.7442586421967,1.0291976928710938,,0.7073029279708862,0.0
18,MetaDrive-Tut-50Env-v0,34,16.300520661945015,20015,210,585.3319947719574,1.4607834815979004,-1.470664381980896,0.12594619393348694,0.0
19,MetaDrive-Tut-50Env-v0,32,22.927796839521275,21294,217,656.4850697517395,1.927773356437683,,0.6918836236000061,0.0
20,MetaDrive-Tut-50Env-v0,31,28.750161038325018,22183,220,706.244482755661,2.4240684509277344,-2.5824851989746094,0.6631832718849182,0.01
21,MetaDrive-Tut-50Env-v0,30,35.50738823723553,23165,224,760.6439189910889,2.981071949005127,-3.3124752044677734,1.0118694305419922,0.03
22,MetaDrive-Tut-50Env-v0,29,42.72057295809739,24069,228,811.5209295749664,3.694517135620117,-4.049104690551758,1.0199880599975586,0.04
23,MetaDrive-Tut-50Env-v0,28,52.25861367730935,25114,233,869.5810453891754,4.546654224395752,,1.7265046834945679,0.05
24,MetaDrive-Tut-50Env-v0,28,62.008455767161024,26365,237,939.4023196697235,5.896488189697266,-5.9770827293396,1.2232255935668945,0.07
25,MetaDrive-Tut-50Env-v0,27,67.55186211826882,27050,240,977.7471663951874,6.559638977050781,,1.5598974227905273,0.08
26,MetaDrive-Tut-50Env-v0,27,74.78448122545484,28034,244,1033.1769444942474,7.037410259246826,,1.1771314144134521,0.08
27,MetaDrive-Tut-50Env-v0,26,82.07573071470296,29004,250,1087.4986317157745,7.798216819763184,,0.9870396852493286,0.08
28,MetaDrive-Tut-50Env-v0,26,82.52762311296398,30005,251,1142.635681629181,8.950032234191895,-9.139638900756836,0.44333213567733765,0.08
29,MetaDrive-Tut-50Env-v0,25,88.11291337243541,31711,256,1236.7096581459045,9.424955368041992,-9.77448844909668,3.312375783920288,0.09
30,MetaDrive-Tut-50Env-v0,25,89.80034206454215,32026,258,1254.1473407745361,9.71027946472168,,0.7609006762504578,0.09
31,MetaDrive-Tut-50Env-v0,25,92.92498382775419,33027,259,1309.356989145279,10.304994583129883,-10.5239896774292,1.0513420104980469,0.09
32,MetaDrive-Tut-50Env-v0,24,102.49415616365182,34073,264,1367.5726563930511,10.605452537536621,-10.893852233886719,4.972187519073486,0.1
33,MetaDrive-Tut-50Env-v0,24,108.69647608188465,35051,269,1422.9766538143158,11.601543426513672,-11.86494255065918,2.585007905960083,0.1
34,MetaDrive-Tut-50Env-v0,24,119.26377390375687,36431,274,1502.6276228427887,13.779630661010742,-14.178916931152344,2.353734016418457,0.12
35,MetaDrive-Tut-50Env-v0,23,128.23081110658686,37494,279,1563.3448836803436,14.410493850708008,,16.319488525390625,0.13
36,MetaDrive-Tut-50Env-v0,23,133.05345167244653,38037,284,1594.167840719223,15.956738471984863,-16.139812469482422,3.2360732555389404,0.13
37,MetaDrive-Tut-50Env-v0,23,141.80270912205583,39085,292,1654.1485736370087,17.007774353027344,-16.96430206298828,3.3729286193847656,0.13
38,MetaDrive-Tut-50Env-v0,23,144.18393314174972,40459,297,1730.9693627357483,16.673473358154297,-16.481372833251953,1.4437141418457031,0.13
39,MetaDrive-Tut-50Env-v0,23,148.69493782243399,41044,302,1764.1751463413239,17.27967643737793,,1.9723347425460815,0.13
40,MetaDrive-Tut-50Env-v0,23,153.7761511218423,42023,312,1819.739904165268,18.733726501464844,-19.084064483642578,2.8085503578186035,0.13
41,MetaDrive-Tut-50Env-v0,22,150.83407889423134,43023,321,1877.0234115123749,20.70555305480957,-21.472246170043945,2.200471878051758,0.12
42,MetaDrive-Tut-50Env-v0,22,138.99413454965753,44076,332,1936.670756816864,21.01886749267578,,4.771299839019775,0.08
43,MetaDrive-Tut-50Env-v0,22,127.78740374902685,45004,341,1989.8217377662659,22.676721572875977,,9.990035057067871,0.05
44,MetaDrive-Tut-50Env-v0,22,125.1984572981422,46056,349,2049.5091750621796,23.060836791992188,,3.421023368835449,0.05
45,MetaDrive-Tut-50Env-v0,22,124.95353232611713,47020,355,2104.1950566768646,23.219070434570312,,13.368921279907227,0.04
46,MetaDrive-Tut-50Env-v0,22,123.6835917830273,48247,362,2173.1909959316254,25.931251525878906,-26.227298736572266,3.6584901809692383,0.04
47,MetaDrive-Tut-50Env-v0,22,124.74572527531282,49345,367,2234.826809167862,25.492647171020508,-26.23615074157715,3.1604442596435547,0.05
48,MetaDrive-Tut-50Env-v0,21,128.40303968785358,50402,370,2294.156950712204,27.900501251220703,,6.61992073059082,0.06
49,MetaDrive-Tut-50Env-v0,21,130.22734467290505,51051,373,2330.6156435012817,28.190210342407227,-29.157451629638672,6.99223518371582,0.07
50,MetaDrive-Tut-50Env-v0,21,133.30352809295107,52020,375,2385.193361520767,28.547119140625,,5.626152992248535,0.08
51,MetaDrive-Tut-50Env-v0,21,137.00777731990914,53671,380,2478.6174778938293,29.638378143310547,-30.123382568359375,8.862322807312012,0.09
52,MetaDrive-Tut-50Env-v0,21,141.00906749566803,54410,382,2519.969174146652,29.709365844726562,,7.083481788635254,0.11
53,MetaDrive-Tut-50Env-v0,21,146.65091149704602,55377,384,2574.142718076706,31.157787322998047,-31.591018676757812,20.989368438720703,0.13
54,MetaDrive-Tut-50Env-v0,21,148.3115798296891,56060,386,2612.809954404831,34.23042678833008,,9.86306381225586,0.14
55,MetaDrive-Tut-50Env-v0,21,155.74675477887587,57348,390,2684.812413454056,32.62834930419922,,4.731922626495361,0.17
56,MetaDrive-Tut-50Env-v0,21,161.0147973382593,58288,392,2737.622367620468,32.793556213378906,,25.040382385253906,0.19
57,MetaDrive-Tut-50Env-v0,21,167.7875521599248,59280,394,2793.6483640670776,34.54268264770508,,14.116777420043945,0.21
58,MetaDrive-Tut-50Env-v0,21,174.74744526204944,60317,396,2852.2572939395905,36.2760009765625,-36.92166519165039,8.504026412963867,0.23
59,MetaDrive-Tut-50Env-v0,21,179.4058148883587,61223,398,2902.444039106369,35.577857971191406,-36.15111541748047,10.546085357666016,0.25
60,MetaDrive-Tut-50Env-v0,21,184.37523573358493,62173,400,2955.7373535633087,35.52999496459961,-36.33677673339844,13.074056625366211,0.27
61,MetaDrive-Tut-50Env-v0,20,193.3898890905939,63477,403,3028.5941531658173,38.01480484008789,-38.555206298828125,10.950470924377441,0.3
62,MetaDrive-Tut-50Env-v0,20,198.5392510981301,64412,405,3081.0530729293823,40.26200866699219,,10.524566650390625,0.32
63,MetaDrive-Tut-50Env-v0,20,203.9562973840164,65195,407,3124.7695314884186,38.08411407470703,-39.02521514892578,17.216339111328125,0.34
64,MetaDrive-Tut-50Env-v0,20,209.39847009872193,66174,409,3180.2610342502594,37.95502853393555,,16.473812103271484,0.35
65,MetaDrive-Tut-50Env-v0,20,213.284748798961,67014,411,3227.12638092041,37.97315216064453,,12.320293426513672,0.37
66,MetaDrive-Tut-50Env-v0,20,217.87467062298808,68018,413,3283.5107657909393,38.63459777832031,,11.100391387939453,0.39
67,MetaDrive-Tut-50Env-v0,20,224.235227702443,69082,415,3343.1673970222473,42.207733154296875,,14.379464149475098,0.41
68,MetaDrive-Tut-50Env-v0,20,229.23949658120753,70024,417,3396.0878751277924,41.31292724609375,,14.058780670166016,0.43
69,MetaDrive-Tut-50Env-v0,20,233.73851868547155,71035,419,3452.102869987488,40.71525573730469,-42.16167449951172,8.922744750976562,0.45
70,MetaDrive-Tut-50Env-v0,20,238.7276557736515,72024,422,3507.668848514557,41.65620422363281,,18.84639549255371,0.47
71,MetaDrive-Tut-50Env-v0,20,245.50797811059033,73177,424,3572.8730416297913,44.189796447753906,-44.151336669921875,12.901201248168945,0.49
72,MetaDrive-Tut-50Env-v0,20,249.58291027715546,74091,427,3624.736843585968,42.08241653442383,-42.824073791503906,6.852714538574219,0.5
73,MetaDrive-Tut-50Env-v0,20,256.95166623857926,75474,430,3701.668363571167,43.3348274230957,,5.793638706207275,0.53
74,MetaDrive-Tut-50Env-v0,20,259.35718264712347,76019,432,3732.3041574954987,42.87297821044922,-43.758209228515625,10.939735412597656,0.54
75,MetaDrive-Tut-50Env-v0,20,264.4429026461644,77276,436,3802.502406358719,43.22240447998047,,7.875055313110352,0.55
76,MetaDrive-Tut-50Env-v0,20,270.1513065113454,78227,438,3855.7019872665405,43.79521942138672,-44.263282775878906,11.506903648376465,0.57
77,MetaDrive-Tut-50Env-v0,20,273.92282910548766,79104,441,3904.7551584243774,43.94548416137695,,7.825879096984863,0.58
78,MetaDrive-Tut-50Env-v0,20,277.7259708361309,80217,443,3967.1909255981445,45.50206756591797,-46.204811096191406,24.277873992919922,0.6
79,MetaDrive-Tut-50Env-v0,20,282.4586673894296,81056,445,4013.8010087013245,45.40857696533203,,8.149406433105469,0.62
80,MetaDrive-Tut-50Env-v0,20,286.44846921031234,82084,448,4071.12389421463,44.37774658203125,,21.792469024658203,0.63
81,MetaDrive-Tut-50Env-v0,20,291.26792435189844,83253,451,4136.791035890579,44.81721496582031,-45.36327362060547,8.189386367797852,0.65
82,MetaDrive-Tut-50Env-v0,20,296.45073055111806,84030,453,4180.270552635193,45.235015869140625,,7.309100151062012,0.67
83,MetaDrive-Tut-50Env-v0,20,300.0354959911882,85016,455,4235.261011838913,46.184749603271484,,10.683565139770508,0.69
84,MetaDrive-Tut-50Env-v0,20,306.3414214899779,86175,458,4299.827875137329,45.063377380371094,-45.97044372558594,8.762935638427734,0.72
85,MetaDrive-Tut-50Env-v0,20,309.4635229547308,87049,460,4348.618706226349,46.89247512817383,-47.90071105957031,5.8139214515686035,0.74
86,MetaDrive-Tut-50Env-v0,19,312.228260027548,88214,463,4413.9810955524445,46.46466064453125,,12.192694664001465,0.76
87,MetaDrive-Tut-50Env-v0,19,313.51672893453315,89015,465,4458.384366750717,44.576515197753906,-45.25969696044922,8.592649459838867,0.77
88,MetaDrive-Tut-50Env-v0,19,317.5416502606544,90007,467,4514.0348246097565,44.99690246582031,-45.125762939453125,16.139127731323242,0.79
89,MetaDrive-Tut-50Env-v0,19,317.514888799681,91225,470,4582.191202402115,46.18779754638672,-46.51515579223633,8.26103401184082,0.8
90,MetaDrive-Tut-50Env-v0,19,324.7964248138631,92284,472,4641.871456384659,45.94342803955078,,6.734549045562744,0.82
91,MetaDrive-Tut-50Env-v0,19,324.4829510445776,93411,474,4705.957437753677,48.15536117553711,-49.02857208251953,15.601347923278809,0.82
92,MetaDrive-Tut-50Env-v0,19,322.5389657065351,94253,477,4753.646386146545,45.85258102416992,-46.26506042480469,8.679275512695312,0.81
93,MetaDrive-Tut-50Env-v0,19,326.2005867786676,95014,479,4796.253546953201,48.018890380859375,,15.268800735473633,0.83
94,MetaDrive-Tut-50Env-v0,19,316.27691289279454,96203,484,4862.430714130402,46.15811538696289,-46.408294677734375,11.195161819458008,0.79
95,MetaDrive-Tut-50Env-v0,19,313.23237453581885,97315,488,4924.016489982605,48.297035217285156,-48.481536865234375,29.9454345703125,0.78
96,MetaDrive-Tut-50Env-v0,19,313.65434097749943,98090,490,4967.338112592697,45.18190002441406,,30.143783569335938,0.78
97,MetaDrive-Tut-50Env-v0,19,310.311801643266,99091,491,5022.7103135585785,46.60144805908203,-46.51448059082031,23.544418334960938,0.77
98,MetaDrive-Tut-50Env-v0,19,308.3226722301098,100625,493,5107.3627116680145,47.760074615478516,-48.0970344543457,35.99708557128906,0.76
99,MetaDrive-Tut-50Env-v0,19,304.8920240973106,101343,495,5148.069693565369,47.518165588378906,-46.60465621948242,5.80271053314209,0.75
100,MetaDrive-Tut-50Env-v0,19,306.1540954316044,102402,497,5207.66771197319,45.94255065917969,,17.782241821289062,0.75
101,MetaDrive-Tut-50Env-v0,19,305.0128387750251,103279,499,5256.715812444687,47.704402923583984,-47.80149841308594,12.770408630371094,0.75
102,MetaDrive-Tut-50Env-v0,19,307.57425933070596,104330,501,5315.305532693863,45.96162414550781,,21.431257247924805,0.75
103,MetaDrive-Tut-50Env-v0,19,306.1460833478884,105157,503,5361.482853412628,48.51326370239258,-49.24941635131836,12.82219123840332,0.75
104,MetaDrive-Tut-50Env-v0,19,306.5925593450327,106048,505,5412.217425107956,47.4402961730957,,8.912883758544922,0.74
105,MetaDrive-Tut-50Env-v0,19,308.79475127887054,107575,508,5497.559201955795,46.47347640991211,-47.30237579345703,11.604113578796387,0.75
106,MetaDrive-Tut-50Env-v0,19,307.6600714520715,108037,509,5523.600785970688,47.85771560668945,-48.42662811279297,10.112174034118652,0.74
107,MetaDrive-Tut-50Env-v0,19,308.96707601237625,109332,512,5595.827792882919,48.801055908203125,,17.04755401611328,0.74
108,MetaDrive-Tut-50Env-v0,19,306.3616072397645,110056,514,5635.557732343674,47.7007942199707,,7.271911144256592,0.74
109,MetaDrive-Tut-50Env-v0,19,304.1011429481782,111371,517,5708.645801305771,45.6963996887207,-45.71531677246094,8.243671417236328,0.74
110,MetaDrive-Tut-50Env-v0,19,301.8119137593175,112046,519,5746.461667537689,47.39398956298828,,9.412302017211914,0.73
111,MetaDrive-Tut-50Env-v0,19,301.72193007309215,113476,523,5826.6373970508575,46.54063415527344,,31.92997932434082,0.72
112,MetaDrive-Tut-50Env-v0,19,301.54482625444723,114091,524,5861.067328453064,48.800689697265625,-49.13641357421875,20.5301513671875,0.72
113,MetaDrive-Tut-50Env-v0,19,303.4726549090925,115337,527,5931.593079328537,47.82866287231445,-48.17424392700195,34.48249053955078,0.73
114,MetaDrive-Tut-50Env-v0,19,304.2083207055971,116269,529,5983.480666399002,49.3283576965332,-49.86244583129883,17.82168960571289,0.73
115,MetaDrive-Tut-50Env-v0,19,306.7772754778412,117078,531,6028.959232330322,47.915122985839844,,13.099393844604492,0.74
116,MetaDrive-Tut-50Env-v0,19,307.94177035459853,118256,534,6094.517137765884,48.06789016723633,,16.008922576904297,0.76
117,MetaDrive-Tut-50Env-v0,19,307.13265069042075,119373,537,6157.001272439957,49.322975158691406,-49.84516143798828,4.674617290496826,0.76
118,MetaDrive-Tut-50Env-v0,19,308.4287882563212,120040,539,6193.73841547966,47.78200912475586,,12.910751342773438,0.77
119,MetaDrive-Tut-50Env-v0,19,307.6549681171589,121075,542,6251.9578149318695,48.94099807739258,-50.36272430419922,35.89314270019531,0.76
120,MetaDrive-Tut-50Env-v0,19,304.86993942291826,122015,545,6304.741927623749,47.65987777709961,-48.00747299194336,32.84380340576172,0.74
121,MetaDrive-Tut-50Env-v0,19,306.41637876095103,123119,547,6367.1719398498535,46.80750274658203,-47.63338851928711,18.619686126708984,0.75
122,MetaDrive-Tut-50Env-v0,19,312.8553270292463,124255,549,6430.680509805679,47.18864440917969,-46.972633361816406,13.622459411621094,0.77
123,MetaDrive-Tut-50Env-v0,19,309.80790995007555,125437,552,6496.784080028534,48.80644607543945,-49.64136505126953,6.997757911682129,0.76
124,MetaDrive-Tut-50Env-v0,19,309.07775834837173,126281,554,6544.239441156387,46.886512756347656,-47.25531768798828,11.182096481323242,0.75
125,MetaDrive-Tut-50Env-v0,19,303.1841551538878,127161,558,6593.350056409836,45.13861083984375,-45.83889389038086,10.68814468383789,0.72
126,MetaDrive-Tut-50Env-v0,19,298.1242385571261,128385,562,6662.129301071167,49.54280471801758,-50.61482620239258,11.261306762695312,0.69
127,MetaDrive-Tut-50Env-v0,19,287.48184324770403,129286,567,6712.443466901779,47.65098571777344,,8.145584106445312,0.65
128,MetaDrive-Tut-50Env-v0,19,288.06267146424295,130371,569,6773.021334409714,48.79789733886719,-50.15910720825195,14.621435165405273,0.65
129,MetaDrive-Tut-50Env-v0,19,287.4852654225571,131156,571,6816.54446721077,48.617401123046875,,11.675335884094238,0.65
130,MetaDrive-Tut-50Env-v0,19,281.2000345866698,132124,574,6870.636687994003,49.52740478515625,,9.405466079711914,0.63
131,MetaDrive-Tut-50Env-v0,19,286.99983189758734,133103,576,6925.288940191269,50.167266845703125,-50.50397491455078,5.928397178649902,0.65
132,MetaDrive-Tut-50Env-v0,19,280.8347397236196,134070,580,6979.239970445633,48.536460876464844,,18.012821197509766,0.63
133,MetaDrive-Tut-50Env-v0,19,283.75955923399255,135354,583,7050.804588317871,48.583221435546875,,15.948968887329102,0.65
134,MetaDrive-Tut-50Env-v0,19,287.5852674017462,136331,585,7105.591205120087,48.87443161010742,-49.202964782714844,19.650053024291992,0.66
135,MetaDrive-Tut-50Env-v0,19,291.34043618632734,137327,587,7160.557629585266,48.81614303588867,-49.29765319824219,7.597408294677734,0.67
136,MetaDrive-Tut-50Env-v0,19,290.523601348555,138163,589,7206.583196878433,48.09119415283203,-49.00773620605469,22.88141632080078,0.66
137,MetaDrive-Tut-50Env-v0,19,294.00849359477985,139090,591,7258.129054784775,47.43028259277344,,12.948455810546875,0.67
138,MetaDrive-Tut-50Env-v0,19,294.5905708941098,140141,594,7316.975602388382,47.170257568359375,-47.887271881103516,7.6593852043151855,0.68
139,MetaDrive-Tut-50Env-v0,19,292.7164840155449,141078,596,7368.634830951691,47.48727798461914,,7.362000465393066,0.68
140,MetaDrive-Tut-50Env-v0,19,292.6622144329794,142210,598,7431.72705078125,47.895050048828125,,19.15126609802246,0.68
141,MetaDrive-Tut-50Env-v0,19,289.0883303924989,143315,601,7493.618992328644,49.05883026123047,-49.42436981201172,8.510237693786621,0.66
142,MetaDrive-Tut-50Env-v0,19,286.97296512381286,144466,604,7558.230347156525,47.31813430786133,,8.489079475402832,0.65
143,MetaDrive-Tut-50Env-v0,19,283.9992374788882,145045,606,7590.867634534836,48.27845764160156,-48.62159729003906,7.870641708374023,0.64
144,MetaDrive-Tut-50Env-v0,19,284.2637222228408,146183,608,7654.672525405884,48.47173309326172,-48.8274040222168,17.308273315429688,0.64
145,MetaDrive-Tut-50Env-v0,19,285.63923128952473,147227,610,7713.27711892128,49.41273498535156,-49.95790100097656,11.021421432495117,0.65
146,MetaDrive-Tut-50Env-v0,19,281.1454508593135,148478,614,7783.396339178085,48.17298126220703,,13.294273376464844,0.63
147,MetaDrive-Tut-50Env-v0,19,281.805303236246,149377,616,7833.626131534576,48.264434814453125,-48.671348571777344,8.825545310974121,0.63
148,MetaDrive-Tut-50Env-v0,19,283.0988056342908,150365,618,7889.174116611481,47.46299362182617,-48.427040100097656,6.760683536529541,0.63
149,MetaDrive-Tut-50Env-v0,19,286.8959270693377,151452,620,7950.342374563217,46.95085906982422,,31.405153274536133,0.65
150,MetaDrive-Tut-50Env-v0,19,285.9773661132439,152358,623,8001.1059358119965,47.378177642822266,,11.984617233276367,0.64
151,MetaDrive-Tut-50Env-v0,19,284.3318811199109,153390,626,8059.610306978226,49.78023910522461,,6.950432777404785,0.63
152,MetaDrive-Tut-50Env-v0,19,285.59409307337484,154504,628,8122.710500717163,46.124412536621094,,12.36434555053711,0.63
153,MetaDrive-Tut-50Env-v0,19,282.97426067357077,155222,630,8162.624926567078,47.98393249511719,,7.735329627990723,0.62
154,MetaDrive-Tut-50Env-v0,19,283.98940463834896,156525,633,8235.67420911789,49.03657531738281,-49.0552864074707,9.47325325012207,0.61
155,MetaDrive-Tut-50Env-v0,19,285.1142456856359,157020,634,8263.310077905655,49.40158462524414,,8.663365364074707,0.61
156,MetaDrive-Tut-50Env-v0,18,287.10418859159233,158355,637,8339.408479690552,47.69512939453125,-48.71759796142578,7.759315490722656,0.6
157,MetaDrive-Tut-50Env-v0,18,285.13837234911864,159509,641,8403.832532644272,46.625244140625,-47.227333068847656,16.362136840820312,0.59
158,MetaDrive-Tut-50Env-v0,18,285.3141658706054,160072,642,8435.65005993843,50.409034729003906,,10.798025131225586,0.59
159,MetaDrive-Tut-50Env-v0,18,285.30832982702594,161068,645,8491.739636182785,45.902626037597656,,7.82393217086792,0.59
160,MetaDrive-Tut-50Env-v0,18,285.8673101163904,162049,647,8546.45119547844,48.587345123291016,-49.589359283447266,27.879854202270508,0.58
161,MetaDrive-Tut-50Env-v0,18,283.71362719150295,163061,650,8602.39446759224,49.682823181152344,-49.737945556640625,15.344541549682617,0.59
162,MetaDrive-Tut-50Env-v0,18,282.00177940831213,164091,653,8659.597415447235,50.082332611083984,-49.85660171508789,16.65094757080078,0.59
163,MetaDrive-Tut-50Env-v0,18,283.61483518454105,165051,655,8713.07610797882,48.829078674316406,-48.91494369506836,13.788728713989258,0.6
164,MetaDrive-Tut-50Env-v0,18,287.1039160026205,166211,658,8777.523875713348,48.70622634887695,-49.297027587890625,8.436832427978516,0.61
165,MetaDrive-Tut-50Env-v0,18,287.18500595219325,167461,662,8846.620381832123,47.98084259033203,-48.10167694091797,6.179731845855713,0.63
166,MetaDrive-Tut-50Env-v0,18,290.77478625273847,168059,664,8879.94666647911,49.459014892578125,-50.35094451904297,12.72459602355957,0.64
167,MetaDrive-Tut-50Env-v0,18,295.67455739524513,169316,667,8950.207405090332,49.48149871826172,,12.242227554321289,0.65
168,MetaDrive-Tut-50Env-v0,18,294.444698239168,170271,669,9004.330060243607,48.47906494140625,-49.021087646484375,21.189964294433594,0.64
169,MetaDrive-Tut-50Env-v0,18,295.4244206596678,171136,671,9052.00139784813,49.061153411865234,,9.662115097045898,0.64
170,MetaDrive-Tut-50Env-v0,18,301.44122868485715,172329,673,9118.743101119995,50.33177947998047,-50.72135925292969,20.064468383789062,0.66
171,MetaDrive-Tut-50Env-v0,18,301.3055112900474,173383,675,9177.682844877243,48.059104919433594,-48.32421112060547,10.74846076965332,0.66
172,MetaDrive-Tut-50Env-v0,18,302.7976790032373,174060,677,9215.622149944305,49.233238220214844,,23.64438247680664,0.66
173,MetaDrive-Tut-50Env-v0,18,307.1687268402022,175422,680,9291.50485253334,50.21928405761719,,10.5712308883667,0.68
174,MetaDrive-Tut-50Env-v0,18,308.9108459195938,176508,682,9352.581069946289,48.870948791503906,,8.349611282348633,0.68
175,MetaDrive-Tut-50Env-v0,18,308.6072329746598,177374,684,9401.18071603775,49.17017364501953,,10.590325355529785,0.67
176,MetaDrive-Tut-50Env-v0,18,302.2244231221568,178048,687,9438.962859630585,49.83500671386719,,10.709918975830078,0.66
177,MetaDrive-Tut-50Env-v0,18,300.168419014396,179126,690,9499.202676296234,48.68286895751953,,12.806747436523438,0.66
178,MetaDrive-Tut-50Env-v0,18,303.6615604145634,180431,693,9572.706825017929,48.191932678222656,-48.615623474121094,15.781726837158203,0.67
179,MetaDrive-Tut-50Env-v0,18,303.96230841785535,181295,695,9621.822065591812,48.15668487548828,-48.64263916015625,10.795280456542969,0.66
180,MetaDrive-Tut-50Env-v0,18,299.7225164184597,182522,699,9690.732122421265,50.580989837646484,,18.23940086364746,0.65
181,MetaDrive-Tut-50Env-v0,18,300.04852387744387,183505,701,9746.219028234482,48.25596618652344,-49.568973541259766,27.262508392333984,0.66
182,MetaDrive-Tut-50Env-v0,18,301.77696406109294,184043,702,9776.435896396637,49.09996032714844,-48.80272674560547,6.740165710449219,0.67
183,MetaDrive-Tut-50Env-v0,18,303.3449022124971,185168,705,9839.255555152893,47.64613723754883,,18.629602432250977,0.68
184,MetaDrive-Tut-50Env-v0,18,299.8737001956769,186360,708,9906.401586771011,48.248836517333984,,32.75476837158203,0.67
185,MetaDrive-Tut-50Env-v0,18,298.5433549853884,187321,710,9960.200486183167,49.37992858886719,-49.758270263671875,18.309165954589844,0.67
186,MetaDrive-Tut-50Env-v0,18,301.3491384965418,188017,712,9999.366231918335,47.85789489746094,-48.07628631591797,7.295194625854492,0.68
187,MetaDrive-Tut-50Env-v0,18,301.22341980483907,189364,715,10074.41018128395,48.702491760253906,,8.991462707519531,0.68
188,MetaDrive-Tut-50Env-v0,18,302.4941606294598,190407,717,10132.760269641876,46.866676330566406,-47.285919189453125,11.659585952758789,0.68
189,MetaDrive-Tut-50Env-v0,18,299.36859858401397,191202,719,10176.922633171082,49.35655975341797,,34.296112060546875,0.68
190,MetaDrive-Tut-50Env-v0,18,303.9329861127182,192460,721,10248.11867570877,46.754512786865234,,12.521492958068848,0.69
191,MetaDrive-Tut-50Env-v0,18,307.521987553146,193023,722,10279.694429159164,46.8448371887207,-47.18266296386719,13.51913833618164,0.7
192,MetaDrive-Tut-50Env-v0,18,309.4306045660393,194388,725,10356.785938978195,48.17755889892578,,24.634687423706055,0.71
193,MetaDrive-Tut-50Env-v0,18,306.21432294182,195006,727,10391.020299911499,49.87224578857422,,9.095399856567383,0.69
194,MetaDrive-Tut-50Env-v0,18,305.4405496341171,196311,730,10464.086388349533,48.304405212402344,-48.311683654785156,10.88210678100586,0.68
195,MetaDrive-Tut-50Env-v0,18,307.7250515958585,197346,732,10522.166812419891,48.59867477416992,,9.617082595825195,0.68
196,MetaDrive-Tut-50Env-v0,18,305.6819089036801,198431,734,10583.073333024979,47.494972229003906,-47.71244430541992,28.578636169433594,0.68
197,MetaDrive-Tut-50Env-v0,18,306.80527628598196,199525,736,10644.765832901001,49.383052825927734,-50.048316955566406,15.450444221496582,0.69
198,MetaDrive-Tut-50Env-v0,18,308.0471937088302,200117,737,10677.7594165802,48.357810974121094,-49.196712493896484,15.79811954498291,0.7
199,MetaDrive-Tut-50Env-v0,18,313.27672615259195,201327,740,10744.887664794922,46.88107681274414,-46.56244659423828,10.623446464538574,0.73
200,MetaDrive-Tut-50Env-v0,18,308.10509424028754,202368,743,10802.797317028046,47.72550582885742,,24.78485107421875,0.72
201,MetaDrive-Tut-50Env-v0,18,313.50226984973045,203423,745,10862.200815439224,50.1490478515625,-50.16075134277344,6.341137409210205,0.74
202,MetaDrive-Tut-50Env-v0,18,306.17866086121774,204215,749,10906.60910153389,49.930938720703125,-50.58403778076172,10.737449645996094,0.71
203,MetaDrive-Tut-50Env-v0,18,307.7118535308034,205110,751,10956.511457681656,48.306217193603516,,12.197751998901367,0.71
204,MetaDrive-Tut-50Env-v0,18,305.2044839570838,206425,755,11029.726581811905,48.87705612182617,-49.281463623046875,6.815575122833252,0.7
205,MetaDrive-Tut-50Env-v0,18,305.3261957323255,207493,757,11089.34123826027,48.47718811035156,-48.961936950683594,13.659664154052734,0.7
206,MetaDrive-Tut-50Env-v0,18,307.3339607100988,208055,758,11120.704575061798,52.06772994995117,-53.002525329589844,9.41997241973877,0.71
207,MetaDrive-Tut-50Env-v0,18,311.7479282565398,209130,760,11180.69491648674,47.97869110107422,,12.043045043945312,0.72
208,MetaDrive-Tut-50Env-v0,18,314.1193496290831,210255,762,11243.742349386215,49.5666389465332,-50.02778625488281,9.45152759552002,0.72
209,MetaDrive-Tut-50Env-v0,18,316.04769032591486,211181,764,11295.249088048935,49.953582763671875,-50.81243896484375,14.35638427734375,0.73
210,MetaDrive-Tut-50Env-v0,18,313.5080958824621,212500,768,11368.99098277092,48.55084991455078,,11.775285720825195,0.73
211,MetaDrive-Tut-50Env-v0,18,308.8736149352185,213058,770,11400.10713148117,49.10498809814453,,14.039695739746094,0.72
212,MetaDrive-Tut-50Env-v0,18,306.2695100900178,214399,773,11475.29228067398,47.40031814575195,-47.97373962402344,22.172269821166992,0.71
213,MetaDrive-Tut-50Env-v0,18,302.8016151525725,215011,775,11508.96626830101,47.851409912109375,-47.64797592163086,9.364299774169922,0.7
214,MetaDrive-Tut-50Env-v0,18,304.31225689201364,216046,777,11567.106079339981,48.631500244140625,,6.912856101989746,0.71
215,MetaDrive-Tut-50Env-v0,18,305.15777607196117,217042,779,11622.860184907913,47.72058868408203,,7.308958053588867,0.71
216,MetaDrive-Tut-50Env-v0,18,300.30459441656893,218098,782,11682.313074588776,48.41692352294922,,7.972241401672363,0.69
217,MetaDrive-Tut-50Env-v0,18,301.21952500021376,219171,784,11743.017365217209,48.485313415527344,-48.717552185058594,8.232819557189941,0.7
218,MetaDrive-Tut-50Env-v0,18,307.42594879309644,220234,786,11802.61004447937,48.578575134277344,,8.673023223876953,0.72
219,MetaDrive-Tut-50Env-v0,18,307.68428772869237,221029,788,11847.409397125244,46.88884735107422,-47.415122985839844,9.506331443786621,0.72
220,MetaDrive-Tut-50Env-v0,18,311.5912407781379,222558,791,11932.702292919159,49.864173889160156,,9.967467308044434,0.73
221,MetaDrive-Tut-50Env-v0,18,308.7977272120645,223291,793,11973.473286151886,47.07636260986328,-48.17462921142578,7.780016899108887,0.73
222,MetaDrive-Tut-50Env-v0,18,307.84420446586904,224190,795,12023.606224060059,48.991554260253906,,4.723476409912109,0.73
223,MetaDrive-Tut-50Env-v0,18,313.3329970704376,225199,797,12079.999730110168,48.5029182434082,-47.961700439453125,15.011892318725586,0.75
224,MetaDrive-Tut-50Env-v0,18,314.4541378435469,226505,799,12154.13670539856,46.20722579956055,-47.03562545776367,11.219976425170898,0.75
225,MetaDrive-Tut-50Env-v0,18,315.78965582496147,227064,800,12185.350265026093,50.06058883666992,,9.70633316040039,0.75
226,MetaDrive-Tut-50Env-v0,18,314.5216396430936,228130,802,12244.460537672043,49.493988037109375,,9.358779907226562,0.75
227,MetaDrive-Tut-50Env-v0,18,318.808348454888,229484,804,12321.2017993927,47.95212936401367,,9.828034400939941,0.76
228,MetaDrive-Tut-50Env-v0,18,319.8347303428134,230051,805,12352.837702512741,47.30740737915039,-47.534873962402344,16.86206817626953,0.76
229,MetaDrive-Tut-50Env-v0,18,324.16339540414583,231306,807,12422.905118227005,47.73352813720703,,7.4894795417785645,0.77
230,MetaDrive-Tut-50Env-v0,18,322.1619308589086,232560,811,12493.084774255753,44.53558349609375,,13.312511444091797,0.76
231,MetaDrive-Tut-50Env-v0,18,321.55599362118176,233075,812,12521.965115785599,48.9874267578125,-49.74174118041992,9.046858787536621,0.76
232,MetaDrive-Tut-50Env-v0,18,323.0255461516021,234165,814,12583.041862010956,47.38224411010742,-47.761802673339844,7.274710178375244,0.76
233,MetaDrive-Tut-50Env-v0,18,324.00955944884356,235276,816,12645.54339504242,46.51813507080078,,6.8607048988342285,0.76
234,MetaDrive-Tut-50Env-v0,18,323.53435432039214,236317,818,12704.122822523117,46.20610046386719,-46.09146499633789,12.362387657165527,0.76
235,MetaDrive-Tut-50Env-v0,18,322.46718622289535,237258,820,12756.713351249695,46.59307861328125,,9.689687728881836,0.76
236,MetaDrive-Tut-50Env-v0,18,316.449434708651,238372,823,12818.941951990128,48.78252029418945,,8.402727127075195,0.75
237,MetaDrive-Tut-50Env-v0,18,319.27281740926827,239575,825,12885.737102746964,45.471221923828125,-46.365562438964844,13.14979362487793,0.76
238,MetaDrive-Tut-50Env-v0,18,320.4334200267309,240070,826,12913.418506383896,46.46998596191406,,6.883207321166992,0.77
239,MetaDrive-Tut-50Env-v0,18,319.5829297483704,241293,829,12981.814304113388,47.357765197753906,-47.257049560546875,10.821298599243164,0.78
240,MetaDrive-Tut-50Env-v0,18,318.49896783786875,242203,831,13032.679155826569,46.07109069824219,-45.95819091796875,9.204504013061523,0.78
241,MetaDrive-Tut-50Env-v0,18,321.5126775553647,243404,833,13100.357019662857,47.014583587646484,,6.103697776794434,0.79
242,MetaDrive-Tut-50Env-v0,18,322.31541089401793,244022,834,13134.888181209564,44.01721954345703,,18.191726684570312,0.79
243,MetaDrive-Tut-50Env-v0,18,317.27280939359525,245187,837,13199.54170012474,46.93635559082031,-46.76902389526367,8.277188301086426,0.78
244,MetaDrive-Tut-50Env-v0,18,319.050677605908,246300,839,13262.313695907593,44.117374420166016,,7.550253868103027,0.78
245,MetaDrive-Tut-50Env-v0,18,320.30563242438507,247201,841,13312.703144311905,49.45295715332031,-50.49467849731445,9.888439178466797,0.78
246,MetaDrive-Tut-50Env-v0,18,322.1339135734881,248173,843,13367.040787935257,45.24590301513672,-45.371299743652344,11.943997383117676,0.79
247,MetaDrive-Tut-50Env-v0,18,320.18123654375546,249178,846,13423.085650205612,46.40650939941406,,23.54204559326172,0.79
248,MetaDrive-Tut-50Env-v0,18,323.9002586115093,250306,848,13485.653002500534,45.554359436035156,,11.602097511291504,0.81
249,MetaDrive-Tut-50Env-v0,18,325.4593305997007,251330,850,13542.912095785141,45.677772521972656,,14.737955093383789,0.82
250,MetaDrive-Tut-50Env-v0,18,326.78194040363127,252215,852,13592.911838769913,45.52537155151367,-46.02061462402344,15.344091415405273,0.82
251,MetaDrive-Tut-50Env-v0,18,332.4793342846274,253288,854,13653.317320346832,45.61171340942383,,17.21824073791504,0.84
252,MetaDrive-Tut-50Env-v0,18,334.46805432370195,254412,856,13716.570642232895,45.24132537841797,,50.143333435058594,0.84
253,MetaDrive-Tut-50Env-v0,18,331.0554776746995,255107,858,13755.236555099487,44.113983154296875,-45.10283660888672,23.923965454101562,0.83
254,MetaDrive-Tut-50Env-v0,18,327.70685466999026,256298,861,13821.434957027435,46.871620178222656,,7.660326957702637,0.83
255,MetaDrive-Tut-50Env-v0,18,326.8583464856514,257284,863,13876.392010211945,43.74909210205078,,5.544690132141113,0.83
256,MetaDrive-Tut-50Env-v0,18,327.59122544133527,258051,865,13918.538861513138,44.42820739746094,-45.052345275878906,6.554971694946289,0.83
257,MetaDrive-Tut-50Env-v0,18,331.23315004914633,259507,868,14000.14010310173,44.90947723388672,-44.73014450073242,13.113473892211914,0.84
258,MetaDrive-Tut-50Env-v0,18,335.4552806125084,260507,870,14056.342342376709,46.628501892089844,-47.73379135131836,16.580379486083984,0.85
259,MetaDrive-Tut-50Env-v0,18,336.11596351774773,261303,872,14101.146674871445,44.03069305419922,-43.89689636230469,8.085040092468262,0.85
260,MetaDrive-Tut-50Env-v0,18,337.62079138158947,262267,874,14155.413113355637,42.827388763427734,-42.551666259765625,8.067092895507812,0.86
261,MetaDrive-Tut-50Env-v0,18,341.02416724263765,263591,876,14230.130135297775,45.9289436340332,-45.64856719970703,9.028982162475586,0.86
262,MetaDrive-Tut-50Env-v0,18,340.4987630437902,264104,877,14259.091368675232,44.372222900390625,,7.660235404968262,0.86
263,MetaDrive-Tut-50Env-v0,18,339.3154260909076,265175,880,14318.45763039589,47.44956970214844,-47.35523223876953,7.278095245361328,0.86
264,MetaDrive-Tut-50Env-v0,18,343.3201783878096,266564,882,14396.943833351135,44.93682861328125,,4.7659454345703125,0.87
265,MetaDrive-Tut-50Env-v0,18,340.64474713815287,267314,884,14439.057119369507,43.882965087890625,,8.064428329467773,0.86
266,MetaDrive-Tut-50Env-v0,18,340.1070994941729,268441,886,14501.999517917633,45.98176193237305,-46.10066223144531,8.692778587341309,0.86
267,MetaDrive-Tut-50Env-v0,18,338.9620243655125,269002,888,14532.990885257721,44.98058319091797,,13.059831619262695,0.86
268,MetaDrive-Tut-50Env-v0,18,336.40723468443224,270345,891,14607.876747846603,45.328041076660156,-45.56661605834961,8.466858863830566,0.86
269,MetaDrive-Tut-50Env-v0,18,336.57805850936114,271080,893,14648.939846277237,43.218414306640625,,14.8927640914917,0.86
270,MetaDrive-Tut-50Env-v0,18,337.5799660559088,272236,895,14712.53988790512,45.458885192871094,,16.428462982177734,0.87
271,MetaDrive-Tut-50Env-v0,18,334.45299418415266,273364,898,14775.528728485107,43.25048828125,,16.861616134643555,0.86
272,MetaDrive-Tut-50Env-v0,18,329.6918677435626,274595,901,14844.03530907631,45.21649169921875,-44.81941223144531,7.3680806159973145,0.84
273,MetaDrive-Tut-50Env-v0,18,326.25852113397826,275502,903,14894.128814220428,44.17439270019531,,10.467294692993164,0.84
274,MetaDrive-Tut-50Env-v0,18,326.2342083525974,276043,904,14924.53442621231,40.793731689453125,-40.57459259033203,9.969733238220215,0.84
275,MetaDrive-Tut-50Env-v0,18,324.5389950156186,277087,906,14983.174080133438,45.3006591796875,-46.4561882019043,6.360906600952148,0.84
276,MetaDrive-Tut-50Env-v0,18,324.86805022694784,278153,908,15043.021471261978,43.38987731933594,-43.38823699951172,12.911774635314941,0.84
277,MetaDrive-Tut-50Env-v0,18,331.1464998056802,279253,910,15104.31128001213,41.56707763671875,-41.26617431640625,7.523414134979248,0.86
278,MetaDrive-Tut-50Env-v0,18,328.9426064230099,280153,912,15154.748042821884,42.98948287963867,-43.16965103149414,8.151493072509766,0.86
279,MetaDrive-Tut-50Env-v0,18,324.3890788580221,281121,915,15209.273991823196,43.407833099365234,-43.897003173828125,14.890680313110352,0.85
280,MetaDrive-Tut-50Env-v0,18,325.1395201599862,282149,917,15266.78375196457,43.047767639160156,-42.76183319091797,10.347515106201172,0.85
281,MetaDrive-Tut-50Env-v0,18,323.0856214818966,283102,919,15320.074660539627,42.55588150024414,,5.0152387619018555,0.85
282,MetaDrive-Tut-50Env-v0,18,328.1123733017815,284212,921,15382.532993555069,42.65473175048828,,4.594627380371094,0.86
283,MetaDrive-Tut-50Env-v0,18,325.778726586736,285444,924,15451.2806930542,44.13606643676758,,6.3702168464660645,0.85
284,MetaDrive-Tut-50Env-v0,18,322.0729306441544,286040,926,15484.45796918869,44.10939407348633,,21.371288299560547,0.84
285,MetaDrive-Tut-50Env-v0,18,323.48306262638056,287219,929,15549.595639705658,42.29508972167969,-42.35057830810547,10.28646183013916,0.85
286,MetaDrive-Tut-50Env-v0,18,321.5640225419786,288317,932,15611.57581782341,40.89537811279297,-41.71617889404297,7.695679664611816,0.86
287,MetaDrive-Tut-50Env-v0,18,319.8935779774732,289222,934,15662.032715797424,42.49501037597656,,8.835081100463867,0.86
288,MetaDrive-Tut-50Env-v0,18,322.0052189789814,290270,936,15720.729420900345,42.410240173339844,,6.721980094909668,0.86
289,MetaDrive-Tut-50Env-v0,18,325.1010601254906,291291,938,15778.091457605362,43.568511962890625,-44.17443084716797,5.2195587158203125,0.87
290,MetaDrive-Tut-50Env-v0,18,322.6767876852271,292340,940,15837.615200519562,41.72197341918945,,10.168943405151367,0.86
291,MetaDrive-Tut-50Env-v0,18,323.7693363760059,293470,942,15901.190918922424,41.378814697265625,,13.437329292297363,0.86
292,MetaDrive-Tut-50Env-v0,18,326.4522338604313,294282,944,15946.54935503006,43.87519836425781,,5.8384904861450195,0.86
293,MetaDrive-Tut-50Env-v0,18,325.8216749840101,295064,946,15990.399198532104,44.138427734375,,12.378560066223145,0.85
294,MetaDrive-Tut-50Env-v0,18,320.71502017330164,296420,950,16066.116690635681,45.39371871948242,,7.547663688659668,0.83
295,MetaDrive-Tut-50Env-v0,18,319.7288257331665,297317,952,16116.171713113785,42.48310470581055,-42.33675003051758,6.298254013061523,0.83
296,MetaDrive-Tut-50Env-v0,18,317.37520308932204,298088,954,16159.926297903061,38.95048141479492,,13.49980354309082,0.82
297,MetaDrive-Tut-50Env-v0,18,316.1585256728204,299099,956,16216.740131378174,43.68267059326172,-44.12457275390625,5.017007827758789,0.82
298,MetaDrive-Tut-50Env-v0,18,319.3546230997497,300078,958,16272.204753875732,43.46116638183594,,11.535713195800781,0.83
299,MetaDrive-Tut-50Env-v0,18,318.88608156005,301292,961,16340.021766662598,42.04889678955078,,8.204102516174316,0.82
300,MetaDrive-Tut-50Env-v0,18,319.0811828398875,302269,963,16394.629051208496,43.243133544921875,-43.13077163696289,9.269694328308105,0.82
301,MetaDrive-Tut-50Env-v0,18,321.70818472077826,303365,965,16456.56511235237,43.81926727294922,-43.79600524902344,5.994345664978027,0.82
302,MetaDrive-Tut-50Env-v0,18,321.5572540525016,304412,967,16514.22764968872,40.69072723388672,,6.976767539978027,0.83
303,MetaDrive-Tut-50Env-v0,18,321.44278008326006,305105,968,16552.991191148758,43.79034423828125,-43.607582092285156,10.024767875671387,0.83
304,MetaDrive-Tut-50Env-v0,18,321.50052244843573,306401,970,16625.73970913887,41.468894958496094,-42.060951232910156,11.491832733154297,0.83
305,MetaDrive-Tut-50Env-v0,18,323.64671813456835,307125,971,16665.620750904083,41.75260925292969,-42.10616683959961,6.641551494598389,0.84
306,MetaDrive-Tut-50Env-v0,18,321.47652083835624,308210,973,16726.215113162994,42.29448699951172,,5.46370792388916,0.84
307,MetaDrive-Tut-50Env-v0,18,318.4567640290637,309465,976,16796.304204702377,43.34027862548828,-43.63872528076172,13.824142456054688,0.83
308,MetaDrive-Tut-50Env-v0,18,319.8309108238512,310484,978,16853.240014076233,41.61468505859375,,5.471546649932861,0.84
309,MetaDrive-Tut-50Env-v0,18,312.96061689653214,311167,981,16891.57857108116,40.79750061035156,-41.66257858276367,16.198944091796875,0.81
310,MetaDrive-Tut-50Env-v0,18,314.73495321426805,312308,983,16955.284323215485,42.037437438964844,,36.53791046142578,0.82
311,MetaDrive-Tut-50Env-v0,18,312.11239118985,313047,985,16996.315726041794,41.081722259521484,-41.04006576538086,13.509177207946777,0.82
312,MetaDrive-Tut-50Env-v0,18,312.0630763437963,314008,988,17049.54483437538,41.5531120300293,,6.015752792358398,0.82
313,MetaDrive-Tut-50Env-v0,18,314.5120358293474,315173,990,17115.1147005558,42.13340759277344,-42.535362243652344,12.879369735717773,0.82
314,MetaDrive-Tut-50Env-v0,18,315.1706194585958,316208,992,17173.15221953392,40.6789665222168,,6.672789096832275,0.82
315,MetaDrive-Tut-50Env-v0,18,315.987730717171,317362,994,17238.047903060913,44.32721710205078,,14.33558464050293,0.82
316,MetaDrive-Tut-50Env-v0,18,317.8304883660014,318513,996,17303.577977657318,42.63410568237305,-43.7426872253418,14.073324203491211,0.82
317,MetaDrive-Tut-50Env-v0,18,321.15385637849624,319413,998,17354.37461590767,43.377281188964844,-44.281005859375,9.647123336791992,0.83
318,MetaDrive-Tut-50Env-v0,18,324.7532495418378,320038,999,17389.37267971039,42.26959991455078,,8.78542709350586,0.84
319,MetaDrive-Tut-50Env-v0,18,325.31348929551154,321075,1001,17447.690974712372,40.61198806762695,-41.63103485107422,9.24791145324707,0.85
320,MetaDrive-Tut-50Env-v0,18,328.0697361398584,322217,1003,17511.892199754715,42.51240921020508,-42.11207580566406,16.660863876342773,0.85
321,MetaDrive-Tut-50Env-v0,18,324.2780766648133,323286,1006,17571.575560331345,44.63976287841797,,5.902707099914551,0.84
322,MetaDrive-Tut-50Env-v0,18,323.63903517246484,324349,1008,17631.266750335693,42.98389434814453,-42.8019905090332,9.225379943847656,0.84
323,MetaDrive-Tut-50Env-v0,18,323.0919751367263,325302,1010,17685.13353919983,39.671844482421875,,8.25571060180664,0.84
324,MetaDrive-Tut-50Env-v0,18,324.20622642664944,326259,1012,17738.993929862976,42.70970916748047,-43.38674545288086,5.009662628173828,0.84
325,MetaDrive-Tut-50Env-v0,18,326.20490568198085,327337,1014,17800.357270479202,42.34941101074219,-42.610660552978516,11.255455017089844,0.84
326,MetaDrive-Tut-50Env-v0,18,328.22090791357004,328437,1016,17861.991885900497,40.94403076171875,-42.032981872558594,12.571520805358887,0.85
327,MetaDrive-Tut-50Env-v0,18,321.9616828084306,329081,1019,17897.82306432724,39.968467712402344,-40.34307861328125,8.09548568725586,0.83
328,MetaDrive-Tut-50Env-v0,18,316.97736669616205,330052,1022,17952.76888179779,42.71051788330078,,5.231356620788574,0.81
329,MetaDrive-Tut-50Env-v0,18,318.4049401055638,331072,1024,18010.25733757019,41.59883117675781,,6.1435546875,0.82
330,MetaDrive-Tut-50Env-v0,18,322.3756716692766,332051,1026,18065.26363635063,40.70183181762695,-41.19462585449219,7.197524070739746,0.83
331,MetaDrive-Tut-50Env-v0,18,321.9491318366518,333332,1029,18137.300275087357,42.06001663208008,,5.750584125518799,0.82
332,MetaDrive-Tut-50Env-v0,18,322.0104181676849,334110,1031,18180.729045152664,42.345298767089844,,8.205078125,0.82
333,MetaDrive-Tut-50Env-v0,18,325.9880347867546,335354,1033,18251.170432329178,42.4197883605957,,4.619176864624023,0.82
334,MetaDrive-Tut-50Env-v0,18,324.700451875709,336130,1035,18294.4840798378,41.84551239013672,,5.741828918457031,0.81
335,MetaDrive-Tut-50Env-v0,18,323.3998210532284,337209,1037,18355.08843398094,43.11444854736328,-43.14628601074219,7.278687000274658,0.81
336,MetaDrive-Tut-50Env-v0,18,324.4502449188799,338350,1039,18418.598266601562,42.06471633911133,,9.606306076049805,0.82
337,MetaDrive-Tut-50Env-v0,18,321.3384368689125,339139,1041,18463.39342236519,42.82890701293945,-42.98414993286133,6.046481132507324,0.81
338,MetaDrive-Tut-50Env-v0,18,323.110674625598,340285,1043,18528.579159736633,40.88345718383789,-40.88637924194336,8.544889450073242,0.82
339,MetaDrive-Tut-50Env-v0,18,324.44807071715985,341282,1045,18583.898243665695,40.84978485107422,,36.88401794433594,0.83
340,MetaDrive-Tut-50Env-v0,18,325.38126104442057,342052,1047,18626.812403917313,40.15983581542969,,11.003158569335938,0.84
341,MetaDrive-Tut-50Env-v0,18,327.4237936945249,343159,1049,18688.708538770676,41.87433624267578,-42.12831115722656,9.565313339233398,0.85
342,MetaDrive-Tut-50Env-v0,18,327.49402002758035,344080,1051,18740.017553567886,42.601165771484375,,6.428262710571289,0.84
343,MetaDrive-Tut-50Env-v0,18,328.1827217042838,345142,1053,18799.768794059753,41.272029876708984,,6.281381607055664,0.84
344,MetaDrive-Tut-50Env-v0,18,330.3575753422312,346245,1055,18861.775131464005,43.387203216552734,-44.2862434387207,5.304759979248047,0.85
345,MetaDrive-Tut-50Env-v0,18,329.71724927011746,347255,1057,18917.8371591568,40.12757110595703,-40.83641052246094,5.633671283721924,0.85
346,MetaDrive-Tut-50Env-v0,18,328.82538344248974,348326,1059,18978.200489282608,39.77642059326172,,5.794511318206787,0.85
347,MetaDrive-Tut-50Env-v0,18,328.0475230841859,349364,1062,19036.44207572937,42.510498046875,,10.20389175415039,0.85
348,MetaDrive-Tut-50Env-v0,18,324.49453360661795,350534,1065,19102.136633872986,41.612998962402344,,5.189181327819824,0.84
349,MetaDrive-Tut-50Env-v0,18,326.04694690794895,351520,1067,19158.042014598846,41.580482482910156,,9.332802772521973,0.83
350,MetaDrive-Tut-50Env-v0,18,326.2297954875444,352557,1069,19216.122425556183,42.0195198059082,-41.36526107788086,4.712183952331543,0.83
351,MetaDrive-Tut-50Env-v0,18,325.694700802544,353139,1070,19248.520916461945,41.33806228637695,-42.21882247924805,6.297650337219238,0.83
352,MetaDrive-Tut-50Env-v0,18,323.9936127073638,354274,1073,19312.040481090546,40.688743591308594,,19.48046112060547,0.82
353,MetaDrive-Tut-50Env-v0,18,321.56342907753003,355326,1076,19370.87938094139,42.82074737548828,,10.699175834655762,0.82
354,MetaDrive-Tut-50Env-v0,18,321.744459872283,356164,1078,19417.857380390167,39.650917053222656,,9.77276611328125,0.81
355,MetaDrive-Tut-50Env-v0,18,327.4628827532515,357185,1080,19474.96595597267,40.247650146484375,-40.18330001831055,17.037893295288086,0.83
356,MetaDrive-Tut-50Env-v0,18,330.44788802788054,358396,1082,19543.585795879364,43.15357971191406,,11.06698226928711,0.84
357,MetaDrive-Tut-50Env-v0,18,331.1536966930312,359471,1084,19603.864772081375,42.04895782470703,-41.577980041503906,8.524062156677246,0.84
358,MetaDrive-Tut-50Env-v0,18,332.86159982088566,360087,1085,19638.290494918823,42.4385986328125,-42.61151885986328,7.35917854309082,0.84
359,MetaDrive-Tut-50Env-v0,18,333.9287466088531,361128,1087,19696.69385433197,41.74026107788086,,8.581724166870117,0.84
360,MetaDrive-Tut-50Env-v0,18,332.38051597854917,362073,1090,19749.270649433136,43.054481506347656,-42.586265563964844,8.114405632019043,0.84
361,MetaDrive-Tut-50Env-v0,18,327.6553080365765,363145,1093,19809.28370809555,41.58146286010742,-42.264442443847656,4.506905555725098,0.83
362,MetaDrive-Tut-50Env-v0,18,327.96569636409333,364010,1095,19857.537748098373,42.65020751953125,,9.274725914001465,0.83
363,MetaDrive-Tut-50Env-v0,18,323.9494246207876,365224,1098,19925.513918876648,42.16569519042969,,4.985025882720947,0.82
364,MetaDrive-Tut-50Env-v0,18,323.6511614759674,366103,1100,19974.80917620659,41.67194366455078,-41.770103454589844,5.185480117797852,0.82
365,MetaDrive-Tut-50Env-v0,18,323.946983094552,367198,1102,20036.375013828278,42.66381072998047,,18.236291885375977,0.82
366,MetaDrive-Tut-50Env-v0,18,324.3098513246774,368232,1104,20094.268975496292,41.487274169921875,,12.374184608459473,0.82
367,MetaDrive-Tut-50Env-v0,18,328.48468506134566,369465,1106,20163.970111131668,42.73017120361328,-43.005943298339844,12.147485733032227,0.83
368,MetaDrive-Tut-50Env-v0,18,327.8165758618615,370414,1108,20216.96398282051,40.669044494628906,,7.978395462036133,0.83
369,MetaDrive-Tut-50Env-v0,18,327.54268626738053,371368,1110,20270.31128168106,42.59006881713867,,5.74127721786499,0.83
370,MetaDrive-Tut-50Env-v0,18,327.5205942645922,372429,1112,20329.904767990112,42.01725769042969,-42.580223083496094,5.425515174865723,0.83
371,MetaDrive-Tut-50Env-v0,18,324.7217111497479,373031,1114,20363.531796693802,42.147972106933594,-42.06647872924805,5.107772350311279,0.82
372,MetaDrive-Tut-50Env-v0,18,323.40638689958075,374311,1118,20434.93592119217,42.19638442993164,-41.84711837768555,10.130520820617676,0.82
373,MetaDrive-Tut-50Env-v0,18,326.35188849430546,375279,1120,20489.45910167694,42.84480285644531,-42.439918518066406,4.072693824768066,0.83
374,MetaDrive-Tut-50Env-v0,18,327.3815110057982,376287,1123,20546.556470394135,41.281776428222656,-41.45203399658203,5.660386562347412,0.84
375,MetaDrive-Tut-50Env-v0,18,327.2351588945418,377247,1125,20600.148469924927,42.56043243408203,-42.459800720214844,6.754580497741699,0.84
376,MetaDrive-Tut-50Env-v0,18,326.5991481389928,378289,1127,20658.641542434692,40.93352508544922,-40.572628021240234,11.053844451904297,0.84
377,MetaDrive-Tut-50Env-v0,18,328.8042436808163,379163,1129,20707.69697213173,41.71542739868164,-42.15165710449219,24.04346466064453,0.85
378,MetaDrive-Tut-50Env-v0,18,329.6436201269176,380116,1131,20760.66269803047,41.22618103027344,,14.718833923339844,0.85
379,MetaDrive-Tut-50Env-v0,18,327.02451025450665,381103,1133,20816.009976387024,42.20618438720703,-42.32213592529297,5.458052635192871,0.85
380,MetaDrive-Tut-50Env-v0,18,326.999099711939,382382,1136,20887.505334854126,42.10553741455078,,8.765803337097168,0.86
381,MetaDrive-Tut-50Env-v0,18,324.26017493522176,383008,1138,20922.1108045578,42.101600646972656,,11.711278915405273,0.86
382,MetaDrive-Tut-50Env-v0,18,324.55202544706617,384158,1141,20986.620230913162,41.91481399536133,,7.962793350219727,0.86
383,MetaDrive-Tut-50Env-v0,18,324.36382505443254,385458,1144,21059.56875181198,43.65223693847656,,8.97584342956543,0.86
384,MetaDrive-Tut-50Env-v0,18,324.7707285922526,386006,1145,21090.837195158005,43.45133590698242,,5.240983009338379,0.86
385,MetaDrive-Tut-50Env-v0,18,328.4155349574347,387104,1147,21152.665025949478,40.09270095825195,,4.134355545043945,0.86
386,MetaDrive-Tut-50Env-v0,18,323.71660353278844,388071,1150,21206.684493541718,41.16580581665039,-41.32573699951172,7.147010803222656,0.85
387,MetaDrive-Tut-50Env-v0,18,322.75715650775567,389244,1153,21272.228267669678,44.144588470458984,,5.032163143157959,0.85
388,MetaDrive-Tut-50Env-v0,18,322.60751187488415,390353,1155,21334.92310976982,42.922325134277344,-43.362239837646484,8.944605827331543,0.85
389,MetaDrive-Tut-50Env-v0,18,322.36720958250544,391311,1157,21388.763817071915,40.87158966064453,-41.06626892089844,5.2251386642456055,0.85
390,MetaDrive-Tut-50Env-v0,18,322.55301137317076,392383,1159,21449.58748149872,40.01660919189453,-40.04423141479492,5.684226036071777,0.85
391,MetaDrive-Tut-50Env-v0,18,325.73840822586675,393338,1161,21503.348480701447,42.031585693359375,,10.499223709106445,0.86
392,MetaDrive-Tut-50Env-v0,18,327.2693564518007,394361,1164,21560.933567285538,41.12782287597656,-41.72834014892578,10.082874298095703,0.86
393,MetaDrive-Tut-50Env-v0,18,324.9947233523683,395167,1166,21605.610598564148,42.205955505371094,-42.59260559082031,20.05554962158203,0.87
394,MetaDrive-Tut-50Env-v0,18,324.5238641332339,396094,1168,21657.535900354385,40.51198959350586,,5.824313163757324,0.87
395,MetaDrive-Tut-50Env-v0,18,323.73137394333,397190,1170,21719.067368984222,41.856815338134766,,6.9546637535095215,0.87
396,MetaDrive-Tut-50Env-v0,18,327.3282427664377,398165,1172,21773.716200351715,41.621360778808594,-41.908992767333984,6.161561012268066,0.88
397,MetaDrive-Tut-50Env-v0,18,326.9688230714679,399244,1175,21834.153516292572,41.064735412597656,,16.70254898071289,0.87
398,MetaDrive-Tut-50Env-v0,18,325.69916401136044,400107,1177,21882.031671524048,40.80715560913086,-41.07495880126953,5.9486589431762695,0.87
399,MetaDrive-Tut-50Env-v0,18,328.32438369833164,401245,1179,21946.43982553482,42.1691780090332,-41.77548599243164,5.033173084259033,0.88
400,MetaDrive-Tut-50Env-v0,18,325.5262895004977,402017,1181,21989.619242191315,42.371360778808594,-43.03003692626953,7.735655307769775,0.88
401,MetaDrive-Tut-50Env-v0,18,326.6771594791161,403088,1183,22050.35356783867,41.7755241394043,,5.856623649597168,0.88
402,MetaDrive-Tut-50Env-v0,18,323.79862686696265,404273,1186,22116.35872030258,42.29697036743164,-42.40542984008789,5.078947067260742,0.88
403,MetaDrive-Tut-50Env-v0,18,323.85811123606516,405306,1188,22174.7021420002,42.23043441772461,,6.417966842651367,0.88
404,MetaDrive-Tut-50Env-v0,18,326.60601349435075,406017,1190,22214.40486073494,41.55430603027344,-41.72388458251953,14.810226440429688,0.87
405,MetaDrive-Tut-50Env-v0,18,328.31718398146893,407333,1193,22287.487729549408,42.311805725097656,-43.00858688354492,8.442727088928223,0.88
406,MetaDrive-Tut-50Env-v0,18,328.2953679757186,408308,1195,22341.933319568634,43.10169219970703,,10.522153854370117,0.88
407,MetaDrive-Tut-50Env-v0,18,329.4488313256059,409413,1198,22403.686827898026,41.049434661865234,-41.673118591308594,5.399985313415527,0.88
408,MetaDrive-Tut-50Env-v0,18,330.55902473415745,410449,1200,22462.217076539993,41.121185302734375,-41.485450744628906,12.382841110229492,0.88
409,MetaDrive-Tut-50Env-v0,18,331.2943257166217,411147,1201,22502.43563747406,43.62995529174805,-43.74373245239258,7.217508316040039,0.88
410,MetaDrive-Tut-50Env-v0,18,329.5833531994948,412142,1203,22558.57010936737,41.35198974609375,,15.719217300415039,0.88
411,MetaDrive-Tut-50Env-v0,18,326.71454182066884,413338,1206,22625.875091314316,40.40703582763672,,6.816452980041504,0.87
412,MetaDrive-Tut-50Env-v0,18,327.9160970722207,414447,1208,22688.219782590866,41.8702278137207,-42.20735549926758,13.227149963378906,0.87
413,MetaDrive-Tut-50Env-v0,18,327.12410181306825,415292,1210,22735.37614965439,42.54658126831055,,12.290262222290039,0.87
414,MetaDrive-Tut-50Env-v0,18,327.2848340797941,416324,1212,22794.00642800331,42.81748962402344,,4.736055374145508,0.87
415,MetaDrive-Tut-50Env-v0,18,330.73593004420263,417427,1214,22855.91481614113,40.0786018371582,-40.41387939453125,6.376707077026367,0.88
416,MetaDrive-Tut-50Env-v0,18,333.63210988747045,418291,1216,22904.19647026062,43.335609436035156,-43.748191833496094,12.104581832885742,0.89
417,MetaDrive-Tut-50Env-v0,18,335.7123532327148,419411,1218,22968.02033829689,40.800254821777344,-41.49644088745117,8.869855880737305,0.89
418,MetaDrive-Tut-50Env-v0,18,336.84950216303207,420407,1220,23024.19731283188,42.9205322265625,-43.01615905761719,11.132620811462402,0.89
419,MetaDrive-Tut-50Env-v0,18,337.4973095359394,421479,1223,23084.360781908035,39.88934326171875,-39.47793960571289,8.184106826782227,0.89
420,MetaDrive-Tut-50Env-v0,18,332.7340745280245,422307,1226,23130.438619852066,41.76346969604492,-41.572059631347656,11.553237915039062,0.88
421,MetaDrive-Tut-50Env-v0,18,331.33085185207506,423183,1228,23179.394394874573,42.34673309326172,-42.53314208984375,5.209056854248047,0.88
422,MetaDrive-Tut-50Env-v0,18,330.7744822752001,424572,1231,23257.118167877197,43.47291564941406,,8.798931121826172,0.88
423,MetaDrive-Tut-50Env-v0,18,331.92549226744575,425087,1232,23285.890674114227,45.7626838684082,-46.234886169433594,8.676220893859863,0.88
424,MetaDrive-Tut-50Env-v0,18,330.6762616732318,426199,1235,23347.45919561386,42.291053771972656,-42.80356979370117,7.941184997558594,0.88
425,MetaDrive-Tut-50Env-v0,18,332.56578746266445,427595,1238,23425.633672475815,40.55954360961914,-40.59953689575195,5.874228000640869,0.88
426,MetaDrive-Tut-50Env-v0,18,336.10072381446344,428173,1239,23458.40651845932,44.13147735595703,-44.58354949951172,3.9821207523345947,0.89
427,MetaDrive-Tut-50Env-v0,18,331.92599970960146,429259,1242,23519.099262475967,42.94792175292969,-43.13373565673828,8.555828094482422,0.88
428,MetaDrive-Tut-50Env-v0,18,329.6984584507876,430492,1245,23588.33245253563,41.99198913574219,,4.493424892425537,0.87
429,MetaDrive-Tut-50Env-v0,18,325.8205889962128,431223,1247,23629.063077926636,43.65575408935547,-43.40980529785156,4.5312581062316895,0.87
430,MetaDrive-Tut-50Env-v0,18,327.6160654070558,432337,1249,23691.618485450745,40.345699310302734,-40.58766174316406,7.529790878295898,0.87
431,MetaDrive-Tut-50Env-v0,18,329.94189614698655,433022,1251,23729.895375728607,42.12920379638672,,7.8821563720703125,0.89
432,MetaDrive-Tut-50Env-v0,18,329.35925112035324,434529,1254,23814.0577981472,42.236534118652344,-42.531654357910156,8.824970245361328,0.89
433,MetaDrive-Tut-50Env-v0,18,330.5698301678899,435500,1256,23868.529621124268,42.54174041748047,,9.45149040222168,0.89
434,MetaDrive-Tut-50Env-v0,18,329.973696304218,436478,1258,23923.20096373558,42.88662338256836,,19.072315216064453,0.89
435,MetaDrive-Tut-50Env-v0,18,328.52372237934077,437355,1260,23971.630440950394,41.297943115234375,-41.810035705566406,7.71699333190918,0.89
436,MetaDrive-Tut-50Env-v0,18,329.68566596092865,438310,1262,24025.253051280975,41.60111618041992,,8.63344955444336,0.89
437,MetaDrive-Tut-50Env-v0,18,331.1317987649409,439267,1264,24078.518616437912,41.170379638671875,-40.501487731933594,4.731231689453125,0.9
438,MetaDrive-Tut-50Env-v0,18,331.80539885944546,440099,1266,24125.262726545334,41.256378173828125,-41.170738220214844,19.038360595703125,0.9
439,MetaDrive-Tut-50Env-v0,18,328.40929371329077,441095,1269,24181.138329029083,44.339805603027344,-44.07875061035156,8.454566955566406,0.89
440,MetaDrive-Tut-50Env-v0,18,324.02484587414096,442076,1272,24236.30659866333,43.15694046020508,,7.808132171630859,0.88
441,MetaDrive-Tut-50Env-v0,18,326.9438089881524,443114,1274,24294.755474328995,44.461647033691406,,8.708467483520508,0.89
442,MetaDrive-Tut-50Env-v0,18,330.0251081980894,444075,1276,24348.63271999359,42.30579376220703,-42.60297393798828,9.820598602294922,0.9
443,MetaDrive-Tut-50Env-v0,18,326.1793309441721,445203,1279,24411.80509495735,43.092445373535156,-43.197235107421875,7.82391357421875,0.89
444,MetaDrive-Tut-50Env-v0,18,328.07587664537766,446219,1281,24469.12650370598,44.609962463378906,-45.346099853515625,7.185664176940918,0.89
445,MetaDrive-Tut-50Env-v0,18,328.5483839244837,447342,1283,24533.054672002792,41.618980407714844,,3.3774008750915527,0.89
446,MetaDrive-Tut-50Env-v0,18,331.0820640388399,448452,1285,24595.771456956863,44.74150848388672,,6.391084671020508,0.89
447,MetaDrive-Tut-50Env-v0,18,331.60394780563786,449024,1286,24627.679240226746,41.95628356933594,,8.239811897277832,0.89
448,MetaDrive-Tut-50Env-v0,18,331.29187350213755,450104,1288,24688.618666648865,43.921836853027344,,8.657554626464844,0.89
449,MetaDrive-Tut-50Env-v0,18,333.52092804274827,451138,1290,24746.685722589493,40.85927963256836,,6.372018337249756,0.91
450,MetaDrive-Tut-50Env-v0,18,331.624611946981,452175,1293,24804.60201692581,39.62751388549805,-39.530391693115234,7.3269147872924805,0.9
451,MetaDrive-Tut-50Env-v0,18,332.59057359680446,453092,1295,24856.258120775223,43.78297424316406,,5.4624834060668945,0.9
452,MetaDrive-Tut-50Env-v0,18,335.81932138713427,454159,1297,24915.875515937805,40.99641418457031,-41.213714599609375,28.02988624572754,0.91
453,MetaDrive-Tut-50Env-v0,18,333.8023506744106,455061,1299,24966.33372068405,41.454811096191406,-41.920875549316406,10.548677444458008,0.91
454,MetaDrive-Tut-50Env-v0,18,332.31849612710545,456070,1301,25023.403881549835,42.41752624511719,,6.474634647369385,0.91
455,MetaDrive-Tut-50Env-v0,18,331.89741691851725,457005,1303,25075.854025363922,43.7639045715332,-43.75524139404297,15.788602828979492,0.91
456,MetaDrive-Tut-50Env-v0,18,335.4058889539728,458046,1305,25134.28073334694,41.448585510253906,,5.653705596923828,0.92
457,MetaDrive-Tut-50Env-v0,18,335.20398240206623,459015,1307,25188.85310792923,41.176368713378906,-41.213287353515625,5.340335845947266,0.92
458,MetaDrive-Tut-50Env-v0,18,336.25536687471526,460109,1309,25251.068761587143,42.599281311035156,-42.591041564941406,4.894365310668945,0.91
459,MetaDrive-Tut-50Env-v0,18,332.5417781983643,461050,1312,25304.23612165451,41.798789978027344,,20.68606948852539,0.89
460,MetaDrive-Tut-50Env-v0,18,332.90484309930986,462018,1314,25358.52273797989,40.21534729003906,,8.339096069335938,0.89
461,MetaDrive-Tut-50Env-v0,18,330.900234952004,463234,1317,25426.16436481476,42.769309997558594,,8.143707275390625,0.89
462,MetaDrive-Tut-50Env-v0,18,331.8997013362202,464367,1319,25490.91278553009,40.36860275268555,-40.281280517578125,6.217727184295654,0.89
463,MetaDrive-Tut-50Env-v0,18,329.92569882234216,465259,1322,25539.71924805641,43.647605895996094,-44.07582092285156,10.41975212097168,0.89
464,MetaDrive-Tut-50Env-v0,18,332.042016317999,466242,1324,25594.883950710297,40.3763427734375,,4.432184219360352,0.9
465,MetaDrive-Tut-50Env-v0,18,332.7123457819868,467050,1326,25640.480120658875,43.41619110107422,,8.191067695617676,0.9
466,MetaDrive-Tut-50Env-v0,18,334.8203451690357,468049,1328,25696.344031095505,42.22151184082031,-42.118316650390625,4.878643989562988,0.9
467,MetaDrive-Tut-50Env-v0,18,337.35573075475804,469035,1330,25751.74394917488,41.13690185546875,-41.08708572387695,11.395135879516602,0.9
468,MetaDrive-Tut-50Env-v0,18,336.4938112259406,470336,1333,25825.06206059456,43.08274841308594,,11.829460144042969,0.89
469,MetaDrive-Tut-50Env-v0,18,336.0847655212078,471337,1334,25880.892825365067,42.08580780029297,-41.63832473754883,12.703202247619629,0.88
470,MetaDrive-Tut-50Env-v0,18,336.51594390582693,472173,1336,25927.3822991848,42.27497863769531,-42.40985107421875,5.768996238708496,0.87
471,MetaDrive-Tut-50Env-v0,18,333.63123275636406,473475,1339,26001.161762952805,41.93217468261719,-42.366355895996094,9.063305854797363,0.86
472,MetaDrive-Tut-50Env-v0,18,333.8838051055445,474041,1340,26032.65594935417,40.9294548034668,-41.20212936401367,5.337425231933594,0.86
473,MetaDrive-Tut-50Env-v0,18,334.1816686261438,475051,1344,26089.67894101143,42.761268615722656,-42.60699462890625,7.606558799743652,0.86
474,MetaDrive-Tut-50Env-v0,18,328.65083465094716,476182,1348,26153.1192214489,42.46835708618164,,17.16236114501953,0.84
475,MetaDrive-Tut-50Env-v0,18,329.915888310494,477496,1351,26227.218670368195,41.286659240722656,,11.928812980651855,0.83
476,MetaDrive-Tut-50Env-v0,18,331.4394976094582,478507,1353,26284.04132771492,43.52083969116211,-43.09347915649414,9.604156494140625,0.83
477,MetaDrive-Tut-50Env-v0,18,331.49394428201964,479052,1354,26314.536111354828,43.576904296875,,10.169958114624023,0.83
478,MetaDrive-Tut-50Env-v0,18,329.43484145764415,480244,1357,26380.903713464737,42.58226776123047,,5.613617420196533,0.83
479,MetaDrive-Tut-50Env-v0,18,330.1214481583343,481193,1359,26434.760147333145,40.74237823486328,-41.349876403808594,5.172071933746338,0.83
480,MetaDrive-Tut-50Env-v0,18,331.28039395016344,482205,1361,26491.8757750988,40.92012023925781,-40.742496490478516,5.292850494384766,0.83
481,MetaDrive-Tut-50Env-v0,18,330.4771323609316,483463,1364,26561.982079982758,41.70157241821289,-41.27633285522461,5.77064847946167,0.83
482,MetaDrive-Tut-50Env-v0,18,330.3391310014673,484197,1366,26603.610247135162,41.965789794921875,-42.47905731201172,7.1472697257995605,0.82
483,MetaDrive-Tut-50Env-v0,18,333.60693518223735,485327,1368,26666.68287420273,44.37567901611328,-43.93144989013672,4.473048210144043,0.83
484,MetaDrive-Tut-50Env-v0,18,332.50796284272764,486102,1370,26709.696110725403,43.216285705566406,,4.875894546508789,0.83
485,MetaDrive-Tut-50Env-v0,18,337.57422298363497,487226,1372,26772.797642469406,42.72296142578125,,13.818065643310547,0.84
486,MetaDrive-Tut-50Env-v0,18,336.37154225422535,488210,1374,26828.811859846115,42.53562927246094,,15.616649627685547,0.84
487,MetaDrive-Tut-50Env-v0,18,337.5258341804809,489372,1377,26895.14035844803,41.89862823486328,,7.82124662399292,0.84
488,MetaDrive-Tut-50Env-v0,18,338.6310872100274,490414,1379,26954.32275414467,41.599754333496094,,7.092535972595215,0.84
489,MetaDrive-Tut-50Env-v0,18,338.0574048584347,491319,1381,27004.82114458084,39.806983947753906,-40.2445182800293,8.968531608581543,0.84
490,MetaDrive-Tut-50Env-v0,18,337.4650330740214,492263,1383,27058.062568426132,43.32164001464844,-43.19639587402344,7.976093292236328,0.83
491,MetaDrive-Tut-50Env-v0,18,337.9283155619254,493342,1385,27118.977973222733,41.61424255371094,,4.21588659286499,0.83
492,MetaDrive-Tut-50Env-v0,18,338.00532233411565,494461,1387,27181.75826692581,42.603782653808594,-43.2579231262207,5.528192043304443,0.83
493,MetaDrive-Tut-50Env-v0,18,336.2615781823665,495367,1389,27232.58344578743,39.36138916015625,-39.98401641845703,11.44093132019043,0.83
494,MetaDrive-Tut-50Env-v0,18,335.92391050289376,496172,1391,27277.384028196335,43.887901306152344,,9.276594161987305,0.83
495,MetaDrive-Tut-50Env-v0,18,340.18546074717176,497232,1393,27337.643886327744,42.17146682739258,,5.571362018585205,0.84
496,MetaDrive-Tut-50Env-v0,18,339.3579068680277,498160,1395,27385.750054121017,39.460472106933594,,6.147940635681152,0.84
497,MetaDrive-Tut-50Env-v0,18,334.01503448626426,499101,1398,27426.389590978622,42.30792999267578,-42.865135192871094,8.315196990966797,0.82
