yqg36/assignment-2022fall/assignment3/MetaDrive-Tut-10Env-v0/td3/progress.csv
,log_dir,frame_per_second,episode_reward,total_steps,total_episodes,total_time,target_q,actor_loss,critic_loss,success_rate
0,MetaDrive-Tut-10Env-v0,699,11.43443481692928,2001,2,2.8620333671569824,,,,0.0
1,MetaDrive-Tut-10Env-v0,637,8.915164016466669,3645,4,5.715148448944092,,,,0.0
2,MetaDrive-Tut-10Env-v0,665,9.283374930538477,4646,5,6.982586622238159,,,,0.0
3,MetaDrive-Tut-10Env-v0,684,9.905568425243443,5647,6,8.250979661941528,,,,0.0
4,MetaDrive-Tut-10Env-v0,648,9.943444350858572,6648,7,10.250266313552856,,,,0.0
5,MetaDrive-Tut-10Env-v0,593,9.48550346278368,7390,8,12.456655502319336,,,,0.0
6,MetaDrive-Tut-10Env-v0,602,9.366620297941807,8391,9,13.916815280914307,,,,0.0
7,MetaDrive-Tut-10Env-v0,602,8.815321407031353,9930,11,16.489139556884766,,,,0.0
8,MetaDrive-Tut-10Env-v0,507,8.527048439012717,10054,12,19.811492919921875,0.013403380289673805,,0.0014642818132415414,0.0
9,MetaDrive-Tut-10Env-v0,158,1.2930607126388372,11008,47,69.36590099334717,0.09328203648328781,,0.02029886469244957,0.0
10,MetaDrive-Tut-10Env-v0,95,0.822431702923355,12038,64,125.47075724601746,0.08486950397491455,,0.01215701550245285,0.0
11,MetaDrive-Tut-10Env-v0,71,0.09913059607730008,13035,95,182.26011443138123,-0.00545579195022583,0.0016598575748503208,0.8196386098861694,0.0
12,MetaDrive-Tut-10Env-v0,58,-1.7695077519921074,14007,128,237.47360134124756,0.024742182344198227,-0.11098501086235046,0.5139591693878174,0.0
13,MetaDrive-Tut-10Env-v0,51,-1.7378833131587559,15032,148,294.5998327732086,0.055576033890247345,,0.2906458377838135,0.0
14,MetaDrive-Tut-10Env-v0,44,-1.4351694846492862,16329,153,365.7372443675995,0.12070110440254211,-0.15222090482711792,0.07558168470859528,0.0
15,MetaDrive-Tut-10Env-v0,41,-1.3293495022682689,17384,155,423.8064851760864,0.14524400234222412,,0.00934738852083683,0.0
16,MetaDrive-Tut-10Env-v0,38,-1.2696972218837728,18385,156,477.93776297569275,0.12405294179916382,-0.16282090544700623,0.027818802744150162,0.0
17,MetaDrive-Tut-10Env-v0,37,-0.26337817971547284,19043,158,514.398913860321,0.2544533908367157,-0.28135329484939575,0.13171017169952393,0.0
18,MetaDrive-Tut-10Env-v0,35,5.323146182760272,20020,164,568.5499792098999,0.35343635082244873,,0.10826221108436584,0.0
19,MetaDrive-Tut-10Env-v0,33,12.589616155117849,21024,174,625.0743460655212,0.5989066958427429,,0.22124607861042023,0.0
20,MetaDrive-Tut-10Env-v0,32,19.216361991529034,22039,187,681.9748961925507,1.1464331150054932,-1.29555082321167,0.9459575414657593,0.0
21,MetaDrive-Tut-10Env-v0,31,27.05138089451405,23022,198,737.1432998180389,1.6989496946334839,,0.07441970705986023,0.0
22,MetaDrive-Tut-10Env-v0,30,34.99055879281591,24063,210,795.4974331855774,2.4359631538391113,-2.577193260192871,0.2255820631980896,0.0
23,MetaDrive-Tut-10Env-v0,29,45.09146058132355,25111,220,853.8524799346924,3.4054408073425293,-3.5656862258911133,1.2093170881271362,0.0
24,MetaDrive-Tut-10Env-v0,28,54.47837720712489,26026,228,905.3630096912384,3.9676513671875,,0.3033306300640106,0.0
25,MetaDrive-Tut-10Env-v0,28,64.71490437678962,27072,238,964.2534575462341,5.017935752868652,,3.9867751598358154,0.0
26,MetaDrive-Tut-10Env-v0,27,74.36319752066682,28009,246,1016.271196603775,6.225144386291504,-6.4904632568359375,0.3612101972103119,0.0
27,MetaDrive-Tut-10Env-v0,27,82.7083842822601,29009,257,1072.891090631485,7.409439563751221,-7.537696838378906,4.302151679992676,0.0
28,MetaDrive-Tut-10Env-v0,26,82.1537809827476,30077,268,1132.503732919693,7.969902992248535,-8.180193901062012,0.6766818761825562,0.0
29,MetaDrive-Tut-10Env-v0,26,83.62798847103939,31013,279,1185.0366082191467,8.747859954833984,-9.049264907836914,0.8431558609008789,0.0
30,MetaDrive-Tut-10Env-v0,25,86.23931585838135,32015,291,1241.5588190555573,10.530484199523926,-10.96694278717041,1.5810463428497314,0.0
31,MetaDrive-Tut-10Env-v0,25,82.5526584045852,33002,306,1297.205661058426,11.805456161499023,,2.4370696544647217,0.0
32,MetaDrive-Tut-10Env-v0,25,79.20722500005336,34011,319,1353.7354567050934,11.537609100341797,-11.895626068115234,0.8071422576904297,0.0
33,MetaDrive-Tut-10Env-v0,24,73.63636559225897,35059,332,1413.272578239441,13.653529167175293,-13.83584976196289,3.704050064086914,0.0
34,MetaDrive-Tut-10Env-v0,24,69.09410149005944,36084,344,1472.2709517478943,13.38137435913086,,13.22376823425293,0.0
35,MetaDrive-Tut-10Env-v0,24,65.3355937389187,37088,357,1529.7301671504974,15.336137771606445,,10.13277816772461,0.0
36,MetaDrive-Tut-10Env-v0,23,61.11188687507619,38099,371,1587.6869869232178,16.55268096923828,-17.083030700683594,7.548151969909668,0.0
37,MetaDrive-Tut-10Env-v0,23,62.02535144035766,39075,382,1644.0668003559113,17.248016357421875,-17.70244026184082,2.9130711555480957,0.0
38,MetaDrive-Tut-10Env-v0,23,62.521093850232944,40057,392,1700.1613073349,18.217208862304688,-18.362380981445312,2.069399833679199,0.0
39,MetaDrive-Tut-10Env-v0,23,68.10003543981072,41038,401,1755.9017283916473,19.53587532043457,,9.211496353149414,0.0
40,MetaDrive-Tut-10Env-v0,23,72.5823734857727,42029,409,1811.7208139896393,19.0247745513916,-19.237892150878906,8.45303726196289,0.0
41,MetaDrive-Tut-10Env-v0,23,75.37602036604544,43081,419,1871.8218877315521,20.301597595214844,-20.728992462158203,6.066466808319092,0.0
42,MetaDrive-Tut-10Env-v0,22,77.2211991772685,44022,428,1925.0419521331787,22.12542724609375,,5.129917144775391,0.0
43,MetaDrive-Tut-10Env-v0,22,82.63353441184933,45064,437,1983.9023830890656,23.10620880126953,,10.778711318969727,0.0
44,MetaDrive-Tut-10Env-v0,22,83.55377670633852,46065,446,2040.8717131614685,23.251800537109375,-23.635408401489258,21.55387306213379,0.0
45,MetaDrive-Tut-10Env-v0,22,88.14045327972711,47096,456,2099.5070543289185,24.797199249267578,,4.347097873687744,0.0
46,MetaDrive-Tut-10Env-v0,22,92.82829441449883,48020,464,2151.279937028885,25.818050384521484,,3.7531557083129883,0.0
47,MetaDrive-Tut-10Env-v0,22,99.6580273162293,49184,473,2216.519942998886,27.339567184448242,,4.024862289428711,0.0
48,MetaDrive-Tut-10Env-v0,22,106.24841922749019,50113,479,2268.525292634964,27.869150161743164,-28.231220245361328,4.4095635414123535,0.0
49,MetaDrive-Tut-10Env-v0,22,108.72598632269093,51003,487,2318.05713391304,26.42850112915039,-26.966970443725586,5.758100986480713,0.0
50,MetaDrive-Tut-10Env-v0,21,114.58461737375612,52129,495,2380.9581537246704,27.423797607421875,-27.832460403442383,7.849930763244629,0.0
51,MetaDrive-Tut-10Env-v0,21,117.12566095413132,53056,502,2432.841493844986,30.44029426574707,,4.2917890548706055,0.0
52,MetaDrive-Tut-10Env-v0,21,119.56138705735886,54041,509,2488.0893211364746,29.790414810180664,-30.646709442138672,15.419241905212402,0.0
53,MetaDrive-Tut-10Env-v0,21,124.40168366538663,55046,516,2544.1599130630493,30.074312210083008,,9.460187911987305,0.0
54,MetaDrive-Tut-10Env-v0,21,127.33471514904451,56083,523,2601.743645429611,30.134485244750977,-31.103412628173828,34.107173919677734,0.0
55,MetaDrive-Tut-10Env-v0,21,131.98394727970924,57034,530,2654.6158549785614,31.82782745361328,,9.840385437011719,0.0
56,MetaDrive-Tut-10Env-v0,21,134.30235231419417,58081,538,2712.6349773406982,33.16362762451172,-33.7125244140625,9.655843734741211,0.0
57,MetaDrive-Tut-10Env-v0,21,135.92973047511168,59122,546,2770.6536955833435,34.776039123535156,,14.220613479614258,0.0
58,MetaDrive-Tut-10Env-v0,21,138.41154642668567,60040,553,2821.9538571834564,34.0789909362793,,8.56815242767334,0.0
59,MetaDrive-Tut-10Env-v0,21,138.55218240988626,61100,561,2881.3219311237335,35.24463653564453,,31.743791580200195,0.0
60,MetaDrive-Tut-10Env-v0,21,142.54663283571892,62180,567,2942.2961740493774,35.31846618652344,,19.444210052490234,0.0
61,MetaDrive-Tut-10Env-v0,21,145.21171968248444,63053,572,2990.402565717697,36.84123229980469,-36.89879608154297,17.36246109008789,0.01
62,MetaDrive-Tut-10Env-v0,21,143.6555704891229,64079,578,3047.567441225052,36.81838607788086,-37.232479095458984,21.260995864868164,0.02
63,MetaDrive-Tut-10Env-v0,20,144.18655310912393,65033,584,3100.86612534523,37.771026611328125,-38.552886962890625,8.355615615844727,0.03
64,MetaDrive-Tut-10Env-v0,20,150.19304132157652,66074,589,3159.826152563095,39.445777893066406,,6.369696617126465,0.03
65,MetaDrive-Tut-10Env-v0,20,148.71735472244467,67112,597,3218.3500225543976,37.75019073486328,,13.170772552490234,0.03
66,MetaDrive-Tut-10Env-v0,20,149.34510178730991,68100,603,3272.7278203964233,39.4144172668457,,7.288340091705322,0.04
67,MetaDrive-Tut-10Env-v0,20,149.70395993618945,69072,609,3326.7294206619263,39.95027160644531,,5.2768168449401855,0.05
68,MetaDrive-Tut-10Env-v0,20,147.420651739238,70103,617,3383.7600269317627,39.46188735961914,-39.807579040527344,39.61747741699219,0.05
69,MetaDrive-Tut-10Env-v0,20,151.47117404484305,71127,621,3440.562134742737,41.077392578125,-40.96526336669922,11.75074577331543,0.07
70,MetaDrive-Tut-10Env-v0,20,153.2212385785169,72013,625,3490.081668138504,41.69719314575195,-42.61739730834961,15.470102310180664,0.08
71,MetaDrive-Tut-10Env-v0,20,156.2257875226306,73275,631,3560.68359541893,42.311439514160156,-42.23250961303711,10.748279571533203,0.1
72,MetaDrive-Tut-10Env-v0,20,160.77960612800055,74207,635,3612.637914657593,41.718017578125,-42.3275146484375,22.59669303894043,0.12
73,MetaDrive-Tut-10Env-v0,20,167.58503144711747,75306,639,3674.908793449402,42.5766716003418,,28.50945281982422,0.13
74,MetaDrive-Tut-10Env-v0,20,170.50389530038626,76125,642,3720.4593687057495,40.035621643066406,-40.743003845214844,39.355072021484375,0.14
75,MetaDrive-Tut-10Env-v0,20,172.51257527826994,77121,647,3775.8619554042816,41.396034240722656,-41.85133361816406,12.770276069641113,0.15
76,MetaDrive-Tut-10Env-v0,20,177.29323648769733,78146,652,3832.8174164295197,43.029083251953125,,6.075333595275879,0.16
77,MetaDrive-Tut-10Env-v0,20,182.79732796763875,79060,655,3883.5883922576904,44.261375427246094,,8.441520690917969,0.18
78,MetaDrive-Tut-10Env-v0,20,186.09328762265122,80188,661,3947.2464888095856,42.1888427734375,,28.23115348815918,0.18
79,MetaDrive-Tut-10Env-v0,20,185.33819592413386,81831,665,4039.1515548229218,45.01789093017578,-45.61029052734375,6.541622161865234,0.18
80,MetaDrive-Tut-10Env-v0,20,184.6594162766692,82119,667,4055.778988838196,43.073638916015625,-44.21818542480469,5.447840690612793,0.18
81,MetaDrive-Tut-10Env-v0,20,186.130313525235,83017,671,4105.847019433975,43.17049026489258,-43.582462310791016,7.524815559387207,0.18
82,MetaDrive-Tut-10Env-v0,20,185.58378597804742,84065,677,4164.691108703613,45.821754455566406,-46.3817253112793,8.095775604248047,0.17
83,MetaDrive-Tut-10Env-v0,20,189.13480992133384,85051,683,4219.963028669357,45.70000457763672,-46.945499420166016,37.658050537109375,0.18
84,MetaDrive-Tut-10Env-v0,20,190.48754801095026,86228,687,4286.25784945488,45.27080535888672,,8.244427680969238,0.18
85,MetaDrive-Tut-10Env-v0,20,189.2658816883039,87052,691,4332.032480239868,44.299949645996094,,9.66384220123291,0.19
86,MetaDrive-Tut-10Env-v0,20,191.58496197175518,88206,696,4396.47535276413,45.524742126464844,,18.53361701965332,0.21
87,MetaDrive-Tut-10Env-v0,20,192.2724794345226,89003,700,4441.0891370773315,44.45798110961914,-45.06178665161133,17.40398406982422,0.21
88,MetaDrive-Tut-10Env-v0,20,197.11623451151573,90120,705,4503.661787748337,46.01762008666992,,16.11420249938965,0.22
89,MetaDrive-Tut-10Env-v0,19,199.069063090254,91104,709,4558.077601194382,46.128292083740234,,12.075769424438477,0.22
90,MetaDrive-Tut-10Env-v0,19,203.07298088465112,92018,713,4609.07497382164,44.93158721923828,,6.495343208312988,0.23
91,MetaDrive-Tut-10Env-v0,19,204.28902764572453,93100,719,4669.168727397919,42.99519348144531,,6.87906551361084,0.23
92,MetaDrive-Tut-10Env-v0,19,203.40532253393408,94089,724,4724.648459434509,47.26369094848633,-47.79576873779297,18.473434448242188,0.21
93,MetaDrive-Tut-10Env-v0,19,206.82691393967613,95052,727,4778.39911699295,46.75844955444336,,9.070882797241211,0.23
94,MetaDrive-Tut-10Env-v0,19,199.88022108181474,96172,734,4840.561766862869,47.13700866699219,,47.98176574707031,0.21
95,MetaDrive-Tut-10Env-v0,19,193.96598160808782,97091,739,4892.438127040863,43.67805862426758,-43.63758087158203,14.607175827026367,0.19
96,MetaDrive-Tut-10Env-v0,19,193.0824649337952,98049,744,4946.173934459686,44.712013244628906,-45.33399200439453,8.957820892333984,0.18
97,MetaDrive-Tut-10Env-v0,19,191.4739436709219,99079,749,5003.746320962906,45.809226989746094,-46.593353271484375,7.920679569244385,0.18
98,MetaDrive-Tut-10Env-v0,19,194.12777084180195,100124,752,5061.818865776062,47.182289123535156,,32.06039047241211,0.21
99,MetaDrive-Tut-10Env-v0,19,193.5280562740835,101307,756,5127.664331436157,44.6387825012207,-44.88421630859375,25.20459747314453,0.22
100,MetaDrive-Tut-10Env-v0,19,195.93644893282374,102110,759,5173.097241163254,44.60334014892578,,7.873288631439209,0.23
101,MetaDrive-Tut-10Env-v0,19,196.60515696028637,103321,764,5240.201114654541,47.758880615234375,-49.14014434814453,8.610103607177734,0.25
102,MetaDrive-Tut-10Env-v0,19,198.56434499319911,104070,767,5282.335574626923,44.85350799560547,,59.18160629272461,0.25
103,MetaDrive-Tut-10Env-v0,19,200.28865189782562,105290,772,5350.733615159988,47.30449295043945,,13.51391315460205,0.25
104,MetaDrive-Tut-10Env-v0,19,203.89957608008666,106158,775,5398.570537567139,46.590858459472656,,12.430628776550293,0.27
105,MetaDrive-Tut-10Env-v0,19,203.38650209057113,107152,779,5454.489468336105,46.92694854736328,,7.028446197509766,0.27
106,MetaDrive-Tut-10Env-v0,19,206.96797047576797,108324,783,5519.7270340919495,49.20494842529297,,11.79908561706543,0.29
107,MetaDrive-Tut-10Env-v0,19,204.89740072119446,109282,787,5573.724319219589,46.80158233642578,,34.14984893798828,0.28
108,MetaDrive-Tut-10Env-v0,19,207.21255371520638,110143,790,5622.123315572739,47.239898681640625,-48.06561279296875,16.730356216430664,0.28
109,MetaDrive-Tut-10Env-v0,19,209.15194227699976,111257,795,5684.755184173584,47.718772888183594,-48.12530517578125,10.477092742919922,0.29
110,MetaDrive-Tut-10Env-v0,19,207.5393681440311,112027,799,5727.6832439899445,46.46141815185547,-47.71128463745117,14.465890884399414,0.28
111,MetaDrive-Tut-10Env-v0,19,206.10097715722782,113114,804,5787.777172088623,45.090614318847656,,16.987285614013672,0.29
112,MetaDrive-Tut-10Env-v0,19,207.3613092273021,114248,808,5851.452476024628,46.74403381347656,,10.198188781738281,0.3
113,MetaDrive-Tut-10Env-v0,19,204.5785992755673,115105,812,5899.005068540573,46.77070617675781,-46.00786590576172,10.762120246887207,0.3
114,MetaDrive-Tut-10Env-v0,19,205.83497757795453,116063,817,5952.41304564476,46.164241790771484,-46.66265869140625,54.59281921386719,0.3
115,MetaDrive-Tut-10Env-v0,19,202.91411168335023,117138,823,6012.286181926727,46.969947814941406,,12.566240310668945,0.31
116,MetaDrive-Tut-10Env-v0,19,202.6694438848632,118030,827,6062.295487642288,46.299339294433594,,8.861692428588867,0.3
117,MetaDrive-Tut-10Env-v0,19,205.28913974636802,119189,833,6126.775279760361,45.92152404785156,-46.492286682128906,14.495367050170898,0.31
118,MetaDrive-Tut-10Env-v0,19,208.93946651984606,120086,836,6177.1699655056,46.09275817871094,,10.791772842407227,0.33
119,MetaDrive-Tut-10Env-v0,19,210.51625069720026,121055,839,6231.173517227173,46.81305694580078,-47.68467330932617,18.41143798828125,0.35
120,MetaDrive-Tut-10Env-v0,19,212.43355613054476,122206,843,6295.822884559631,49.09601974487305,,11.644512176513672,0.36
121,MetaDrive-Tut-10Env-v0,19,211.37389491727907,123205,849,6351.3665599823,48.01605224609375,-48.453041076660156,22.55396842956543,0.35
122,MetaDrive-Tut-10Env-v0,19,205.7194955558395,124243,854,6409.744974851608,46.616424560546875,-46.80475616455078,10.376554489135742,0.31
123,MetaDrive-Tut-10Env-v0,19,206.5239200907167,125050,857,6455.1262838840485,45.192909240722656,,12.459220886230469,0.31
124,MetaDrive-Tut-10Env-v0,19,203.02598844120973,126457,864,6533.263507127762,48.74060821533203,-48.85188293457031,10.208698272705078,0.3
125,MetaDrive-Tut-10Env-v0,19,205.3032789774412,127124,866,6571.1291670799255,47.057098388671875,,33.67925262451172,0.31
126,MetaDrive-Tut-10Env-v0,19,196.27409862218093,128104,874,6626.022951364517,46.34473419189453,,11.358434677124023,0.29
127,MetaDrive-Tut-10Env-v0,19,188.43444506669238,129027,880,6677.571718215942,48.18701171875,-48.96498107910156,9.332688331604004,0.27
128,MetaDrive-Tut-10Env-v0,19,187.7357981282248,130216,886,6744.346651315689,44.624839782714844,,20.91794776916504,0.27
129,MetaDrive-Tut-10Env-v0,19,189.02458511749282,131071,889,6792.481860399246,47.29985809326172,-48.27414321899414,8.662763595581055,0.29
130,MetaDrive-Tut-10Env-v0,19,191.1918949897847,132042,892,6846.748517274857,46.84700012207031,,6.683178901672363,0.3
131,MetaDrive-Tut-10Env-v0,19,195.97442036636323,133251,896,6915.507617473602,48.47638702392578,-49.79194641113281,47.29475402832031,0.29
132,MetaDrive-Tut-10Env-v0,19,197.978047019784,134171,899,6967.052610397339,47.474910736083984,-47.809120178222656,16.416553497314453,0.3
133,MetaDrive-Tut-10Env-v0,19,200.86702312395758,135084,902,7018.715883731842,47.66967010498047,,17.278278350830078,0.3
134,MetaDrive-Tut-10Env-v0,19,199.46427239439865,136070,907,7073.660151720047,47.892333984375,,8.464378356933594,0.31
135,MetaDrive-Tut-10Env-v0,19,200.0305874897337,137179,911,7135.026396036148,47.39717102050781,-47.97322082519531,70.00395202636719,0.31
136,MetaDrive-Tut-10Env-v0,19,200.78862679733967,138138,915,7188.088049411774,45.5244255065918,,28.037395477294922,0.31
137,MetaDrive-Tut-10Env-v0,19,206.02921781529278,139283,918,7252.61688542366,48.03105926513672,-48.513893127441406,13.091327667236328,0.33
138,MetaDrive-Tut-10Env-v0,19,209.4203109762646,140081,920,7297.822386980057,46.660850524902344,-46.9816780090332,10.002581596374512,0.34
139,MetaDrive-Tut-10Env-v0,19,209.14702042387967,141424,925,7373.02427816391,48.02463912963867,,14.724535942077637,0.34
140,MetaDrive-Tut-10Env-v0,19,210.8595998147721,142028,928,7407.035057067871,48.88296890258789,,20.489763259887695,0.34
141,MetaDrive-Tut-10Env-v0,19,213.59975662597043,143074,932,7466.447088241577,51.85757827758789,,13.387838363647461,0.33
142,MetaDrive-Tut-10Env-v0,19,211.31931951004012,144355,938,7538.951887845993,46.10691833496094,-46.3296012878418,34.01820755004883,0.3
143,MetaDrive-Tut-10Env-v0,19,210.5518669397087,145034,940,7576.903283119202,49.68302917480469,,31.34699249267578,0.29
144,MetaDrive-Tut-10Env-v0,19,212.6977383281675,146244,943,7644.894196987152,49.67540740966797,,12.843564987182617,0.31
145,MetaDrive-Tut-10Env-v0,19,217.91769649612132,147166,946,7696.773254871368,48.763092041015625,,33.81513977050781,0.32
146,MetaDrive-Tut-10Env-v0,19,218.34129051056226,148088,950,7748.134294748306,46.52080535888672,,16.951650619506836,0.32
147,MetaDrive-Tut-10Env-v0,19,221.10020760812674,149288,954,7815.632861614227,49.2186279296875,,7.577991485595703,0.34
148,MetaDrive-Tut-10Env-v0,19,220.46495502696015,150040,957,7857.518714666367,46.35485076904297,,35.399986267089844,0.35
149,MetaDrive-Tut-10Env-v0,19,224.0266459042901,151013,960,7912.090777635574,46.862754821777344,-46.896026611328125,10.379104614257812,0.35
150,MetaDrive-Tut-10Env-v0,19,227.01269036028253,152224,964,7980.225595474243,47.255882263183594,,54.75426483154297,0.36
151,MetaDrive-Tut-10Env-v0,19,226.8847779992106,153129,967,8030.936108112335,47.59765625,-48.735774993896484,22.340377807617188,0.37
152,MetaDrive-Tut-10Env-v0,19,234.2640735079028,154286,970,8096.114941358566,47.74083709716797,,15.597496032714844,0.4
153,MetaDrive-Tut-10Env-v0,19,242.27368421788557,155417,973,8160.058720111847,48.715240478515625,-48.227691650390625,18.526077270507812,0.42
154,MetaDrive-Tut-10Env-v0,19,245.6232529270056,156312,977,8210.08620262146,47.72941207885742,,12.021636962890625,0.43
155,MetaDrive-Tut-10Env-v0,19,248.61010396712427,157030,979,8250.833399295807,47.963645935058594,,57.39342498779297,0.42
156,MetaDrive-Tut-10Env-v0,19,248.89347554176092,158016,983,8305.742548465729,47.60037612915039,,10.331583023071289,0.44
157,MetaDrive-Tut-10Env-v0,19,253.99504192125383,159387,987,8383.065884113312,48.93082809448242,-49.370697021484375,12.550308227539062,0.45
158,MetaDrive-Tut-10Env-v0,19,254.50095276412466,160142,989,8425.347118139267,48.19424819946289,,13.933405876159668,0.45
159,MetaDrive-Tut-10Env-v0,19,249.96663647870585,161271,994,8487.92676448822,49.87425231933594,-50.604942321777344,10.007743835449219,0.46
160,MetaDrive-Tut-10Env-v0,18,249.5937552767546,162439,998,8553.613959312439,46.17591857910156,-46.13224792480469,16.738014221191406,0.46
161,MetaDrive-Tut-10Env-v0,18,246.76669180875976,163012,1000,8585.500316858292,48.623687744140625,,9.784488677978516,0.46
162,MetaDrive-Tut-10Env-v0,18,252.1978933657746,164390,1004,8663.461888551712,50.734527587890625,,9.842720985412598,0.46
163,MetaDrive-Tut-10Env-v0,18,252.72275385226635,165028,1007,8699.090070724487,48.17832946777344,,14.049619674682617,0.46
164,MetaDrive-Tut-10Env-v0,18,254.45690231104965,166178,1010,8763.475656747818,50.02886199951172,,7.3324198722839355,0.46
165,MetaDrive-Tut-10Env-v0,18,254.1907013887976,167047,1013,8811.775220632553,50.7354736328125,-50.76258087158203,21.02588653564453,0.46
166,MetaDrive-Tut-10Env-v0,18,252.0947445105647,168031,1017,8867.323689460754,47.16923522949219,-47.21092987060547,11.220213890075684,0.46
167,MetaDrive-Tut-10Env-v0,18,251.11012377540916,169163,1021,8930.46216750145,45.77794647216797,-46.326316833496094,14.086006164550781,0.46
168,MetaDrive-Tut-10Env-v0,18,256.9149258302462,170209,1023,8988.892405033112,49.8906135559082,-51.188026428222656,14.867277145385742,0.48
169,MetaDrive-Tut-10Env-v0,18,253.52124661412228,171070,1027,9036.72898054123,47.481834411621094,,10.341411590576172,0.47
170,MetaDrive-Tut-10Env-v0,18,254.34782326918085,172299,1031,9105.22860956192,49.47222900390625,-50.47411346435547,14.206836700439453,0.5
171,MetaDrive-Tut-10Env-v0,18,255.34709097256044,173112,1035,9150.459062814713,47.69770050048828,,19.0347900390625,0.51
172,MetaDrive-Tut-10Env-v0,18,252.01233976798804,174357,1040,9220.081647872925,51.356285095214844,-51.65788269042969,21.343860626220703,0.51
173,MetaDrive-Tut-10Env-v0,18,252.92611770607996,175180,1042,9265.772394418716,50.879852294921875,,32.26096725463867,0.52
174,MetaDrive-Tut-10Env-v0,18,251.8851625492128,176194,1045,9322.016047477722,49.88827133178711,,11.223856925964355,0.53
175,MetaDrive-Tut-10Env-v0,18,258.05859327159396,177322,1048,9385.942841053009,48.482948303222656,,24.725303649902344,0.54
176,MetaDrive-Tut-10Env-v0,18,259.5889368694128,178217,1050,9435.658227205276,48.25127410888672,-49.086185455322266,9.419462203979492,0.55
177,MetaDrive-Tut-10Env-v0,18,264.12457450450506,179503,1053,9507.727612257004,49.94723892211914,-50.56034851074219,10.554752349853516,0.56
178,MetaDrive-Tut-10Env-v0,18,264.76131368095764,180020,1055,9536.621320486069,50.36418914794922,,12.072179794311523,0.56
179,MetaDrive-Tut-10Env-v0,18,266.63782501306645,181126,1058,9598.15247797966,49.21592712402344,,43.9741325378418,0.56
180,MetaDrive-Tut-10Env-v0,18,264.0088276099969,182141,1061,9654.46210861206,48.05282974243164,-48.95854568481445,11.980341911315918,0.57
181,MetaDrive-Tut-10Env-v0,18,267.06228316893356,183021,1064,9703.494685173035,50.415740966796875,-50.50617218017578,20.189903259277344,0.59
182,MetaDrive-Tut-10Env-v0,18,269.12378813184836,184482,1068,9785.435419797897,49.920326232910156,,18.02151870727539,0.59
183,MetaDrive-Tut-10Env-v0,18,267.076530821155,185149,1070,9822.322224617004,48.290924072265625,-48.54554748535156,24.785898208618164,0.59
184,MetaDrive-Tut-10Env-v0,18,263.78026049648344,186030,1073,9871.527659893036,51.900699615478516,,9.908487319946289,0.59
185,MetaDrive-Tut-10Env-v0,18,267.44076888738425,187317,1077,9943.603241920471,47.30870056152344,-47.18265914916992,21.80251693725586,0.6
186,MetaDrive-Tut-10Env-v0,18,268.79423128309446,188313,1080,9998.925775766373,47.972434997558594,-48.04792022705078,18.472007751464844,0.63
187,MetaDrive-Tut-10Env-v0,18,268.51375536339157,189045,1082,10039.739196062088,50.86466979980469,-51.593082427978516,17.298294067382812,0.63
188,MetaDrive-Tut-10Env-v0,18,277.3306530910936,190188,1084,10104.633508682251,49.233482360839844,,17.353899002075195,0.65
189,MetaDrive-Tut-10Env-v0,18,278.16851836921086,191082,1086,10154.967930078506,51.595802307128906,,8.137794494628906,0.65
190,MetaDrive-Tut-10Env-v0,18,275.49440856100694,192132,1089,10213.547854423523,47.427467346191406,,14.659117698669434,0.65
191,MetaDrive-Tut-10Env-v0,18,280.54969312082073,193300,1092,10277.938923358917,49.670223236083984,,16.001388549804688,0.67
192,MetaDrive-Tut-10Env-v0,18,279.3388723108084,194207,1095,10328.431883096695,48.687252044677734,-49.884544372558594,17.212928771972656,0.66
193,MetaDrive-Tut-10Env-v0,18,283.5951334194484,195489,1098,10400.48451089859,48.14258575439453,-48.45651626586914,32.03011703491211,0.68
194,MetaDrive-Tut-10Env-v0,18,286.4471881084773,196351,1100,10448.61594414711,49.49693298339844,-50.52088165283203,12.729939460754395,0.69
195,MetaDrive-Tut-10Env-v0,18,287.90659804535136,197386,1103,10505.901503801346,51.63120651245117,,13.229050636291504,0.7
196,MetaDrive-Tut-10Env-v0,18,285.44527604992504,198044,1105,10542.666377305984,47.397125244140625,,78.7576904296875,0.7
197,MetaDrive-Tut-10Env-v0,18,291.7320262481824,199065,1107,10600.605191707611,51.82440185546875,-52.45171356201172,15.129892349243164,0.72
198,MetaDrive-Tut-10Env-v0,18,294.13840136554404,200075,1109,10657.685499191284,45.27775573730469,-46.09235382080078,24.613094329833984,0.73
199,MetaDrive-Tut-10Env-v0,18,295.30510928948223,201239,1112,10723.039303779602,47.98847198486328,-48.95454406738281,60.02243423461914,0.72
200,MetaDrive-Tut-10Env-v0,18,302.8698854508308,202316,1115,10784.307082414627,48.55064010620117,,20.827220916748047,0.74
201,MetaDrive-Tut-10Env-v0,18,303.63647590086657,203180,1117,10832.738275051117,50.48124313354492,,12.11368465423584,0.74
202,MetaDrive-Tut-10Env-v0,18,304.61858467747624,204264,1120,10893.36692738533,49.97842788696289,,31.961593627929688,0.74
203,MetaDrive-Tut-10Env-v0,18,304.5070843762713,205057,1122,10937.478265047073,50.38414764404297,-50.932708740234375,14.017505645751953,0.75
204,MetaDrive-Tut-10Env-v0,18,306.3486114574365,206107,1125,10996.167356014252,47.00859069824219,-48.31080627441406,12.623010635375977,0.74
205,MetaDrive-Tut-10Env-v0,18,307.6402448799351,207123,1128,11052.793217420578,46.77387237548828,-47.349788665771484,14.649274826049805,0.76
206,MetaDrive-Tut-10Env-v0,18,311.68640131429174,208075,1130,11106.58304810524,48.418540954589844,-49.590457916259766,12.260717391967773,0.77
207,MetaDrive-Tut-10Env-v0,18,316.0529634166822,209113,1133,11163.988894462585,48.835933685302734,-49.5604133605957,16.84713363647461,0.78
208,MetaDrive-Tut-10Env-v0,18,317.54748681404067,210152,1136,11222.100439071655,45.090354919433594,,13.234537124633789,0.79
209,MetaDrive-Tut-10Env-v0,18,321.59631937799827,211230,1139,11282.282356023788,48.57081604003906,,11.10891056060791,0.81
210,MetaDrive-Tut-10Env-v0,18,318.86144929350803,212009,1141,11325.591040611267,44.83177947998047,-45.23389434814453,18.980388641357422,0.81
211,MetaDrive-Tut-10Env-v0,18,317.95120636777773,213282,1145,11396.644984960556,51.08714294433594,,10.276590347290039,0.8
212,MetaDrive-Tut-10Env-v0,18,317.1475456839654,214353,1148,11456.5322535038,48.59634017944336,-50.414066314697266,14.689430236816406,0.82
213,MetaDrive-Tut-10Env-v0,18,315.75573380591385,215132,1150,11499.826952695847,47.00592803955078,,9.360626220703125,0.82
214,MetaDrive-Tut-10Env-v0,18,313.22982820519405,216167,1153,11557.913605928421,48.874759674072266,-48.5567626953125,16.076549530029297,0.81
215,MetaDrive-Tut-10Env-v0,18,315.92406373634657,217008,1156,11604.67724108696,49.825748443603516,,40.30074691772461,0.81
216,MetaDrive-Tut-10Env-v0,18,314.77821375692156,218330,1159,11679.259573698044,48.26470184326172,,16.570068359375,0.79
217,MetaDrive-Tut-10Env-v0,18,315.71190844658463,219114,1161,11722.669413089752,49.1569938659668,,9.635851860046387,0.79
218,MetaDrive-Tut-10Env-v0,18,315.9784990625616,220201,1164,11783.008566617966,48.87945556640625,-49.79791259765625,10.041584968566895,0.77
219,MetaDrive-Tut-10Env-v0,18,317.8967460203265,221059,1166,11830.906363725662,46.420860290527344,-46.82722854614258,20.906097412109375,0.77
220,MetaDrive-Tut-10Env-v0,18,316.6444688278292,222186,1169,11893.68818807602,50.10106658935547,,13.715356826782227,0.77
221,MetaDrive-Tut-10Env-v0,18,318.4558467443055,223109,1171,11945.913037061691,47.40076446533203,-47.83734130859375,59.623374938964844,0.76
222,MetaDrive-Tut-10Env-v0,18,322.27393160594823,224461,1174,12021.799260854721,47.88529586791992,-49.223941802978516,16.679027557373047,0.77
223,MetaDrive-Tut-10Env-v0,18,322.9466155557448,225162,1176,12061.222672224045,49.028343200683594,,15.446695327758789,0.77
224,MetaDrive-Tut-10Env-v0,18,324.1223189483858,226020,1178,12109.084031820297,45.10665512084961,,15.654433250427246,0.77
225,MetaDrive-Tut-10Env-v0,18,321.83003178167985,227285,1182,12179.919517993927,49.65029525756836,-50.90084457397461,12.764939308166504,0.73
226,MetaDrive-Tut-10Env-v0,18,320.21614878606937,228233,1184,12233.435071468353,49.331398010253906,-51.25437927246094,19.13867950439453,0.72
227,MetaDrive-Tut-10Env-v0,18,317.0868613618255,229296,1187,12292.593438386917,49.911766052246094,,11.72785758972168,0.71
228,MetaDrive-Tut-10Env-v0,18,318.6420154555099,230105,1189,12337.666282176971,48.7136116027832,-49.06698226928711,20.518442153930664,0.71
229,MetaDrive-Tut-10Env-v0,18,319.79038532687804,231044,1191,12390.36025261879,49.18955612182617,,19.116975784301758,0.71
230,MetaDrive-Tut-10Env-v0,18,322.44687589147094,232301,1194,12460.690747976303,52.082916259765625,-52.74920654296875,12.236976623535156,0.72
231,MetaDrive-Tut-10Env-v0,18,323.53203880320666,233146,1196,12507.650181293488,48.184165954589844,,13.945626258850098,0.72
232,MetaDrive-Tut-10Env-v0,18,322.8209245191029,234402,1199,12578.435776233673,47.866519927978516,,23.134845733642578,0.71
233,MetaDrive-Tut-10Env-v0,18,321.33633584073067,235257,1202,12625.704617261887,49.52861785888672,-49.34322738647461,14.402889251708984,0.7
234,MetaDrive-Tut-10Env-v0,18,318.963986796547,236296,1205,12683.777557611465,50.75328826904297,,11.35734748840332,0.69
235,MetaDrive-Tut-10Env-v0,18,313.32144881792914,237287,1208,12738.824164152145,49.576904296875,-50.75611877441406,24.17038917541504,0.69
236,MetaDrive-Tut-10Env-v0,18,313.9634264953647,238294,1210,12795.308440208435,48.98723602294922,,11.766803741455078,0.68
237,MetaDrive-Tut-10Env-v0,18,313.70040377265354,239117,1212,12840.847319602966,49.615997314453125,-51.13428497314453,16.06993865966797,0.69
238,MetaDrive-Tut-10Env-v0,18,313.67961239867816,240251,1215,12904.37429189682,49.374664306640625,-49.48134994506836,20.05971908569336,0.7
239,MetaDrive-Tut-10Env-v0,18,313.74116394445986,241132,1217,12953.82262468338,47.99626922607422,,22.929994583129883,0.7
240,MetaDrive-Tut-10Env-v0,18,315.209414669935,242027,1219,13004.42686009407,49.60911178588867,-50.27971649169922,9.921296119689941,0.7
241,MetaDrive-Tut-10Env-v0,18,315.7088195095702,243179,1222,13068.464172840118,49.161582946777344,-49.55485916137695,12.50597858428955,0.71
242,MetaDrive-Tut-10Env-v0,18,316.6764470097239,244422,1225,13138.07286143303,50.804840087890625,,13.82070541381836,0.73
243,MetaDrive-Tut-10Env-v0,18,317.6135095291061,245242,1227,13183.9923889637,50.529624938964844,,11.230001449584961,0.72
244,MetaDrive-Tut-10Env-v0,18,314.80580110123043,246347,1230,13245.519243478775,49.38226318359375,-50.31559753417969,18.989187240600586,0.72
245,MetaDrive-Tut-10Env-v0,18,316.76548807627364,247303,1232,13299.083096981049,49.741432189941406,-50.57931900024414,9.48050308227539,0.72
246,MetaDrive-Tut-10Env-v0,18,318.5886065283947,248267,1234,13352.743020534515,45.37779998779297,-45.02936935424805,12.837869644165039,0.74
247,MetaDrive-Tut-10Env-v0,18,320.3764989194299,249152,1236,13402.269434452057,51.37558364868164,,16.342487335205078,0.73
248,MetaDrive-Tut-10Env-v0,18,322.931560169472,250604,1239,13483.634449243546,47.42498779296875,,14.683565139770508,0.73
249,MetaDrive-Tut-10Env-v0,18,324.2348625439556,251206,1240,13517.75062417984,49.59796142578125,,12.385302543640137,0.73
250,MetaDrive-Tut-10Env-v0,18,325.1522200839038,252047,1242,13564.621723890305,51.349266052246094,-51.74225997924805,13.199783325195312,0.73
251,MetaDrive-Tut-10Env-v0,18,325.7115040907993,253118,1245,13624.176221132278,48.190040588378906,,35.244667053222656,0.74
252,MetaDrive-Tut-10Env-v0,18,327.0108448445629,254029,1247,13675.045253038406,47.318023681640625,-47.31172180175781,12.956653594970703,0.74
253,MetaDrive-Tut-10Env-v0,18,330.60383501849174,255115,1249,13736.21061873436,50.060577392578125,-50.965576171875,34.94561767578125,0.74
254,MetaDrive-Tut-10Env-v0,18,331.52576187037687,256097,1251,13791.114330768585,48.160953521728516,-48.200889587402344,9.954172134399414,0.74
255,MetaDrive-Tut-10Env-v0,18,332.55270861112643,257380,1254,13863.062029600143,49.36336898803711,,29.099132537841797,0.74
256,MetaDrive-Tut-10Env-v0,18,335.5338643822239,258373,1256,13918.984380483627,49.899147033691406,-49.77958297729492,11.54895305633545,0.76
257,MetaDrive-Tut-10Env-v0,18,336.8214616508127,259353,1258,13974.480339765549,50.43572235107422,-50.11213684082031,23.531614303588867,0.78
258,MetaDrive-Tut-10Env-v0,18,334.6492560266177,260036,1260,14012.523389339447,51.166053771972656,,14.461715698242188,0.78
259,MetaDrive-Tut-10Env-v0,18,336.8647675598909,261004,1262,14066.370887041092,48.820255279541016,,18.791162490844727,0.79
260,MetaDrive-Tut-10Env-v0,18,335.9171300240321,262133,1265,14128.842457771301,48.05412292480469,-49.08367919921875,14.22445297241211,0.8
261,MetaDrive-Tut-10Env-v0,18,339.08385188032554,263169,1267,14186.766701698303,47.668907165527344,-48.31195068359375,21.478591918945312,0.81
262,MetaDrive-Tut-10Env-v0,18,338.84898630218936,264326,1270,14250.907936573029,48.941131591796875,,11.352749824523926,0.81
263,MetaDrive-Tut-10Env-v0,18,338.88846670746267,265512,1272,14317.767565965652,48.29457473754883,,10.250448226928711,0.82
264,MetaDrive-Tut-10Env-v0,18,338.855281830636,266343,1274,14364.19733953476,49.646034240722656,-50.61075973510742,14.724327087402344,0.82
265,MetaDrive-Tut-10Env-v0,18,337.77928147382806,267034,1276,14402.278608083725,53.05197525024414,,25.685108184814453,0.83
266,MetaDrive-Tut-10Env-v0,18,342.09294502386814,268451,1279,14482.177975177765,48.13032531738281,-48.06958770751953,25.043781280517578,0.84
267,MetaDrive-Tut-10Env-v0,18,341.6180207776218,269160,1281,14521.591903924942,47.09470748901367,,11.648988723754883,0.86
268,MetaDrive-Tut-10Env-v0,18,342.8772743970523,270298,1283,14585.68333530426,46.91974639892578,,12.346784591674805,0.87
269,MetaDrive-Tut-10Env-v0,18,345.9585523663437,271400,1285,14647.221965312958,49.35578918457031,,10.110010147094727,0.89
270,MetaDrive-Tut-10Env-v0,18,346.75839092432625,272239,1287,14694.071122169495,47.95062255859375,-49.27595901489258,13.368398666381836,0.89
271,MetaDrive-Tut-10Env-v0,18,347.7662014124895,273194,1289,14747.532606601715,50.824825286865234,,10.415882110595703,0.9
272,MetaDrive-Tut-10Env-v0,18,347.0852449999498,274142,1291,14800.774109363556,48.450218200683594,,12.624048233032227,0.9
273,MetaDrive-Tut-10Env-v0,18,346.92038227562193,275492,1294,14876.682064771652,46.395042419433594,,9.556427001953125,0.9
274,MetaDrive-Tut-10Env-v0,18,347.41537685444047,276485,1296,14932.529416799545,50.33457946777344,-51.14678955078125,14.651418685913086,0.9
275,MetaDrive-Tut-10Env-v0,18,348.21910387512884,277050,1297,14963.973556518555,46.66600799560547,,15.986783027648926,0.91
276,MetaDrive-Tut-10Env-v0,18,348.3760064981228,278179,1300,15026.643214225769,47.231170654296875,-47.847862243652344,15.082159996032715,0.92
277,MetaDrive-Tut-10Env-v0,18,348.3700103941959,279298,1303,15088.756185531616,50.493865966796875,,15.851066589355469,0.93
278,MetaDrive-Tut-10Env-v0,18,350.01853169482996,280260,1305,15142.864881277084,50.379356384277344,,12.262636184692383,0.93
279,MetaDrive-Tut-10Env-v0,18,351.19478027993483,281155,1307,15192.868717432022,48.67251968383789,-49.54277801513672,32.08940124511719,0.93
280,MetaDrive-Tut-10Env-v0,18,350.09174167402125,282494,1310,15268.086292028427,47.92988967895508,,11.605629920959473,0.94
281,MetaDrive-Tut-10Env-v0,18,349.9776910422163,283320,1312,15314.734930753708,47.89701843261719,,12.609262466430664,0.93
282,MetaDrive-Tut-10Env-v0,18,350.6230927465751,284312,1314,15370.186830282211,47.53766632080078,,13.202320098876953,0.93
283,MetaDrive-Tut-10Env-v0,18,349.97432431376865,285042,1316,15410.76863861084,48.360076904296875,,12.805204391479492,0.94
284,MetaDrive-Tut-10Env-v0,18,346.7938846184658,286213,1319,15475.553683280945,46.612884521484375,-47.02648162841797,13.935115814208984,0.94
285,MetaDrive-Tut-10Env-v0,18,347.624481521597,287732,1322,15560.425457954407,49.30992889404297,,11.963509559631348,0.94
286,MetaDrive-Tut-10Env-v0,18,346.81794418732454,288078,1323,15579.413038730621,50.049400329589844,,12.090322494506836,0.94
287,MetaDrive-Tut-10Env-v0,18,346.63345020491465,289190,1326,15641.561523675919,47.98823165893555,,19.463268280029297,0.94
288,MetaDrive-Tut-10Env-v0,18,346.2879550539051,290126,1328,15693.51014637947,49.756370544433594,,11.845104217529297,0.94
289,MetaDrive-Tut-10Env-v0,18,345.7860628541345,291097,1330,15747.013961553574,46.97516632080078,-47.7650146484375,24.001575469970703,0.94
290,MetaDrive-Tut-10Env-v0,18,347.8960437903529,292098,1331,15802.228640556335,47.267208099365234,,9.219243049621582,0.93
291,MetaDrive-Tut-10Env-v0,18,347.4587884200334,293368,1333,15873.246897697449,48.24296569824219,,9.652522087097168,0.93
292,MetaDrive-Tut-10Env-v0,18,346.6080077930084,294057,1335,15912.187530040741,50.171905517578125,-50.829341888427734,10.781951904296875,0.93
293,MetaDrive-Tut-10Env-v0,18,345.3158237184016,295122,1337,15971.029113054276,48.94322204589844,,8.657718658447266,0.93
294,MetaDrive-Tut-10Env-v0,18,344.0847896635456,296009,1339,16020.451312541962,47.47296905517578,-47.48123550415039,17.878557205200195,0.93
295,MetaDrive-Tut-10Env-v0,18,342.069901478506,297156,1342,16084.898469686508,48.57147979736328,,13.235556602478027,0.93
296,MetaDrive-Tut-10Env-v0,18,345.0048115544082,298207,1344,16144.594379663467,48.41107940673828,-48.81770324707031,9.895191192626953,0.93
297,MetaDrive-Tut-10Env-v0,18,346.5449348719441,299114,1346,16194.672319173813,49.651641845703125,,9.677139282226562,0.93
298,MetaDrive-Tut-10Env-v0,18,341.847395348447,300296,1349,16260.931127548218,46.45942687988281,,16.025928497314453,0.93
299,MetaDrive-Tut-10Env-v0,18,341.7343528060135,301054,1350,16303.528312683105,48.44560241699219,,30.97026824951172,0.93
300,MetaDrive-Tut-10Env-v0,18,341.59844871110573,302388,1353,16378.421772480011,48.77238464355469,,10.801797866821289,0.94
301,MetaDrive-Tut-10Env-v0,18,341.59718857189904,303146,1355,16420.73283982277,49.35387420654297,,10.443862915039062,0.94
302,MetaDrive-Tut-10Env-v0,18,337.1343280132528,304230,1358,16481.739906549454,47.51781463623047,,10.890007019042969,0.93
303,MetaDrive-Tut-10Env-v0,18,338.48302624163557,305072,1360,16528.564615488052,47.636165618896484,,8.536409378051758,0.93
304,MetaDrive-Tut-10Env-v0,18,337.0425018123275,306264,1363,16594.88624739647,47.95087432861328,,10.008424758911133,0.93
305,MetaDrive-Tut-10Env-v0,18,337.56114806564835,307041,1365,16638.15290594101,46.38454055786133,-45.70830535888672,34.19891357421875,0.92
306,MetaDrive-Tut-10Env-v0,18,334.26102133503815,308083,1368,16696.023830890656,45.69792175292969,-46.66027069091797,7.622050762176514,0.92
307,MetaDrive-Tut-10Env-v0,18,331.71596151578785,309137,1371,16755.23361802101,47.542686462402344,-47.832584381103516,9.22725772857666,0.93
308,MetaDrive-Tut-10Env-v0,18,329.58669341507596,310414,1374,16826.335893154144,46.383384704589844,,27.619258880615234,0.93
309,MetaDrive-Tut-10Env-v0,18,329.92356107056185,311140,1376,16867.12045454979,47.08563995361328,,25.940673828125,0.93
310,MetaDrive-Tut-10Env-v0,18,330.6062986533123,312213,1378,16927.58346438408,46.55699920654297,-47.83568572998047,8.877099990844727,0.93
311,MetaDrive-Tut-10Env-v0,18,329.7121192303813,313283,1381,16987.42697453499,45.936710357666016,-46.32159423828125,11.176321029663086,0.92
312,MetaDrive-Tut-10Env-v0,18,324.6782340410721,314321,1384,17045.20146870613,45.14138412475586,-45.33818054199219,8.801504135131836,0.92
313,MetaDrive-Tut-10Env-v0,18,321.71898926973626,315063,1386,17086.219820976257,49.1607666015625,-50.06597137451172,11.243696212768555,0.92
314,MetaDrive-Tut-10Env-v0,18,321.68233922009847,316349,1389,17158.198120594025,45.59437561035156,-46.46223068237305,8.351519584655762,0.92
315,MetaDrive-Tut-10Env-v0,18,319.8145924355273,317048,1391,17197.413626909256,45.79859924316406,,9.680710792541504,0.92
316,MetaDrive-Tut-10Env-v0,18,318.73177973267246,318250,1394,17264.98482608795,48.74005889892578,,9.485251426696777,0.92
317,MetaDrive-Tut-10Env-v0,18,318.38792440187166,319086,1396,17311.71307992935,48.398345947265625,,10.689596176147461,0.92
318,MetaDrive-Tut-10Env-v0,18,319.087470533961,320096,1398,17368.531001329422,45.84681701660156,,9.532301902770996,0.92
319,MetaDrive-Tut-10Env-v0,18,321.55034846814885,321534,1401,17449.64270925522,47.86778259277344,,7.034729957580566,0.93
320,MetaDrive-Tut-10Env-v0,18,323.81934238501634,322381,1403,17497.344951868057,47.281593322753906,-48.28471374511719,6.819276809692383,0.93
321,MetaDrive-Tut-10Env-v0,18,322.26683821264544,323087,1405,17536.6410279274,47.813026428222656,-48.404937744140625,17.28536605834961,0.93
322,MetaDrive-Tut-10Env-v0,18,323.385259620154,324439,1408,17612.27831721306,44.6939697265625,-45.168155670166016,25.979978561401367,0.93
323,MetaDrive-Tut-10Env-v0,18,322.72419703093124,325247,1410,17657.43604540825,46.717201232910156,-47.312110900878906,10.917643547058105,0.93
324,MetaDrive-Tut-10Env-v0,18,324.4893368878259,326218,1412,17711.442129850388,45.42528533935547,,8.823471069335938,0.94
325,MetaDrive-Tut-10Env-v0,18,325.0543094701616,327076,1414,17759.621749162674,46.66680908203125,,14.308595657348633,0.94
326,MetaDrive-Tut-10Env-v0,18,326.8697960933933,328371,1417,17832.309009075165,46.28306198120117,-46.67277526855469,8.27284049987793,0.94
327,MetaDrive-Tut-10Env-v0,18,331.154510769113,329580,1419,17900.32094168663,46.78587341308594,,6.140071392059326,0.94
328,MetaDrive-Tut-10Env-v0,18,331.01312664622435,330227,1421,17936.59370112419,45.6852912902832,-46.29487609863281,12.994115829467773,0.94
329,MetaDrive-Tut-10Env-v0,18,329.86445293092015,331541,1424,18010.5901324749,46.20700454711914,-46.428863525390625,35.32263946533203,0.94
330,MetaDrive-Tut-10Env-v0,18,334.11942540923997,332137,1425,18044.133903741837,48.5950927734375,-50.012184143066406,11.9092378616333,0.95
331,MetaDrive-Tut-10Env-v0,18,335.61586472779055,333522,1428,18121.965957403183,46.820640563964844,,11.15794563293457,0.95
332,MetaDrive-Tut-10Env-v0,18,336.5219818388261,334002,1429,18149.119151353836,43.806968688964844,,16.58442497253418,0.95
333,MetaDrive-Tut-10Env-v0,18,333.9518433186368,335099,1432,18210.144160747528,45.624698638916016,-46.38397979736328,7.750430107116699,0.96
334,MetaDrive-Tut-10Env-v0,18,332.19564917282753,336310,1435,18277.617311239243,44.68693542480469,,29.47818374633789,0.97
335,MetaDrive-Tut-10Env-v0,18,332.3673829465414,337129,1437,18323.495287179947,49.31003952026367,-50.158172607421875,16.40489959716797,0.97
336,MetaDrive-Tut-10Env-v0,18,334.97354339234886,338205,1439,18384.449725151062,45.82478332519531,-46.615577697753906,31.230567932128906,0.97
337,MetaDrive-Tut-10Env-v0,18,337.44660542141105,339086,1441,18434.09074139595,45.96699905395508,,8.373011589050293,0.97
338,MetaDrive-Tut-10Env-v0,18,335.91800911110704,340029,1443,18486.517733335495,48.747032165527344,-48.99174880981445,8.328715324401855,0.97
339,MetaDrive-Tut-10Env-v0,18,334.67771272603926,341220,1446,18553.22711634636,45.916473388671875,,13.009628295898438,0.97
340,MetaDrive-Tut-10Env-v0,18,338.1300952347426,342370,1448,18618.64087343216,46.34648132324219,,7.2308349609375,0.97
341,MetaDrive-Tut-10Env-v0,18,339.5141819779726,343238,1450,18667.783264398575,46.65296173095703,,7.053218364715576,0.97
342,MetaDrive-Tut-10Env-v0,18,340.5252436254192,344182,1452,18720.311967372894,46.576629638671875,,9.366868019104004,0.97
343,MetaDrive-Tut-10Env-v0,18,342.38580943819323,345181,1454,18777.153216600418,48.297332763671875,-48.47576141357422,6.403481483459473,0.97
344,MetaDrive-Tut-10Env-v0,18,345.16772981406854,346444,1457,18847.83344244957,43.799285888671875,,8.64306640625,0.98
345,MetaDrive-Tut-10Env-v0,18,346.34469356689726,347369,1459,18899.845648765564,46.097625732421875,-47.01171875,8.446676254272461,0.98
346,MetaDrive-Tut-10Env-v0,18,345.8011291623576,348133,1461,18942.429095506668,46.78398895263672,-46.985557556152344,9.399059295654297,0.98
347,MetaDrive-Tut-10Env-v0,18,343.17142163595076,349189,1464,19000.974108457565,45.74806594848633,-46.361366271972656,16.207468032836914,0.98
348,MetaDrive-Tut-10Env-v0,18,345.7517602062464,350330,1467,19065.10234951973,46.20600128173828,,7.344988822937012,0.99
349,MetaDrive-Tut-10Env-v0,18,347.112854909567,351133,1469,19110.435217618942,46.33039855957031,-46.73439025878906,14.719587326049805,0.98
350,MetaDrive-Tut-10Env-v0,18,348.19865537295124,352001,1471,19159.116614580154,41.91377258300781,-42.236976623535156,10.097309112548828,0.98
351,MetaDrive-Tut-10Env-v0,18,350.254811153282,353083,1473,19219.651303768158,45.39755630493164,-45.93109130859375,7.468394756317139,0.98
352,MetaDrive-Tut-10Env-v0,18,350.94358860947256,354198,1476,19281.606068372726,47.14236831665039,,9.119552612304688,0.98
353,MetaDrive-Tut-10Env-v0,18,349.99838081572483,355058,1478,19330.309866428375,46.88201904296875,,5.14284610748291,0.98
354,MetaDrive-Tut-10Env-v0,18,351.79014240300427,356333,1481,19401.97960972786,44.88913345336914,-44.93132019042969,13.312837600708008,0.99
355,MetaDrive-Tut-10Env-v0,18,351.7298877666584,357359,1484,19458.779045581818,44.72782897949219,-45.382041931152344,9.30838394165039,0.99
356,MetaDrive-Tut-10Env-v0,18,352.3352501959986,358124,1486,19501.161859989166,48.118995666503906,,6.693563461303711,0.99
357,MetaDrive-Tut-10Env-v0,18,353.693299472762,359005,1488,19550.972576141357,46.78743362426758,-46.65644073486328,10.168197631835938,0.99
358,MetaDrive-Tut-10Env-v0,18,354.16391534826806,360231,1491,19619.30284190178,44.30129623413086,-44.58057403564453,8.724806785583496,0.99
359,MetaDrive-Tut-10Env-v0,18,353.8702248212553,361382,1494,19683.026607990265,44.96195602416992,,23.47783660888672,0.99
360,MetaDrive-Tut-10Env-v0,18,354.5859729747182,362378,1496,19739.064791202545,47.5556755065918,,20.901321411132812,0.99
361,MetaDrive-Tut-10Env-v0,18,353.8871115573228,363231,1498,19786.487374544144,48.53879928588867,-49.64634704589844,10.856499671936035,0.99
362,MetaDrive-Tut-10Env-v0,18,355.12076724443983,364105,1500,19835.514243125916,45.43609619140625,-45.383934020996094,13.166886329650879,0.99
363,MetaDrive-Tut-10Env-v0,18,355.68667942828773,365013,1502,19887.035393238068,47.12217330932617,-47.94464874267578,8.035622596740723,0.99
364,MetaDrive-Tut-10Env-v0,18,354.3507288139797,366215,1505,19953.862988948822,43.226104736328125,-44.27976989746094,12.011499404907227,0.99
365,MetaDrive-Tut-10Env-v0,18,355.84199425780935,367062,1507,20001.135550498962,47.27513885498047,,6.0833258628845215,0.99
366,MetaDrive-Tut-10Env-v0,18,352.87338530499704,368153,1510,20061.88582277298,45.74798583984375,-46.35722351074219,22.721397399902344,0.99
367,MetaDrive-Tut-10Env-v0,18,351.29208542808715,369464,1513,20134.78036570549,46.38059997558594,,16.473262786865234,0.99
368,MetaDrive-Tut-10Env-v0,18,350.3285617920306,370410,1515,20187.91594862938,46.36088562011719,,7.5311102867126465,0.99
369,MetaDrive-Tut-10Env-v0,18,349.4099877900332,371136,1517,20228.512208223343,46.5664176940918,,13.573238372802734,0.99
370,MetaDrive-Tut-10Env-v0,18,345.58236272125595,372223,1520,20289.21763777733,47.795616149902344,-48.251956939697266,6.101740837097168,0.99
371,MetaDrive-Tut-10Env-v0,18,347.0482087755811,373069,1522,20336.32798933983,47.632362365722656,-47.81561279296875,7.034741401672363,0.99
372,MetaDrive-Tut-10Env-v0,18,346.02852531228933,374426,1525,20412.916293382645,46.54814910888672,,6.819962501525879,0.99
373,MetaDrive-Tut-10Env-v0,18,346.54883630465986,375365,1527,20465.61965227127,46.20946502685547,-46.15944290161133,8.49906063079834,0.99
374,MetaDrive-Tut-10Env-v0,18,345.6223513139563,376352,1529,20521.178503751755,47.24794006347656,,12.965902328491211,0.99
375,MetaDrive-Tut-10Env-v0,18,346.5689591783924,377209,1531,20568.587492465973,44.15607452392578,-44.401214599609375,8.542533874511719,0.99
376,MetaDrive-Tut-10Env-v0,18,345.86891516886385,378301,1534,20629.157485723495,46.60763931274414,-46.46228790283203,9.439767837524414,0.99
377,MetaDrive-Tut-10Env-v0,18,345.8822999552821,379121,1536,20675.061465263367,46.016605377197266,-46.603172302246094,11.104984283447266,0.99
378,MetaDrive-Tut-10Env-v0,18,344.71028695208383,380275,1539,20740.029002904892,45.72227096557617,-46.05607604980469,11.803482055664062,0.99
379,MetaDrive-Tut-10Env-v0,18,341.17472977834353,381306,1542,20796.961549520493,48.01043701171875,,9.421533584594727,0.99
380,MetaDrive-Tut-10Env-v0,18,340.8550742515828,382366,1545,20856.845328330994,48.78173065185547,,20.654314041137695,0.98
381,MetaDrive-Tut-10Env-v0,18,341.24413190684174,383491,1547,20919.930111646652,42.85776901245117,-43.658912658691406,10.86685562133789,0.98
382,MetaDrive-Tut-10Env-v0,18,341.6795067546462,384495,1549,20975.80460333824,45.21791076660156,-45.44656753540039,8.77241325378418,0.98
383,MetaDrive-Tut-10Env-v0,18,338.94985240173156,385300,1551,21020.5380089283,45.125083923339844,,7.827185153961182,0.98
384,MetaDrive-Tut-10Env-v0,18,335.7998108810652,386026,1553,21060.789890050888,46.533607482910156,,12.692758560180664,0.98
385,MetaDrive-Tut-10Env-v0,18,334.3520428365207,387154,1556,21123.80401158333,44.185672760009766,,8.499917984008789,0.98
386,MetaDrive-Tut-10Env-v0,18,332.87581987263985,388306,1559,21188.74460864067,44.41648864746094,,7.976717948913574,0.97
387,MetaDrive-Tut-10Env-v0,18,334.3424304252144,389332,1561,21245.996933460236,50.19074630737305,,5.450783729553223,0.97
388,MetaDrive-Tut-10Env-v0,18,334.37842902182143,390066,1563,21286.80692911148,47.38698196411133,,6.103212833404541,0.97
389,MetaDrive-Tut-10Env-v0,18,337.4403920909557,391166,1565,21348.527181625366,46.28788757324219,,7.540412902832031,0.97
390,MetaDrive-Tut-10Env-v0,18,337.7229857628507,392020,1567,21396.0717587471,45.68981170654297,,8.42080307006836,0.97
391,MetaDrive-Tut-10Env-v0,18,338.35382042906684,393510,1570,21479.50358390808,47.61247253417969,,6.794928550720215,0.98
392,MetaDrive-Tut-10Env-v0,18,338.42608641365933,394341,1572,21526.100056171417,49.43334197998047,-49.622093200683594,31.156864166259766,0.97
393,MetaDrive-Tut-10Env-v0,18,339.4403007415393,395436,1574,21587.29862523079,45.73822021484375,,14.558753967285156,0.97
394,MetaDrive-Tut-10Env-v0,18,337.31941142697383,396575,1577,21651.182077884674,46.80889892578125,-46.972999572753906,8.572842597961426,0.96
395,MetaDrive-Tut-10Env-v0,18,338.3437844454763,397029,1578,21676.580593585968,47.4285888671875,-46.94267654418945,13.297098159790039,0.96
396,MetaDrive-Tut-10Env-v0,18,338.2103865907909,398414,1581,21754.09672641754,47.587154388427734,,8.13960075378418,0.96
397,MetaDrive-Tut-10Env-v0,18,339.09529204371194,399229,1583,21799.428735494614,46.004791259765625,-46.21155548095703,8.357011795043945,0.96
398,MetaDrive-Tut-10Env-v0,18,341.4821417993078,400097,1585,21848.13672876358,44.839111328125,-44.89818572998047,9.824006080627441,0.96
399,MetaDrive-Tut-10Env-v0,18,341.7647465142767,401210,1587,21910.719509124756,44.16313171386719,,24.82304573059082,0.96
400,MetaDrive-Tut-10Env-v0,18,344.3482758202491,402223,1589,21967.132611513138,46.35023498535156,-47.03466796875,24.532533645629883,0.96
401,MetaDrive-Tut-10Env-v0,18,343.6545141752984,403236,1592,22023.44717335701,45.75079345703125,,22.556686401367188,0.96
402,MetaDrive-Tut-10Env-v0,18,344.81547443026614,404115,1594,22073.104125261307,48.149600982666016,-48.037254333496094,13.475860595703125,0.96
403,MetaDrive-Tut-10Env-v0,18,343.7289866639744,405403,1597,22144.86104989052,47.45128631591797,-47.793060302734375,6.067243576049805,0.96
404,MetaDrive-Tut-10Env-v0,18,342.2869364331005,406442,1600,22203.281533002853,44.73200988769531,,17.5186767578125,0.95
405,MetaDrive-Tut-10Env-v0,18,340.5256550926726,407358,1602,22254.515031337738,45.671287536621094,,13.529348373413086,0.95
406,MetaDrive-Tut-10Env-v0,18,342.6757099601502,408426,1604,22314.941841840744,47.634117126464844,,8.465787887573242,0.95
407,MetaDrive-Tut-10Env-v0,18,342.53246040271273,409289,1606,22363.156422376633,47.6231803894043,-48.4401969909668,8.845470428466797,0.95
408,MetaDrive-Tut-10Env-v0,18,344.15696627781966,410294,1608,22419.880549430847,45.42557144165039,,8.905630111694336,0.95
409,MetaDrive-Tut-10Env-v0,18,345.1304252748695,411164,1610,22468.381973028183,45.42570495605469,,12.987719535827637,0.95
410,MetaDrive-Tut-10Env-v0,18,346.0207709308224,412020,1612,22516.19332385063,47.50852966308594,,20.60508155822754,0.95
411,MetaDrive-Tut-10Env-v0,18,343.7157555853413,413296,1616,22588.144256591797,46.18532943725586,,25.197044372558594,0.93
412,MetaDrive-Tut-10Env-v0,18,343.3728744587624,414359,1619,22647.385375976562,43.496849060058594,-44.020286560058594,14.299352645874023,0.93
413,MetaDrive-Tut-10Env-v0,18,344.42941633189105,415192,1621,22693.660935640335,46.05023193359375,,5.48720121383667,0.93
414,MetaDrive-Tut-10Env-v0,18,344.1319992986963,416017,1623,22740.13123512268,45.23848342895508,-45.759342193603516,6.815553188323975,0.93
415,MetaDrive-Tut-10Env-v0,18,338.29054013096794,417329,1627,22813.162568330765,45.176307678222656,-45.922603607177734,16.5703067779541,0.93
416,MetaDrive-Tut-10Env-v0,18,337.0979645374983,418233,1629,22863.488271951675,47.08069610595703,-46.695281982421875,5.735828399658203,0.93
417,MetaDrive-Tut-10Env-v0,18,337.28895421199087,419326,1632,22924.952164649963,48.58428955078125,,17.045988082885742,0.92
418,MetaDrive-Tut-10Env-v0,18,337.0587940999275,420323,1635,22980.64081263542,46.96458435058594,-47.67721939086914,17.952455520629883,0.91
419,MetaDrive-Tut-10Env-v0,18,336.77015511250073,421183,1637,23028.948922395706,47.63742446899414,-47.28165054321289,4.770143032073975,0.91
420,MetaDrive-Tut-10Env-v0,18,336.39321090888365,422159,1639,23083.589329004288,47.010406494140625,-46.620208740234375,11.104813575744629,0.91
421,MetaDrive-Tut-10Env-v0,18,339.54361100355095,423182,1641,23141.4560174942,46.7830924987793,,18.230098724365234,0.91
422,MetaDrive-Tut-10Env-v0,18,342.6245735731573,424313,1643,23204.68432879448,45.78345489501953,-45.438663482666016,12.240386009216309,0.91
423,MetaDrive-Tut-10Env-v0,18,341.97277682453785,425043,1645,23245.011474609375,46.84479904174805,-47.4666862487793,7.616131782531738,0.92
424,MetaDrive-Tut-10Env-v0,18,338.81719160542247,426138,1648,23306.634444475174,46.11944580078125,,5.969779968261719,0.91
425,MetaDrive-Tut-10Env-v0,18,338.08782618371697,427304,1651,23372.28468132019,45.36123275756836,,14.458379745483398,0.9
426,MetaDrive-Tut-10Env-v0,18,338.9365657416694,428127,1653,23418.114652633667,47.85939407348633,-47.54242706298828,5.9699506759643555,0.9
427,MetaDrive-Tut-10Env-v0,18,338.5721271952054,429080,1656,23471.73935008049,46.137542724609375,,28.15845489501953,0.89
428,MetaDrive-Tut-10Env-v0,18,339.09329510023804,430480,1659,23549.592458724976,49.141685485839844,,6.832536697387695,0.9
429,MetaDrive-Tut-10Env-v0,18,339.09813104680666,431440,1661,23603.19332933426,48.40776062011719,,8.726457595825195,0.9
430,MetaDrive-Tut-10Env-v0,18,339.07355535817,432119,1663,23640.916649103165,47.05058288574219,-47.49359893798828,6.95482063293457,0.9
431,MetaDrive-Tut-10Env-v0,18,337.2684478930751,433396,1666,23712.17925143242,46.83795166015625,,7.726122856140137,0.9
432,MetaDrive-Tut-10Env-v0,18,336.7940295433486,434376,1668,23766.94438648224,52.38572311401367,,9.292543411254883,0.9
433,MetaDrive-Tut-10Env-v0,18,334.32855218533336,435030,1670,23803.329273462296,46.89731979370117,,8.753704071044922,0.9
434,MetaDrive-Tut-10Env-v0,18,332.51177694508465,436203,1673,23868.498742818832,48.201629638671875,-47.94098663330078,9.599592208862305,0.91
435,MetaDrive-Tut-10Env-v0,18,331.11454562149106,437265,1676,23927.855419397354,47.033042907714844,-47.3518180847168,7.763443946838379,0.92
436,MetaDrive-Tut-10Env-v0,18,331.29670385621694,438285,1678,23985.74645924568,47.85608673095703,-49.61012268066406,10.526518821716309,0.92
437,MetaDrive-Tut-10Env-v0,18,330.542614422203,439073,1680,24029.247781038284,47.58388900756836,-47.86095428466797,10.344425201416016,0.92
438,MetaDrive-Tut-10Env-v0,18,329.58439602902916,440217,1683,24093.326908111572,47.68798065185547,-48.569557189941406,8.747465133666992,0.91
439,MetaDrive-Tut-10Env-v0,18,326.0559899710071,441327,1686,24154.96820807457,47.46294403076172,-47.78497314453125,8.974291801452637,0.91
440,MetaDrive-Tut-10Env-v0,18,322.86483205737716,442094,1688,24197.482388734818,45.18278503417969,,7.38099479675293,0.91
441,MetaDrive-Tut-10Env-v0,18,324.54537408313325,443538,1691,24278.532024860382,48.53247833251953,,8.197193145751953,0.91
442,MetaDrive-Tut-10Env-v0,18,325.5790531004902,444412,1693,24327.0177462101,47.42477035522461,,6.868534088134766,0.91
443,MetaDrive-Tut-10Env-v0,18,325.5461969190691,445314,1695,24378.091390371323,47.62415313720703,,7.412200927734375,0.91
444,MetaDrive-Tut-10Env-v0,18,322.87063311704134,446342,1698,24435.50055027008,46.9991455078125,,8.956025123596191,0.9
445,MetaDrive-Tut-10Env-v0,18,322.47929151054257,447181,1700,24482.19189476967,49.316139221191406,-50.060272216796875,7.570112228393555,0.91
446,MetaDrive-Tut-10Env-v0,18,320.11012297923884,448337,1703,24546.48948454857,46.69301986694336,-47.02630615234375,5.801470756530762,0.91
447,MetaDrive-Tut-10Env-v0,18,319.1032516256498,449227,1705,24595.975030183792,47.28998565673828,-48.054420471191406,16.393203735351562,0.91
448,MetaDrive-Tut-10Env-v0,18,320.34167404731977,450048,1707,24642.46837091446,46.329864501953125,,11.035907745361328,0.91
449,MetaDrive-Tut-10Env-v0,18,318.2860335643404,451263,1710,24710.166613578796,45.612274169921875,-45.26470184326172,7.050360679626465,0.9
450,MetaDrive-Tut-10Env-v0,18,316.21229695652306,452206,1713,24762.804349422455,45.969993591308594,,4.504138946533203,0.91
451,MetaDrive-Tut-10Env-v0,18,318.16182054369057,453249,1715,24821.244381904602,48.22758483886719,-48.83229064941406,9.616495132446289,0.92
452,MetaDrive-Tut-10Env-v0,18,318.26410623025777,454339,1718,24882.20887517929,49.41614532470703,-50.15513610839844,8.247840881347656,0.92
453,MetaDrive-Tut-10Env-v0,18,319.552107636451,455224,1720,24932.401268720627,46.51434326171875,,8.699674606323242,0.92
454,MetaDrive-Tut-10Env-v0,18,320.1746408427665,456070,1722,24979.793020009995,48.365631103515625,,7.239625930786133,0.92
455,MetaDrive-Tut-10Env-v0,18,320.691111305212,457256,1725,25045.981113910675,48.198997497558594,,6.195924282073975,0.91
456,MetaDrive-Tut-10Env-v0,18,323.2915825479789,458175,1727,25098.384066820145,47.91032409667969,-48.060943603515625,11.088330268859863,0.91
457,MetaDrive-Tut-10Env-v0,18,322.3809358823017,459033,1729,25145.971660137177,46.66635513305664,-46.68379592895508,8.950304985046387,0.91
458,MetaDrive-Tut-10Env-v0,18,320.50321848151424,460078,1732,25204.367747306824,47.71510314941406,,6.516836166381836,0.91
459,MetaDrive-Tut-10Env-v0,18,324.81891899242896,461588,1735,25289.581592321396,45.49131393432617,,7.012359619140625,0.92
460,MetaDrive-Tut-10Env-v0,18,324.6616281256154,462475,1737,25338.81564474106,48.71217346191406,-48.51205062866211,6.8767242431640625,0.92
461,MetaDrive-Tut-10Env-v0,18,325.0758826642586,463008,1738,25368.51264357567,45.63338088989258,,17.424575805664062,0.92
462,MetaDrive-Tut-10Env-v0,18,323.10621003132985,464339,1741,25443.020404100418,48.967960357666016,-49.80030822753906,7.541757583618164,0.92
463,MetaDrive-Tut-10Env-v0,18,320.701330415056,465278,1743,25494.977440834045,46.459693908691406,,8.880105018615723,0.92
464,MetaDrive-Tut-10Env-v0,18,321.96472348416336,466180,1745,25545.24543094635,48.00275421142578,,15.511406898498535,0.92
465,MetaDrive-Tut-10Env-v0,18,324.05144745765966,467280,1747,25606.768891572952,47.260433197021484,,6.657456398010254,0.93
466,MetaDrive-Tut-10Env-v0,18,321.52768983461874,468314,1749,25664.29704427719,46.62794494628906,,6.770613670349121,0.93
467,MetaDrive-Tut-10Env-v0,18,321.48658331850874,469039,1751,25704.882691144943,48.85435485839844,-49.408138275146484,6.375247955322266,0.93
468,MetaDrive-Tut-10Env-v0,18,322.76206744571556,470443,1754,25783.907589673996,49.236839294433594,-50.71049880981445,5.85264253616333,0.92
469,MetaDrive-Tut-10Env-v0,18,322.63173224233594,471258,1756,25829.289572000504,46.74253463745117,,11.834892272949219,0.93
470,MetaDrive-Tut-10Env-v0,18,318.72537696362576,472105,1759,25876.488870620728,47.21663284301758,-47.696876525878906,10.716033935546875,0.91
471,MetaDrive-Tut-10Env-v0,18,317.44535530086574,473087,1761,25930.95898580551,47.623435974121094,-47.89309310913086,6.996459007263184,0.91
472,MetaDrive-Tut-10Env-v0,18,318.2912240122999,474397,1763,26003.290192365646,48.04271697998047,-48.86891174316406,5.344698905944824,0.91
473,MetaDrive-Tut-10Env-v0,18,317.59556149198016,475523,1765,26065.72603201866,47.5109748840332,-47.91539001464844,7.22708797454834,0.91
474,MetaDrive-Tut-10Env-v0,18,318.8313972094527,476462,1766,26118.19921708107,46.76927185058594,,5.4281721115112305,0.91
475,MetaDrive-Tut-10Env-v0,18,320.16968559209147,477355,1767,26167.228336811066,47.640647888183594,-47.98557662963867,6.152012825012207,0.91
476,MetaDrive-Tut-10Env-v0,18,318.12909391944277,478356,1768,26222.461466789246,47.52283477783203,,4.967911720275879,0.9
477,MetaDrive-Tut-10Env-v0,18,319.6053132832321,479314,1770,26275.58361530304,47.319068908691406,,9.112274169921875,0.9
478,MetaDrive-Tut-10Env-v0,18,324.1427342762503,480526,1772,26344.387548446655,47.91210174560547,,18.05643653869629,0.9
479,MetaDrive-Tut-10Env-v0,18,325.0347344509614,481049,1773,26373.70358157158,47.3675537109375,-47.66577911376953,15.93728256225586,0.9
480,MetaDrive-Tut-10Env-v0,18,326.0265462226182,482399,1776,26448.623346805573,46.62950134277344,-46.84568405151367,7.729142189025879,0.9
481,MetaDrive-Tut-10Env-v0,18,322.7086154180455,483223,1778,26494.16603088379,47.187904357910156,-47.56593322753906,6.547314643859863,0.9
482,MetaDrive-Tut-10Env-v0,18,324.6637926621089,484306,1780,26554.828127861023,46.93324279785156,,9.103971481323242,0.9
483,MetaDrive-Tut-10Env-v0,18,324.08775534101756,485441,1783,26618.496058940887,48.632110595703125,-49.430843353271484,7.245327949523926,0.9
484,MetaDrive-Tut-10Env-v0,18,326.18292578721423,486379,1785,26671.82633113861,46.1740837097168,-46.02703857421875,6.809264183044434,0.89
485,MetaDrive-Tut-10Env-v0,18,327.5305309960293,487375,1787,26727.082186698914,48.48362350463867,-48.82683181762695,6.31775426864624,0.89
486,MetaDrive-Tut-10Env-v0,18,327.82907302945097,488440,1789,26786.669019937515,46.4737548828125,,7.641295909881592,0.89
487,MetaDrive-Tut-10Env-v0,18,327.8262837918312,489512,1791,26846.54872083664,46.093780517578125,,5.438985347747803,0.89
488,MetaDrive-Tut-10Env-v0,18,327.00139990688723,490292,1793,26890.060770750046,48.083587646484375,,5.959441661834717,0.89
489,MetaDrive-Tut-10Env-v0,18,324.98784586374285,491115,1795,26935.395931482315,47.6513671875,-48.72254180908203,6.10447883605957,0.89
490,MetaDrive-Tut-10Env-v0,18,328.90760333583324,492392,1797,27006.451854467392,48.69700622558594,,9.589253425598145,0.9
491,MetaDrive-Tut-10Env-v0,18,330.215219750438,493048,1798,27043.355264902115,46.29179763793945,,6.330016136169434,0.9
492,MetaDrive-Tut-10Env-v0,18,329.4868444699043,494272,1801,27111.02074623108,46.46186828613281,,4.973166465759277,0.9
493,MetaDrive-Tut-10Env-v0,18,330.0329487101075,495143,1803,27159.786566257477,48.332611083984375,-48.78886413574219,6.228934288024902,0.9
494,MetaDrive-Tut-10Env-v0,18,330.8794908919588,496161,1805,27216.846626996994,47.378395080566406,-47.51484298706055,4.626859664916992,0.9
495,MetaDrive-Tut-10Env-v0,18,330.87845553908386,497173,1807,27274.009717464447,48.831024169921875,-49.2150764465332,5.405563831329346,0.9
496,MetaDrive-Tut-10Env-v0,18,332.08075593303323,498558,1810,27351.446675300598,45.09621047973633,,18.16884994506836,0.9
497,MetaDrive-Tut-10Env-v0,18,332.2896227063277,499038,1811,27375.817277908325,46.4978141784668,,7.6284003257751465,0.9
