yqg36/assignment-2022fall/assignment3/MetaDrive-Tut-100Env-v0/td3/progress.csv
,log_dir,frame_per_second,episode_reward,total_steps,total_episodes,total_time,target_q,actor_loss,critic_loss,success_rate
0,MetaDrive-Tut-100Env-v0,624,4.593543231323781,1590,2,2.5440847873687744,,,,0.0
1,MetaDrive-Tut-100Env-v0,618,6.093383399858112,2591,3,4.191704511642456,,,,0.0
2,MetaDrive-Tut-100Env-v0,601,7.164034319468714,3592,4,5.969501972198486,,,,0.0
3,MetaDrive-Tut-100Env-v0,608,6.7258047830166,4969,6,8.16565489768982,,,,0.0
4,MetaDrive-Tut-100Env-v0,583,7.483220497278522,5970,7,10.226293563842773,,,,0.0
5,MetaDrive-Tut-100Env-v0,585,8.19100943680332,6971,8,11.907023906707764,,,,0.0
6,MetaDrive-Tut-100Env-v0,582,8.251590329579967,7972,9,13.674365997314453,,,,0.0
7,MetaDrive-Tut-100Env-v0,596,8.54862889344783,8973,10,15.036825180053711,,,,0.0
8,MetaDrive-Tut-100Env-v0,599,8.755422847165029,9974,11,16.634934425354004,,,,0.0
9,MetaDrive-Tut-100Env-v0,487,8.327957016526982,10064,12,20.637831926345825,0.01230342872440815,,0.0013046222738921642,0.0
10,MetaDrive-Tut-100Env-v0,146,4.225037786529482,11022,42,74.9876925945282,0.07813434302806854,,0.01769673451781273,0.0
11,MetaDrive-Tut-100Env-v0,88,4.70067079728776,12040,72,136.58983945846558,0.18385261297225952,,0.26568734645843506,0.0
12,MetaDrive-Tut-100Env-v0,67,7.270596189773836,13006,94,191.6960711479187,0.4024960994720459,,0.31803274154663086,0.0
13,MetaDrive-Tut-100Env-v0,56,9.794014398563082,14017,116,250.20137429237366,0.7228859663009644,-0.9013448357582092,0.6235770583152771,0.0
14,MetaDrive-Tut-100Env-v0,48,13.765982475189299,15002,135,306.64427876472473,1.047809362411499,,1.1585242748260498,0.0
15,MetaDrive-Tut-100Env-v0,43,16.9468424137333,16046,156,366.8820059299469,1.5799527168273926,,0.7321441173553467,0.0
16,MetaDrive-Tut-100Env-v0,40,19.934744191156746,17010,175,421.84375262260437,2.0345733165740967,,0.9086196422576904,0.0
17,MetaDrive-Tut-100Env-v0,37,21.47481638844022,18048,194,481.40995812416077,2.5107030868530273,,2.111802577972412,0.0
18,MetaDrive-Tut-100Env-v0,35,24.239537065601606,19067,210,539.364602804184,3.230191230773926,-3.4941697120666504,2.2880094051361084,0.0
19,MetaDrive-Tut-100Env-v0,33,29.36200815274815,20026,222,593.4103534221649,4.121816635131836,,1.4368512630462646,0.0
20,MetaDrive-Tut-100Env-v0,32,33.48960101252114,21077,236,653.3054902553558,4.905426025390625,-5.103813171386719,2.825786590576172,0.0
21,MetaDrive-Tut-100Env-v0,31,38.73006750988253,22048,247,707.8850483894348,5.805581569671631,,7.122807502746582,0.0
22,MetaDrive-Tut-100Env-v0,30,45.82837593533028,23004,257,762.3236727714539,6.167834281921387,,9.910996437072754,0.0
23,MetaDrive-Tut-100Env-v0,29,53.87270140978499,24016,266,818.6182174682617,7.463571071624756,,2.8002495765686035,0.0
24,MetaDrive-Tut-100Env-v0,28,62.78246009609516,25127,277,880.869781255722,8.506744384765625,-9.118600845336914,4.868292331695557,0.0
25,MetaDrive-Tut-100Env-v0,27,70.92325074717667,26035,285,931.6738712787628,9.791542053222656,-9.895610809326172,4.135473251342773,0.0
26,MetaDrive-Tut-100Env-v0,27,76.60771800501793,27007,295,985.8303005695343,10.916802406311035,-11.012198448181152,1.1232644319534302,0.0
27,MetaDrive-Tut-100Env-v0,26,81.03236680691425,28048,307,1044.5089802742004,10.783132553100586,,5.909424781799316,0.0
28,MetaDrive-Tut-100Env-v0,26,85.06828832625503,29028,317,1098.7454245090485,12.740188598632812,,6.166711807250977,0.0
29,MetaDrive-Tut-100Env-v0,25,87.00538225625262,30037,328,1155.5995349884033,13.010037422180176,-13.626157760620117,15.721826553344727,0.0
30,MetaDrive-Tut-100Env-v0,25,89.8203113897917,31066,339,1213.4715783596039,14.619426727294922,,6.423809051513672,0.0
31,MetaDrive-Tut-100Env-v0,25,90.73569814719576,32061,350,1269.2512912750244,16.390405654907227,-16.910892486572266,6.917768478393555,0.0
32,MetaDrive-Tut-100Env-v0,24,90.41089166065495,33021,360,1322.7983911037445,17.262052536010742,-17.88226890563965,6.33565616607666,0.0
33,MetaDrive-Tut-100Env-v0,24,90.31455866761866,34059,370,1381.0113050937653,18.12966537475586,-18.32257080078125,9.005657196044922,0.0
34,MetaDrive-Tut-100Env-v0,24,86.55862724404565,35046,381,1437.2974305152893,19.455841064453125,,6.348608493804932,0.0
35,MetaDrive-Tut-100Env-v0,24,86.91114665975635,36305,391,1509.2045233249664,20.623746871948242,-21.390670776367188,8.25828742980957,0.01
36,MetaDrive-Tut-100Env-v0,23,93.64148260507714,37404,394,1571.7338545322418,19.959091186523438,,8.817365646362305,0.03
37,MetaDrive-Tut-100Env-v0,23,95.36947341662568,38110,397,1612.3440461158752,20.802749633789062,,13.271136283874512,0.04
38,MetaDrive-Tut-100Env-v0,23,102.07751162348475,39240,400,1676.3560585975647,22.14521026611328,,13.844204902648926,0.06
39,MetaDrive-Tut-100Env-v0,23,103.5378249143929,40131,406,1727.699266910553,23.768810272216797,-24.07657241821289,10.719497680664062,0.06
40,MetaDrive-Tut-100Env-v0,23,109.28391643255328,41219,410,1790.310797214508,22.09450340270996,-22.160049438476562,3.5854897499084473,0.07
41,MetaDrive-Tut-100Env-v0,22,115.985688898364,42268,413,1850.2399671077728,25.58293342590332,,4.239394187927246,0.1
42,MetaDrive-Tut-100Env-v0,22,121.05797340682868,43286,417,1907.7252190113068,25.48886489868164,,9.192178726196289,0.12
43,MetaDrive-Tut-100Env-v0,22,125.9879202628761,44183,419,1959.630943775177,25.670520782470703,-26.46329116821289,25.858657836914062,0.13
44,MetaDrive-Tut-100Env-v0,22,133.17224278596348,45152,422,2014.294219493866,27.22549819946289,,17.818410873413086,0.16
45,MetaDrive-Tut-100Env-v0,22,137.885568933163,46085,425,2067.932945728302,26.761579513549805,-27.189800262451172,11.406614303588867,0.17
46,MetaDrive-Tut-100Env-v0,22,143.3950232551599,47071,428,2123.157510995865,27.829471588134766,-27.871286392211914,23.083698272705078,0.19
47,MetaDrive-Tut-100Env-v0,22,148.8955655045907,48141,434,2182.526424407959,27.988189697265625,-28.952255249023438,5.323431968688965,0.19
48,MetaDrive-Tut-100Env-v0,21,154.20998067946005,49109,438,2237.0278284549713,28.751262664794922,-29.270366668701172,27.78257942199707,0.2
49,MetaDrive-Tut-100Env-v0,21,159.2534427879312,50090,443,2292.270501613617,29.745845794677734,,12.782008171081543,0.21
50,MetaDrive-Tut-100Env-v0,21,166.05766900777996,51136,445,2350.7707114219666,30.444387435913086,,25.76781463623047,0.23
51,MetaDrive-Tut-100Env-v0,21,169.1393656395213,52038,449,2401.768133878708,31.918052673339844,,13.241475105285645,0.23
52,MetaDrive-Tut-100Env-v0,21,175.10014582558327,53304,454,2473.09810590744,31.64959716796875,,18.515953063964844,0.24
53,MetaDrive-Tut-100Env-v0,21,177.94321044876332,54082,457,2516.5319073200226,33.73440170288086,,5.073421478271484,0.25
54,MetaDrive-Tut-100Env-v0,21,183.229581963871,55202,461,2579.2413749694824,34.951026916503906,,14.108556747436523,0.27
55,MetaDrive-Tut-100Env-v0,21,187.13327004868086,56467,467,2650.448830127716,34.344337463378906,-34.97151565551758,5.763609886169434,0.29
56,MetaDrive-Tut-100Env-v0,21,191.1363450840595,57339,470,2699.617438554764,37.54713821411133,-37.47661590576172,10.046263694763184,0.3
57,MetaDrive-Tut-100Env-v0,21,195.80597564043754,58032,472,2738.3461575508118,36.19416427612305,,17.052162170410156,0.31
58,MetaDrive-Tut-100Env-v0,21,203.3857895211417,59446,477,2817.22266292572,37.26947784423828,,31.812437057495117,0.33
59,MetaDrive-Tut-100Env-v0,21,207.75533616396916,60131,479,2855.562021255493,36.790199279785156,-36.916229248046875,8.079509735107422,0.35
60,MetaDrive-Tut-100Env-v0,20,216.33170302032835,61414,483,2928.097533226013,37.62192916870117,,15.267293930053711,0.37
61,MetaDrive-Tut-100Env-v0,20,221.94253964673808,62302,485,2978.5045957565308,37.15949249267578,,37.490264892578125,0.38
62,MetaDrive-Tut-100Env-v0,20,223.7133181718993,63392,491,3039.8033673763275,37.712059020996094,,24.034969329833984,0.38
63,MetaDrive-Tut-100Env-v0,20,225.71299866512172,64330,493,3092.2735159397125,40.279319763183594,,16.347747802734375,0.39
64,MetaDrive-Tut-100Env-v0,20,227.03999451594183,65069,496,3133.6071348190308,39.79628372192383,-40.32157897949219,8.744359016418457,0.39
65,MetaDrive-Tut-100Env-v0,20,224.33618074827237,66313,500,3203.220502614975,40.54779052734375,-41.58820724487305,7.096449375152588,0.38
66,MetaDrive-Tut-100Env-v0,20,227.56578877145733,67162,503,3249.667356967926,41.16796112060547,,48.40829086303711,0.4
67,MetaDrive-Tut-100Env-v0,20,232.37380220679114,68107,506,3302.759927034378,43.12183380126953,-44.005157470703125,18.103248596191406,0.41
68,MetaDrive-Tut-100Env-v0,20,235.15503083875086,69118,509,3359.211213827133,41.73896026611328,,15.756535530090332,0.43
69,MetaDrive-Tut-100Env-v0,20,231.41594371088556,70391,514,3430.2084906101227,41.777870178222656,-42.321144104003906,10.033258438110352,0.41
70,MetaDrive-Tut-100Env-v0,20,234.76549976781888,71245,516,3478.038994073868,43.486412048339844,-43.83949661254883,22.262359619140625,0.42
71,MetaDrive-Tut-100Env-v0,20,232.5101114093134,72391,520,3542.466882944107,43.85401153564453,-44.375282287597656,31.89394760131836,0.4
72,MetaDrive-Tut-100Env-v0,20,232.18190447606864,73372,523,3597.8302183151245,42.279335021972656,,9.026660919189453,0.39
73,MetaDrive-Tut-100Env-v0,20,232.27153007402845,74023,525,3633.8337383270264,43.56269073486328,-44.09559631347656,32.68700408935547,0.4
74,MetaDrive-Tut-100Env-v0,20,235.3163306143033,75304,529,3705.323233604431,45.832427978515625,,13.327286720275879,0.41
75,MetaDrive-Tut-100Env-v0,20,237.51601437049413,76201,531,3755.5672409534454,43.4846076965332,-43.90959930419922,8.322105407714844,0.43
76,MetaDrive-Tut-100Env-v0,20,241.47759028937057,77262,533,3815.4669868946075,44.084293365478516,,26.080673217773438,0.44
77,MetaDrive-Tut-100Env-v0,20,239.647986375688,78321,538,3874.2516469955444,43.534610748291016,-44.620121002197266,17.087932586669922,0.45
78,MetaDrive-Tut-100Env-v0,20,241.10693713968186,79301,541,3928.9923193454742,44.887779235839844,-44.54871368408203,25.38439178466797,0.46
79,MetaDrive-Tut-100Env-v0,20,246.46153819642197,80043,543,3970.1543192863464,44.838134765625,-45.768062591552734,8.452184677124023,0.47
80,MetaDrive-Tut-100Env-v0,20,246.80953346334266,81155,546,4033.3243367671967,44.19249725341797,-45.05543518066406,19.066516876220703,0.46
81,MetaDrive-Tut-100Env-v0,20,250.01693431335076,82401,549,4102.628217697144,44.82567596435547,-45.63288116455078,27.178653717041016,0.49
82,MetaDrive-Tut-100Env-v0,20,254.47627603847926,83293,551,4152.9523940086365,45.101539611816406,-45.140846252441406,9.157903671264648,0.5
83,MetaDrive-Tut-100Env-v0,20,260.4189972024817,84535,553,4223.359105348587,45.82319641113281,-46.43555450439453,15.470071792602539,0.52
84,MetaDrive-Tut-100Env-v0,19,257.23958881785484,85115,556,4256.048596858978,47.107521057128906,-48.2219123840332,14.736652374267578,0.51
85,MetaDrive-Tut-100Env-v0,19,259.6632273899955,86259,559,4320.549063920975,43.96579360961914,-45.1114616394043,45.81700897216797,0.51
86,MetaDrive-Tut-100Env-v0,19,264.7155686371814,87380,562,4383.324910163879,47.77376174926758,,8.643538475036621,0.53
87,MetaDrive-Tut-100Env-v0,19,269.0801364957466,88233,564,4431.097750663757,45.989105224609375,-46.912071228027344,12.016622543334961,0.55
88,MetaDrive-Tut-100Env-v0,19,272.60123728998923,89114,566,4480.442332744598,46.68303680419922,,37.77381896972656,0.56
89,MetaDrive-Tut-100Env-v0,19,274.8686040549355,90356,569,4550.169187307358,48.060455322265625,,13.45753288269043,0.57
90,MetaDrive-Tut-100Env-v0,19,274.12036337087346,91293,572,4602.34370303154,46.26557159423828,-46.95236587524414,26.416759490966797,0.58
91,MetaDrive-Tut-100Env-v0,19,273.4432642612942,92228,576,4654.724741458893,46.14702224731445,,25.07598876953125,0.58
92,MetaDrive-Tut-100Env-v0,19,271.10007244438566,93237,579,4711.212527513504,48.4053955078125,-48.990882873535156,11.71638011932373,0.56
93,MetaDrive-Tut-100Env-v0,19,271.66034288623996,94103,581,4759.59210395813,48.90230941772461,-49.40690994262695,20.24606704711914,0.57
94,MetaDrive-Tut-100Env-v0,19,271.7004064966393,95085,584,4815.676583528519,47.19935607910156,-48.022071838378906,35.12444305419922,0.55
95,MetaDrive-Tut-100Env-v0,19,276.8002519799828,96298,587,4883.734363555908,46.31934356689453,,8.985620498657227,0.58
96,MetaDrive-Tut-100Env-v0,19,280.02327132201356,97203,590,4934.145434141159,49.25182342529297,-49.92979431152344,26.168716430664062,0.6
97,MetaDrive-Tut-100Env-v0,19,280.1926290368528,98117,592,4985.501621961594,49.12256622314453,-49.475929260253906,19.643741607666016,0.6
98,MetaDrive-Tut-100Env-v0,19,281.93683756959297,99224,595,5047.155295133591,47.78069305419922,,6.00250768661499,0.61
99,MetaDrive-Tut-100Env-v0,19,284.57788220227746,100213,598,5103.454869747162,48.61376953125,-49.052001953125,16.58884048461914,0.62
100,MetaDrive-Tut-100Env-v0,19,283.3230883719561,101286,602,5163.337606191635,47.266998291015625,,8.65372085571289,0.62
101,MetaDrive-Tut-100Env-v0,19,284.1041746892738,102001,604,5203.523557424545,48.9401741027832,-48.829654693603516,14.106056213378906,0.62
102,MetaDrive-Tut-100Env-v0,19,285.50020589119435,103083,607,5263.807802200317,49.4927978515625,-50.26416778564453,32.57994842529297,0.63
103,MetaDrive-Tut-100Env-v0,19,286.7866225503623,104149,609,5323.722529172897,48.23094177246094,-48.317588806152344,29.14984893798828,0.63
104,MetaDrive-Tut-100Env-v0,19,287.1648489159067,105166,613,5380.722844839096,48.536338806152344,,26.536705017089844,0.64
105,MetaDrive-Tut-100Env-v0,19,285.5698363737833,106165,616,5436.0736401081085,47.75395202636719,-48.264591217041016,27.966506958007812,0.64
106,MetaDrive-Tut-100Env-v0,19,289.5212402186341,107302,619,5499.6133069992065,47.85744094848633,,12.83341121673584,0.66
107,MetaDrive-Tut-100Env-v0,19,289.3109882380149,108154,622,5547.484186410904,48.30458068847656,,7.2370195388793945,0.66
108,MetaDrive-Tut-100Env-v0,19,289.34563210830964,109338,625,5614.68909406662,49.881446838378906,,9.95113468170166,0.66
109,MetaDrive-Tut-100Env-v0,19,291.66162198296456,110185,627,5662.248831987381,47.886741638183594,-48.58297348022461,17.156822204589844,0.67
110,MetaDrive-Tut-100Env-v0,19,292.5846289771608,111149,629,5716.837439060211,48.436767578125,-48.98636245727539,14.186298370361328,0.67
111,MetaDrive-Tut-100Env-v0,19,292.4143169987343,112075,631,5769.195218801498,49.59172058105469,-49.84260940551758,9.925965309143066,0.66
112,MetaDrive-Tut-100Env-v0,19,290.72735977952266,113184,634,5830.938485145569,47.883548736572266,,17.774560928344727,0.67
113,MetaDrive-Tut-100Env-v0,19,297.9083144361327,114231,636,5889.448886632919,49.958587646484375,-50.33165740966797,11.34785270690918,0.69
114,MetaDrive-Tut-100Env-v0,19,299.34484871954544,115539,640,5962.676775693893,48.816200256347656,-49.27606201171875,11.62166976928711,0.7
115,MetaDrive-Tut-100Env-v0,19,297.17976550228485,116160,642,5997.637748479843,49.54241180419922,,25.78738784790039,0.69
116,MetaDrive-Tut-100Env-v0,19,300.46334635433993,117190,644,6055.936826944351,50.31618881225586,,14.834243774414062,0.71
117,MetaDrive-Tut-100Env-v0,19,297.0663622719786,118595,648,6135.065795660019,48.80353546142578,-49.03523254394531,8.358480453491211,0.7
118,MetaDrive-Tut-100Env-v0,19,296.59828767312746,119298,650,6174.297334194183,50.167015075683594,,9.92546558380127,0.69
119,MetaDrive-Tut-100Env-v0,19,290.08280689774574,120372,653,6234.867404460907,49.403465270996094,,11.293962478637695,0.68
120,MetaDrive-Tut-100Env-v0,19,294.91764954152046,121439,656,6294.7097198963165,49.49807357788086,-50.51178741455078,16.211589813232422,0.7
121,MetaDrive-Tut-100Env-v0,19,296.97037650827065,122140,657,6334.641937971115,49.07862091064453,,19.309154510498047,0.71
122,MetaDrive-Tut-100Env-v0,19,296.15461454580696,123015,660,6383.593043804169,49.86345672607422,-49.87557601928711,15.93832015991211,0.71
123,MetaDrive-Tut-100Env-v0,19,295.5123331747908,124208,663,6450.406201839447,48.51096725463867,,12.55880355834961,0.71
124,MetaDrive-Tut-100Env-v0,19,292.01519468474083,125110,666,6501.229774951935,50.63099670410156,,64.9599609375,0.7
125,MetaDrive-Tut-100Env-v0,19,293.3626999689827,126185,668,6561.70016336441,47.631370544433594,-48.465911865234375,20.807533264160156,0.7
126,MetaDrive-Tut-100Env-v0,19,295.15715724478264,127396,671,6629.065765380859,51.35402297973633,,15.799394607543945,0.71
127,MetaDrive-Tut-100Env-v0,19,296.6443527591436,128295,673,6679.679842233658,50.88567352294922,-51.65650177001953,22.440275192260742,0.72
128,MetaDrive-Tut-100Env-v0,19,298.794878381622,129252,675,6733.268583059311,50.73442840576172,,10.041706085205078,0.72
129,MetaDrive-Tut-100Env-v0,19,299.6772166090045,130340,678,6794.34934258461,49.74130630493164,,9.783866882324219,0.73
130,MetaDrive-Tut-100Env-v0,19,300.05347621432907,131072,680,6835.088756799698,50.34143829345703,,9.178470611572266,0.74
131,MetaDrive-Tut-100Env-v0,19,302.0632737166724,132429,683,6910.943186998367,50.524044036865234,-51.42451858520508,15.748148918151855,0.76
132,MetaDrive-Tut-100Env-v0,19,304.0380343613418,133123,684,6950.356842041016,48.79477310180664,-49.53687286376953,7.39914608001709,0.77
133,MetaDrive-Tut-100Env-v0,19,304.1544187042726,134006,686,6999.56351518631,48.977535247802734,,37.895294189453125,0.77
134,MetaDrive-Tut-100Env-v0,19,308.19699343088723,135099,688,7061.200905561447,50.187156677246094,-51.4511833190918,9.404804229736328,0.78
135,MetaDrive-Tut-100Env-v0,19,308.24297307141154,136325,691,7130.278549909592,50.01097869873047,-50.56360626220703,14.5777587890625,0.77
136,MetaDrive-Tut-100Env-v0,19,309.6954592157175,137403,693,7192.033611774445,49.88491439819336,-50.530792236328125,10.372903823852539,0.77
137,MetaDrive-Tut-100Env-v0,19,309.84929089382365,138408,696,7247.714656829834,51.68669891357422,,31.520586013793945,0.77
138,MetaDrive-Tut-100Env-v0,19,311.6239198603536,139265,698,7295.499492883682,50.30230712890625,-50.289100646972656,29.663265228271484,0.78
139,MetaDrive-Tut-100Env-v0,19,315.12390279247086,140177,700,7346.321689605713,49.95503616333008,-50.41911697387695,12.91537857055664,0.79
140,MetaDrive-Tut-100Env-v0,19,318.0882384459383,141334,702,7412.033893823624,48.58183288574219,,31.49799346923828,0.79
141,MetaDrive-Tut-100Env-v0,19,318.06730738887126,142207,704,7460.663031578064,50.893314361572266,-51.335540771484375,10.200542449951172,0.79
142,MetaDrive-Tut-100Env-v0,19,319.9555176398387,143501,707,7533.9329352378845,48.35063934326172,-48.407405853271484,15.779252052307129,0.8
143,MetaDrive-Tut-100Env-v0,19,316.41430638220044,144369,710,7582.677565097809,50.43873596191406,-50.781532287597656,14.821943283081055,0.79
144,MetaDrive-Tut-100Env-v0,19,320.42477551210754,145073,712,7621.9101729393005,50.00069046020508,-49.98696517944336,13.36496639251709,0.8
145,MetaDrive-Tut-100Env-v0,19,319.8294627577821,146201,715,7685.0762503147125,51.55787658691406,-51.77799606323242,13.291231155395508,0.79
146,MetaDrive-Tut-100Env-v0,19,321.55168544731197,147232,717,7742.618324756622,50.761512756347656,,32.97259521484375,0.8
147,MetaDrive-Tut-100Env-v0,19,321.68309482211896,148341,720,7804.241610527039,51.258270263671875,-51.544960021972656,19.453632354736328,0.8
148,MetaDrive-Tut-100Env-v0,19,322.9043571432011,149057,722,7844.166144609451,52.84661865234375,-53.46255874633789,9.439597129821777,0.81
149,MetaDrive-Tut-100Env-v0,18,323.86870450768964,150320,725,7914.806400537491,50.14051055908203,,25.836050033569336,0.82
150,MetaDrive-Tut-100Env-v0,18,323.20490719202974,151213,727,7964.589576005936,52.616703033447266,-53.324798583984375,11.8283109664917,0.81
151,MetaDrive-Tut-100Env-v0,18,322.6956772503879,152126,729,8015.162573337555,49.12168884277344,,34.646156311035156,0.81
152,MetaDrive-Tut-100Env-v0,18,323.8863705897709,153111,731,8070.816499233246,50.0893440246582,-50.977195739746094,12.443710327148438,0.82
153,MetaDrive-Tut-100Env-v0,18,325.3255030619602,154430,734,8144.390549659729,51.710418701171875,,7.516078948974609,0.82
154,MetaDrive-Tut-100Env-v0,18,323.3295651830163,155224,736,8188.985697031021,50.408119201660156,,33.61078643798828,0.82
155,MetaDrive-Tut-100Env-v0,18,324.9850250153464,156364,739,8252.563149690628,50.0234375,,12.44714069366455,0.82
156,MetaDrive-Tut-100Env-v0,18,326.5810117700639,157347,741,8307.580133199692,52.30799865722656,-52.64446258544922,7.29508638381958,0.83
157,MetaDrive-Tut-100Env-v0,18,326.43476795917263,158315,743,8361.339380025864,49.20087814331055,-50.54443359375,10.3501558303833,0.83
158,MetaDrive-Tut-100Env-v0,18,324.8341145571751,159222,745,8411.913153409958,52.03451919555664,,13.597701072692871,0.83
159,MetaDrive-Tut-100Env-v0,18,329.8338392703817,160256,747,8470.536925315857,49.3272819519043,,10.615255355834961,0.85
160,MetaDrive-Tut-100Env-v0,18,332.413063425362,161669,749,8551.405503511429,51.16169357299805,-52.118202209472656,12.821760177612305,0.85
161,MetaDrive-Tut-100Env-v0,18,332.0031911875856,162137,750,8577.896510124207,49.24831771850586,-50.82185363769531,24.966602325439453,0.85
162,MetaDrive-Tut-100Env-v0,18,331.0210060279785,163006,753,8627.31505060196,51.074440002441406,,15.753067016601562,0.84
163,MetaDrive-Tut-100Env-v0,18,336.79186238717523,164558,755,8716.299307346344,49.460960388183594,,11.648681640625,0.84
164,MetaDrive-Tut-100Env-v0,18,337.0797073536807,165178,756,8751.06177186966,50.52717590332031,,23.71417808532715,0.84
165,MetaDrive-Tut-100Env-v0,18,336.84020354550734,166067,758,8800.99518942833,50.21250915527344,-50.803672790527344,11.720548629760742,0.84
166,MetaDrive-Tut-100Env-v0,18,338.3818718095895,167364,761,8873.927711248398,50.22514343261719,,8.238311767578125,0.84
167,MetaDrive-Tut-100Env-v0,18,338.3310405866365,168211,763,8921.461095809937,50.85500717163086,-51.16993713378906,9.855521202087402,0.84
168,MetaDrive-Tut-100Env-v0,18,340.13180370240894,169335,766,8983.875249147415,50.62843322753906,-50.801536560058594,10.441944122314453,0.85
169,MetaDrive-Tut-100Env-v0,18,336.1945714315471,170153,769,9029.167543649673,52.82624816894531,-53.7794189453125,28.447826385498047,0.84
170,MetaDrive-Tut-100Env-v0,18,336.6596895125342,171362,772,9096.420580148697,52.161415100097656,,30.627880096435547,0.84
171,MetaDrive-Tut-100Env-v0,18,336.61656049820806,172168,774,9141.61048078537,51.07008743286133,,12.52154541015625,0.84
172,MetaDrive-Tut-100Env-v0,18,338.7734508399623,173187,776,9199.32893037796,51.631080627441406,-51.67993927001953,25.069660186767578,0.85
173,MetaDrive-Tut-100Env-v0,18,340.6442400145822,174050,778,9247.351039409637,50.79157257080078,,19.714771270751953,0.86
174,MetaDrive-Tut-100Env-v0,18,342.2342258233098,175086,780,9306.14375424385,49.395545959472656,,14.532259941101074,0.86
175,MetaDrive-Tut-100Env-v0,18,334.41646341961035,176128,784,9363.618284702301,52.10537338256836,,23.448589324951172,0.85
176,MetaDrive-Tut-100Env-v0,18,334.3499797061239,177147,786,9420.982550621033,51.08973693847656,-51.19988250732422,11.833616256713867,0.85
177,MetaDrive-Tut-100Env-v0,18,333.43734879537254,178092,788,9474.534172058105,49.2529296875,,13.200688362121582,0.85
178,MetaDrive-Tut-100Env-v0,18,334.8677272775133,179049,790,9527.640825986862,51.02250671386719,-51.39823913574219,44.25163269042969,0.86
179,MetaDrive-Tut-100Env-v0,18,337.6938927808285,180213,792,9593.546955347061,49.93695831298828,-50.57258224487305,26.243820190429688,0.86
180,MetaDrive-Tut-100Env-v0,18,338.3973038220576,181192,794,9648.56953382492,49.12702941894531,,16.353090286254883,0.87
181,MetaDrive-Tut-100Env-v0,18,341.0929197366614,182267,796,9709.756308317184,51.67524719238281,-52.135406494140625,20.042434692382812,0.87
182,MetaDrive-Tut-100Env-v0,18,340.02422709009124,183134,798,9758.27884888649,52.533775329589844,,6.98714542388916,0.87
183,MetaDrive-Tut-100Env-v0,18,341.0089545072092,184184,800,9817.876374721527,50.5257568359375,,7.265450477600098,0.87
184,MetaDrive-Tut-100Env-v0,18,339.3100047594073,185177,802,9874.054062128067,51.032203674316406,-51.343116760253906,7.333390712738037,0.87
185,MetaDrive-Tut-100Env-v0,18,341.4299540170692,186682,805,9958.475023508072,50.268218994140625,,10.88296127319336,0.87
186,MetaDrive-Tut-100Env-v0,18,340.85910779907334,187121,806,9983.0843603611,50.66141891479492,-50.35810852050781,21.948123931884766,0.87
187,MetaDrive-Tut-100Env-v0,18,344.0327878099441,188016,808,10033.546795845032,48.32740783691406,,10.779170989990234,0.88
188,MetaDrive-Tut-100Env-v0,18,345.5503887287091,189031,810,10090.881365299225,49.35814666748047,-49.480072021484375,18.642196655273438,0.89
189,MetaDrive-Tut-100Env-v0,18,349.4127933375766,190214,812,10157.924513339996,50.401607513427734,,25.804004669189453,0.9
190,MetaDrive-Tut-100Env-v0,18,348.4089251340879,191229,815,10215.199561595917,50.13188171386719,-50.445953369140625,29.852155685424805,0.9
191,MetaDrive-Tut-100Env-v0,18,349.9412555032855,192230,816,10272.65439248085,51.529624938964844,,11.397966384887695,0.89
192,MetaDrive-Tut-100Env-v0,18,349.8669620444193,193083,818,10319.879521131516,50.83802032470703,-50.49652099609375,16.453125,0.89
193,MetaDrive-Tut-100Env-v0,18,350.6027380630616,194044,820,10373.784351825714,51.93926239013672,,12.45492935180664,0.89
194,MetaDrive-Tut-100Env-v0,18,352.69125795234066,195181,822,10438.660626411438,51.419837951660156,-51.906314849853516,8.962972640991211,0.89
195,MetaDrive-Tut-100Env-v0,18,353.1939287532794,196677,825,10523.425813674927,50.20098114013672,-50.74589920043945,8.096748352050781,0.88
196,MetaDrive-Tut-100Env-v0,18,354.3488538275527,197189,826,10551.972273349762,49.2996826171875,-49.37004852294922,26.75675392150879,0.88
197,MetaDrive-Tut-100Env-v0,18,352.0166881742243,198219,829,10608.766289710999,50.468685150146484,-51.40140914916992,7.4975080490112305,0.89
198,MetaDrive-Tut-100Env-v0,18,351.09921044123837,199246,831,10665.94530749321,50.10780334472656,,11.108602523803711,0.89
199,MetaDrive-Tut-100Env-v0,18,350.27920203708743,200115,833,10714.365297079086,50.301055908203125,-50.51329040527344,13.087484359741211,0.89
200,MetaDrive-Tut-100Env-v0,18,349.9804348948756,201320,836,10781.779649019241,48.58159637451172,,17.132047653198242,0.89
201,MetaDrive-Tut-100Env-v0,18,350.67447696046185,202344,838,10839.34051322937,50.39068603515625,,7.873515605926514,0.89
202,MetaDrive-Tut-100Env-v0,18,349.5930578690338,203366,841,10896.2733502388,50.75688552856445,,4.290691375732422,0.88
203,MetaDrive-Tut-100Env-v0,18,349.2148105407011,204322,843,10950.457974672318,50.16036605834961,,9.333368301391602,0.88
204,MetaDrive-Tut-100Env-v0,18,352.69053877033053,205801,845,11034.081505775452,49.95024871826172,-50.7414436340332,9.41676139831543,0.88
205,MetaDrive-Tut-100Env-v0,18,351.573506729464,206043,846,11047.506195306778,51.30967712402344,-50.865562438964844,6.712836742401123,0.87
206,MetaDrive-Tut-100Env-v0,18,347.72494479458805,207289,849,11117.419002056122,50.21021270751953,-50.76189041137695,14.959430694580078,0.88
207,MetaDrive-Tut-100Env-v0,18,350.64786785805836,208321,851,11175.157893657684,50.13655090332031,-50.41236114501953,9.324893951416016,0.89
208,MetaDrive-Tut-100Env-v0,18,351.84073686468446,209219,853,11225.034953594208,50.025291442871094,-50.01367950439453,17.492332458496094,0.9
209,MetaDrive-Tut-100Env-v0,18,343.48944812951356,210118,856,11274.918929576874,50.321937561035156,,20.19655990600586,0.9
210,MetaDrive-Tut-100Env-v0,18,341.43433541448366,211184,859,11334.740940093994,49.508541107177734,,10.716121673583984,0.88
211,MetaDrive-Tut-100Env-v0,18,342.67759019061674,212135,861,11387.915764093399,51.11142349243164,-51.161956787109375,11.643183708190918,0.89
212,MetaDrive-Tut-100Env-v0,18,339.6849953414375,213318,865,11454.103572845459,49.01097869873047,,10.936467170715332,0.87
213,MetaDrive-Tut-100Env-v0,18,341.3222428411767,214472,867,11518.963491678238,48.081085205078125,,10.940370559692383,0.86
214,MetaDrive-Tut-100Env-v0,18,344.0601023799331,215247,868,11561.843398094177,49.35237121582031,-49.5499267578125,8.292192459106445,0.87
215,MetaDrive-Tut-100Env-v0,18,342.98290929347706,216250,870,11618.223515987396,48.06966781616211,,5.791928768157959,0.87
216,MetaDrive-Tut-100Env-v0,18,342.1642337161133,217252,873,11674.154329538345,50.062294006347656,,6.679803848266602,0.86
217,MetaDrive-Tut-100Env-v0,18,338.8899999303745,218318,876,11733.943055868149,48.28515625,,8.956734657287598,0.85
218,MetaDrive-Tut-100Env-v0,18,341.5551867431977,219319,877,11791.079407453537,48.27011489868164,-48.68743896484375,27.719970703125,0.84
219,MetaDrive-Tut-100Env-v0,18,341.0020940999811,220287,879,11845.072012662888,47.41624450683594,-48.1126594543457,9.719864845275879,0.83
220,MetaDrive-Tut-100Env-v0,18,345.95585337840134,221578,881,11918.56016945839,50.558319091796875,,16.921051025390625,0.84
221,MetaDrive-Tut-100Env-v0,18,346.78411122898297,222086,882,11946.82965540886,50.959808349609375,,10.318351745605469,0.84
222,MetaDrive-Tut-100Env-v0,18,346.00743903825867,223013,885,11999.40752863884,50.03755187988281,-50.29914855957031,8.081998825073242,0.82
223,MetaDrive-Tut-100Env-v0,18,343.24134252817566,224193,888,12065.752498149872,50.6013069152832,-50.99140930175781,7.352792739868164,0.81
224,MetaDrive-Tut-100Env-v0,18,338.67863071542166,225101,891,12116.609077453613,49.44533157348633,-49.81891632080078,8.324463844299316,0.8
225,MetaDrive-Tut-100Env-v0,18,335.0372385066395,226128,894,12174.216133117676,50.10399627685547,,10.410755157470703,0.79
226,MetaDrive-Tut-100Env-v0,18,331.2282048663074,227259,897,12238.431565761566,50.65742492675781,-51.10314178466797,6.424848556518555,0.77
227,MetaDrive-Tut-100Env-v0,18,329.00311496050125,228301,900,12296.770530462265,49.910423278808594,-50.480567932128906,8.321762084960938,0.76
228,MetaDrive-Tut-100Env-v0,18,325.4763805394149,229173,903,12345.289892435074,47.80406188964844,-48.387603759765625,8.43198013305664,0.75
229,MetaDrive-Tut-100Env-v0,18,322.39799181939475,230051,905,12394.35406446457,49.156517028808594,-49.4782829284668,11.672931671142578,0.74
230,MetaDrive-Tut-100Env-v0,18,324.2032090742686,231153,907,12456.623753786087,50.3483772277832,-51.240966796875,13.766672134399414,0.74
231,MetaDrive-Tut-100Env-v0,18,321.963774109003,232261,910,12518.832222223282,49.488677978515625,-50.071739196777344,10.25596809387207,0.74
232,MetaDrive-Tut-100Env-v0,18,320.4985423672638,233295,913,12575.915166854858,49.714019775390625,-50.302711486816406,10.710237503051758,0.74
233,MetaDrive-Tut-100Env-v0,18,320.8599286094185,234314,915,12633.188781499863,49.26360321044922,,13.799118995666504,0.74
234,MetaDrive-Tut-100Env-v0,18,319.6730513971064,235252,917,12685.567471265793,48.8892936706543,,5.803716659545898,0.75
235,MetaDrive-Tut-100Env-v0,18,316.48068322369824,236604,919,12760.516902923584,49.808841705322266,,24.592334747314453,0.74
236,MetaDrive-Tut-100Env-v0,18,316.894732207855,237082,920,12787.411049604416,49.54103088378906,,5.976421356201172,0.74
237,MetaDrive-Tut-100Env-v0,18,317.0720309397527,238112,922,12846.08103299141,48.32041931152344,,10.128751754760742,0.74
238,MetaDrive-Tut-100Env-v0,18,315.9396215316607,239644,925,12933.240807771683,49.711524963378906,,7.612602710723877,0.73
239,MetaDrive-Tut-100Env-v0,18,315.8655069688239,240119,926,12959.774367570877,48.87288284301758,-49.47917556762695,12.460752487182617,0.73
240,MetaDrive-Tut-100Env-v0,18,315.4379769010052,241076,929,13013.804824113846,49.52400207519531,,7.556082248687744,0.71
241,MetaDrive-Tut-100Env-v0,18,316.129161655506,242088,931,13070.390742301941,48.35914993286133,,8.57088851928711,0.71
242,MetaDrive-Tut-100Env-v0,18,316.1139601254301,243903,935,13174.082871675491,49.963623046875,-49.91437530517578,8.027897834777832,0.69
243,MetaDrive-Tut-100Env-v0,18,316.9730486437862,244374,936,13200.734730482101,48.208526611328125,,8.556075096130371,0.69
244,MetaDrive-Tut-100Env-v0,18,319.47251202636437,245497,938,13264.439324855804,50.41716003417969,-50.59700393676758,7.371528148651123,0.7
245,MetaDrive-Tut-100Env-v0,18,321.0995707407644,246302,940,13309.474712133408,50.34162902832031,,9.59201431274414,0.71
246,MetaDrive-Tut-100Env-v0,18,321.0295180338855,247134,942,13355.823801994324,49.51726531982422,,30.005695343017578,0.7
247,MetaDrive-Tut-100Env-v0,18,321.5994899911613,248203,944,13415.987706422806,50.45673370361328,-50.917724609375,12.160836219787598,0.7
248,MetaDrive-Tut-100Env-v0,18,322.97789812350425,249334,946,13479.706135749817,50.606346130371094,,8.771198272705078,0.71
249,MetaDrive-Tut-100Env-v0,18,323.83430075857905,250150,948,13524.895774841309,50.384765625,,12.758466720581055,0.71
250,MetaDrive-Tut-100Env-v0,18,321.03642973047295,251160,951,13581.169936418533,50.736480712890625,,6.354434013366699,0.7
251,MetaDrive-Tut-100Env-v0,18,317.27196122799427,252007,954,13628.744887828827,49.56692123413086,-50.303123474121094,8.43692398071289,0.69
252,MetaDrive-Tut-100Env-v0,18,323.08911741753417,253141,956,13692.267621994019,49.74238586425781,-50.08195495605469,11.258672714233398,0.7
253,MetaDrive-Tut-100Env-v0,18,323.3462074732119,254198,959,13751.519449949265,49.71869659423828,,7.201394557952881,0.71
254,MetaDrive-Tut-100Env-v0,18,325.3248759545638,255155,961,13806.087784290314,50.748443603515625,-51.524742126464844,9.543401718139648,0.71
255,MetaDrive-Tut-100Env-v0,18,327.7340429915062,256061,963,13857.413208007812,49.919036865234375,-50.08845520019531,7.643406867980957,0.72
256,MetaDrive-Tut-100Env-v0,18,329.7546244375937,257295,966,13927.08703494072,51.514198303222656,-51.211700439453125,31.584388732910156,0.74
257,MetaDrive-Tut-100Env-v0,18,328.8864143821383,258425,969,13990.647668838501,49.96070098876953,-51.15723419189453,15.866684913635254,0.73
258,MetaDrive-Tut-100Env-v0,18,323.2412566338704,259052,972,14025.732875823975,49.15773010253906,,6.835756301879883,0.71
259,MetaDrive-Tut-100Env-v0,18,327.6541195635529,260348,975,14098.991293668747,48.919193267822266,,13.845808982849121,0.73
260,MetaDrive-Tut-100Env-v0,18,325.0871556779814,261596,978,14169.363409996033,49.30060577392578,,10.188813209533691,0.74
261,MetaDrive-Tut-100Env-v0,18,323.85905481777246,262404,980,14214.610309123993,47.86052703857422,,7.074079513549805,0.74
262,MetaDrive-Tut-100Env-v0,18,321.4175761479757,263252,982,14262.431051015854,48.596961975097656,,9.82169246673584,0.74
263,MetaDrive-Tut-100Env-v0,18,321.13694943136403,264112,985,14310.756057739258,48.8093147277832,,11.96563720703125,0.75
264,MetaDrive-Tut-100Env-v0,18,323.07727139477146,265159,987,14369.660225391388,50.37178039550781,-50.530704498291016,5.874633312225342,0.76
265,MetaDrive-Tut-100Env-v0,18,323.2547049314696,266306,990,14433.985028266907,51.829681396484375,,17.795175552368164,0.75
266,MetaDrive-Tut-100Env-v0,18,324.69362376554113,267003,992,14472.873606920242,48.02384567260742,-48.53372573852539,16.513126373291016,0.76
267,MetaDrive-Tut-100Env-v0,18,327.49754080544926,268036,995,14531.225620508194,49.25151443481445,,12.444015502929688,0.77
268,MetaDrive-Tut-100Env-v0,18,325.3900806874944,269399,998,14608.315650463104,51.19647216796875,-51.59205627441406,10.48346996307373,0.77
269,MetaDrive-Tut-100Env-v0,18,325.87856476993375,270149,1000,14650.565650939941,52.42353057861328,-53.59126281738281,7.253551959991455,0.77
270,MetaDrive-Tut-100Env-v0,18,329.60600218562024,271552,1003,14729.769461393356,49.37704086303711,,5.755898952484131,0.77
271,MetaDrive-Tut-100Env-v0,18,330.02232687074036,272347,1005,14774.486392259598,50.83625030517578,-51.170379638671875,11.140944480895996,0.78
272,MetaDrive-Tut-100Env-v0,18,328.17501592043084,273212,1007,14823.11394071579,49.91086196899414,,23.69918441772461,0.78
273,MetaDrive-Tut-100Env-v0,18,330.2320922975731,274236,1009,14881.306851387024,50.370635986328125,,4.7604146003723145,0.78
274,MetaDrive-Tut-100Env-v0,18,332.4310880902264,275047,1011,14926.526407003403,49.875038146972656,-50.176151275634766,9.443573951721191,0.79
275,MetaDrive-Tut-100Env-v0,18,334.4972135293902,276486,1014,15007.526085138321,51.31984329223633,,32.681121826171875,0.79
276,MetaDrive-Tut-100Env-v0,18,334.4687469741804,277001,1015,15036.638625860214,51.54472732543945,-52.41107940673828,6.367359161376953,0.79
277,MetaDrive-Tut-100Env-v0,18,336.95632735117834,278204,1017,15104.852922916412,49.17652893066406,,12.84422492980957,0.79
278,MetaDrive-Tut-100Env-v0,18,339.249394706772,279112,1019,15156.142210483551,49.30873489379883,,14.17742919921875,0.8
279,MetaDrive-Tut-100Env-v0,18,340.5270596170747,280096,1021,15211.443964004517,49.66200256347656,,6.282949447631836,0.8
280,MetaDrive-Tut-100Env-v0,18,340.7256720491148,281326,1024,15279.24806690216,51.073150634765625,,7.713746547698975,0.81
281,MetaDrive-Tut-100Env-v0,18,338.66235943338216,282354,1026,15336.837610244751,50.672393798828125,,31.735126495361328,0.82
282,MetaDrive-Tut-100Env-v0,18,340.29652261104786,283264,1028,15387.057424783707,49.99022674560547,,7.425205230712891,0.84
283,MetaDrive-Tut-100Env-v0,18,339.76566507288226,284277,1030,15443.940260887146,51.310447692871094,-51.42409133911133,6.548579216003418,0.83
284,MetaDrive-Tut-100Env-v0,18,342.8872810473944,285359,1033,15504.51063156128,49.38404083251953,-49.29286575317383,5.899219989776611,0.84
285,MetaDrive-Tut-100Env-v0,18,344.8429755783279,286065,1034,15544.638443946838,49.152320861816406,-48.81275939941406,26.851470947265625,0.84
286,MetaDrive-Tut-100Env-v0,18,343.03580146782906,287129,1036,15604.401222229004,51.053184509277344,-51.28471374511719,12.536155700683594,0.85
287,MetaDrive-Tut-100Env-v0,18,342.23604310120464,288277,1038,15669.619468450546,48.44880676269531,-48.6208610534668,9.413698196411133,0.85
288,MetaDrive-Tut-100Env-v0,18,343.9319982600467,289288,1040,15726.700930833817,50.72566223144531,,14.411169052124023,0.85
289,MetaDrive-Tut-100Env-v0,18,343.36507407854646,290131,1042,15774.528285741806,48.807151794433594,-48.88134002685547,10.349111557006836,0.85
290,MetaDrive-Tut-100Env-v0,18,342.0379285033498,291100,1044,15829.253489732742,49.743690490722656,,10.08486270904541,0.85
291,MetaDrive-Tut-100Env-v0,18,341.1171312932748,292339,1047,15898.195098400116,49.84454345703125,-49.98455047607422,10.848904609680176,0.85
292,MetaDrive-Tut-100Env-v0,18,342.2654761139131,293376,1049,15957.268266916275,51.16664505004883,,7.082648277282715,0.85
293,MetaDrive-Tut-100Env-v0,18,344.431517277529,294327,1051,16010.3542907238,51.311485290527344,-51.182464599609375,13.897880554199219,0.86
294,MetaDrive-Tut-100Env-v0,18,347.61168763480083,295110,1053,16054.169560909271,51.45921325683594,,16.154817581176758,0.87
295,MetaDrive-Tut-100Env-v0,18,346.08472984467096,296465,1056,16130.765972852707,50.72880554199219,-51.62432098388672,13.2684965133667,0.86
296,MetaDrive-Tut-100Env-v0,18,346.63405047652105,297433,1058,16184.673507928848,51.07817077636719,-51.4241943359375,6.872509002685547,0.86
297,MetaDrive-Tut-100Env-v0,18,349.8950480192593,298111,1059,16223.43640089035,50.54692840576172,-50.79315948486328,31.294254302978516,0.87
298,MetaDrive-Tut-100Env-v0,18,339.7159041460758,299014,1063,16274.142766714096,49.557823181152344,,31.89620018005371,0.84
299,MetaDrive-Tut-100Env-v0,18,332.7819680573663,300129,1067,16336.296110391617,50.03179168701172,-50.57444763183594,7.501133441925049,0.82
300,MetaDrive-Tut-100Env-v0,18,332.39848749493484,301082,1070,16390.438331127167,51.75192642211914,,8.205948829650879,0.82
301,MetaDrive-Tut-100Env-v0,18,338.20791920788,302265,1073,16456.28390264511,48.482059478759766,-48.259422302246094,6.511242866516113,0.84
302,MetaDrive-Tut-100Env-v0,18,337.53741127939463,303228,1075,16510.60949587822,51.31317138671875,,12.459878921508789,0.84
303,MetaDrive-Tut-100Env-v0,18,341.1325830846794,304285,1077,16570.330320119858,49.69593048095703,-49.698280334472656,38.5799674987793,0.85
304,MetaDrive-Tut-100Env-v0,18,342.3461993257052,305273,1079,16626.099526405334,48.8391227722168,-48.48227310180664,5.832236289978027,0.85
305,MetaDrive-Tut-100Env-v0,18,343.28137913126875,306295,1081,16684.65078997612,53.28716278076172,-54.35882568359375,9.620468139648438,0.84
306,MetaDrive-Tut-100Env-v0,18,343.56056495725903,307283,1083,16740.386921405792,49.641845703125,-49.60966491699219,7.732853889465332,0.83
307,MetaDrive-Tut-100Env-v0,18,346.5157181270908,308219,1085,16792.892210006714,48.29749298095703,-49.66950988769531,36.91225814819336,0.84
308,MetaDrive-Tut-100Env-v0,18,346.3864250325357,309083,1087,16841.676835775375,50.70175552368164,-50.89933776855469,24.535438537597656,0.84
309,MetaDrive-Tut-100Env-v0,18,347.61684301841683,310331,1090,16912.399239063263,50.233970642089844,-51.253231048583984,12.471540451049805,0.85
310,MetaDrive-Tut-100Env-v0,18,347.4133165891273,311081,1092,16954.877687215805,52.134864807128906,-52.80833053588867,8.570459365844727,0.83
311,MetaDrive-Tut-100Env-v0,18,346.91062740838265,312294,1095,17022.258249521255,50.27656555175781,,8.259981155395508,0.83
312,MetaDrive-Tut-100Env-v0,18,347.81365219992034,313233,1097,17075.386406183243,52.517845153808594,-53.022308349609375,6.587594985961914,0.84
313,MetaDrive-Tut-100Env-v0,18,349.7533789367068,314230,1099,17131.72477197647,50.091548919677734,,5.02386474609375,0.85
314,MetaDrive-Tut-100Env-v0,18,350.7647933553695,315263,1101,17189.969430923462,49.86156463623047,-50.21635818481445,5.1425065994262695,0.86
315,MetaDrive-Tut-100Env-v0,18,348.3432331031314,316358,1104,17251.445744037628,48.940338134765625,,9.408123016357422,0.85
316,MetaDrive-Tut-100Env-v0,18,350.34531698326714,317493,1106,17315.551395893097,51.7879524230957,-52.944671630859375,8.34666633605957,0.85
317,MetaDrive-Tut-100Env-v0,18,349.65702740771115,318493,1108,17372.47398686409,50.888362884521484,-51.421775817871094,6.78679084777832,0.85
318,MetaDrive-Tut-100Env-v0,18,346.52596123146657,319445,1111,17425.48291659355,50.821044921875,-52.041259765625,13.002424240112305,0.84
319,MetaDrive-Tut-100Env-v0,18,345.885110806085,320271,1113,17471.47884297371,50.20252990722656,-50.651641845703125,9.480230331420898,0.84
320,MetaDrive-Tut-100Env-v0,18,344.20009094289935,321056,1115,17515.191828489304,51.999298095703125,,7.8832526206970215,0.83
321,MetaDrive-Tut-100Env-v0,18,344.74218944583504,322340,1117,17588.57289791107,49.76902770996094,,7.456544399261475,0.82
322,MetaDrive-Tut-100Env-v0,18,345.00251295674514,323292,1119,17642.129173517227,49.82617950439453,,6.146529674530029,0.82
323,MetaDrive-Tut-100Env-v0,18,343.73370479202276,324631,1122,17718.79305410385,49.781829833984375,-49.74285125732422,8.586160659790039,0.8
324,MetaDrive-Tut-100Env-v0,18,342.8120535834174,325210,1124,17751.40824317932,49.94757843017578,,6.86214542388916,0.78
325,MetaDrive-Tut-100Env-v0,18,339.5521446431192,326211,1125,17806.88087940216,49.78248977661133,-50.908748626708984,8.304473876953125,0.77
326,MetaDrive-Tut-100Env-v0,18,339.0987025780775,327107,1127,17857.4250330925,50.06250762939453,-49.99834442138672,8.17021369934082,0.76
327,MetaDrive-Tut-100Env-v0,18,340.407289796854,328174,1129,17917.649124383926,49.61167907714844,,15.460827827453613,0.76
328,MetaDrive-Tut-100Env-v0,18,342.9248773167181,329217,1131,17976.773701667786,49.1343879699707,-49.87132263183594,7.70274543762207,0.77
329,MetaDrive-Tut-100Env-v0,18,343.4961656589341,330268,1133,18035.998689889908,49.69595718383789,,8.606284141540527,0.76
330,MetaDrive-Tut-100Env-v0,18,341.72243338002295,331275,1135,18092.60973715782,48.697410583496094,-48.75150680541992,6.554138660430908,0.76
331,MetaDrive-Tut-100Env-v0,18,342.00806335233005,332153,1137,18141.53461408615,50.18075180053711,-50.12984848022461,9.288923263549805,0.75
332,MetaDrive-Tut-100Env-v0,18,340.9538050431964,333162,1139,18198.472675561905,49.94207763671875,,9.814239501953125,0.75
333,MetaDrive-Tut-100Env-v0,18,342.6194123629671,334228,1141,18258.5426967144,48.36518478393555,,19.268272399902344,0.74
334,MetaDrive-Tut-100Env-v0,18,340.9933999642255,335157,1143,18310.91116285324,49.968589782714844,-50.15913009643555,5.7994585037231445,0.75
335,MetaDrive-Tut-100Env-v0,18,342.71333715000696,336293,1145,18375.58608531952,51.98097229003906,-52.5318717956543,13.615555763244629,0.75
336,MetaDrive-Tut-100Env-v0,18,340.15547230901916,337263,1148,18430.58673453331,49.99211883544922,-50.461387634277344,20.504600524902344,0.72
337,MetaDrive-Tut-100Env-v0,18,337.8636932674396,338120,1150,18479.14242887497,49.142452239990234,,6.660063743591309,0.72
338,MetaDrive-Tut-100Env-v0,18,339.5919582283368,339031,1152,18530.38618707657,48.54051971435547,-48.97553253173828,8.87769889831543,0.72
339,MetaDrive-Tut-100Env-v0,18,338.44632118198314,340321,1155,18602.218092679977,49.49094009399414,-50.454864501953125,6.11958122253418,0.72
340,MetaDrive-Tut-100Env-v0,18,337.1474299521064,341228,1157,18653.14002609253,49.667640686035156,,4.535228729248047,0.7
341,MetaDrive-Tut-100Env-v0,18,333.39520110294194,342037,1159,18699.246948957443,50.23143005371094,-50.5118408203125,8.202879905700684,0.68
342,MetaDrive-Tut-100Env-v0,18,340.6355030782784,343469,1162,18780.18322110176,51.248634338378906,-51.79444885253906,22.41680908203125,0.71
343,MetaDrive-Tut-100Env-v0,18,342.7688737551249,344470,1163,18837.04395031929,50.09050369262695,,18.446491241455078,0.7
344,MetaDrive-Tut-100Env-v0,18,346.3147223143799,345011,1164,18867.599906921387,50.620880126953125,-51.13437271118164,4.296138763427734,0.71
345,MetaDrive-Tut-100Env-v0,18,350.7638709843321,346101,1166,18929.42244195938,50.58361053466797,-50.661720275878906,10.200591087341309,0.72
346,MetaDrive-Tut-100Env-v0,18,353.52943799482244,347399,1169,19002.2362947464,50.99095916748047,-51.32223892211914,10.586910247802734,0.72
347,MetaDrive-Tut-100Env-v0,18,355.19210858865847,348038,1170,19038.310621023178,49.91054153442383,,7.928674221038818,0.72
348,MetaDrive-Tut-100Env-v0,18,355.77787308466793,349390,1173,19114.337121486664,50.299468994140625,,9.418889999389648,0.71
349,MetaDrive-Tut-100Env-v0,18,355.41182833698724,350312,1175,19166.045226335526,51.40851593017578,,5.509678363800049,0.71
350,MetaDrive-Tut-100Env-v0,18,355.9028025514339,351001,1176,19205.608754873276,49.06731414794922,-49.96726989746094,9.899442672729492,0.71
351,MetaDrive-Tut-100Env-v0,18,355.13064271294644,352537,1179,19292.145508289337,48.317955017089844,-49.33087921142578,7.237591743469238,0.71
352,MetaDrive-Tut-100Env-v0,18,353.146151491356,353276,1181,19333.35201072693,50.34703826904297,,5.9056196212768555,0.71
353,MetaDrive-Tut-100Env-v0,18,353.6136745842481,354288,1183,19390.906656503677,49.7558708190918,,5.76494026184082,0.72
354,MetaDrive-Tut-100Env-v0,18,354.92871423191673,355391,1185,19452.78364944458,49.367225646972656,-49.74344253540039,4.672781944274902,0.71
355,MetaDrive-Tut-100Env-v0,18,353.12122471415836,356055,1187,19489.616082668304,50.43492889404297,-50.436946868896484,8.007474899291992,0.7
356,MetaDrive-Tut-100Env-v0,18,354.3966754411611,357022,1189,19543.574778795242,49.25843811035156,,10.156825065612793,0.7
357,MetaDrive-Tut-100Env-v0,18,357.5585766070119,358159,1191,19607.90851163864,50.9000358581543,-50.95362091064453,5.621748924255371,0.71
358,MetaDrive-Tut-100Env-v0,18,360.675254761732,359119,1193,19662.702241659164,50.102333068847656,-50.55364227294922,7.008899688720703,0.72
359,MetaDrive-Tut-100Env-v0,18,362.0335453904883,360419,1196,19735.703285694122,50.938865661621094,-51.137908935546875,12.279733657836914,0.72
360,MetaDrive-Tut-100Env-v0,18,360.41923503577084,361039,1198,19770.52071928978,50.78571319580078,-50.825103759765625,15.278360366821289,0.71
361,MetaDrive-Tut-100Env-v0,18,359.88138752840007,362413,1201,19847.763248443604,50.583473205566406,-50.849403381347656,10.354400634765625,0.71
362,MetaDrive-Tut-100Env-v0,18,364.6820799972057,363583,1203,19914.005658864975,51.19196319580078,-51.37842559814453,6.064375877380371,0.72
363,MetaDrive-Tut-100Env-v0,18,364.7834483634944,364145,1204,19945.588370084763,51.89647674560547,-52.60611343383789,9.039353370666504,0.72
364,MetaDrive-Tut-100Env-v0,18,363.37578939382644,365073,1206,19997.40033197403,52.187217712402344,-52.59761047363281,6.8947296142578125,0.71
365,MetaDrive-Tut-100Env-v0,18,363.65106288563965,366158,1209,20058.729118824005,50.94170379638672,,8.084667205810547,0.71
366,MetaDrive-Tut-100Env-v0,18,366.3156381481182,367450,1211,20133.093266010284,49.626121520996094,,9.40738296508789,0.69
367,MetaDrive-Tut-100Env-v0,18,366.59599969596565,368388,1213,20186.391397953033,50.32164001464844,,6.957819938659668,0.69
368,MetaDrive-Tut-100Env-v0,18,367.1979702592514,369311,1215,20239.51906824112,51.93137741088867,-52.09823226928711,7.174637794494629,0.68
369,MetaDrive-Tut-100Env-v0,18,365.9083844476279,370544,1217,20309.71696281433,51.54903030395508,,5.740584373474121,0.69
370,MetaDrive-Tut-100Env-v0,18,366.69349592233266,371095,1218,20340.902939796448,49.76992416381836,-50.26646041870117,5.977729797363281,0.69
371,MetaDrive-Tut-100Env-v0,18,367.3935728985159,372246,1221,20405.642910957336,49.6413459777832,,7.623811721801758,0.69
372,MetaDrive-Tut-100Env-v0,18,369.9062748017995,373255,1223,20462.366828918457,50.55799102783203,-51.00994873046875,5.9304609298706055,0.71
373,MetaDrive-Tut-100Env-v0,18,371.83417636943176,374165,1225,20513.315996408463,50.559654235839844,-50.68499755859375,7.577495098114014,0.73
374,MetaDrive-Tut-100Env-v0,18,372.9171283502794,375280,1227,20575.703190803528,51.34722900390625,,7.65765380859375,0.72
375,MetaDrive-Tut-100Env-v0,18,370.6555302456067,376012,1229,20616.91136622429,50.23295974731445,,7.254891395568848,0.71
376,MetaDrive-Tut-100Env-v0,18,371.49761285154113,377040,1231,20674.83004426956,50.325260162353516,,12.043144226074219,0.7
377,MetaDrive-Tut-100Env-v0,18,367.71242866850633,378531,1235,20758.749298095703,49.06302261352539,-49.58000946044922,17.28070831298828,0.69
378,MetaDrive-Tut-100Env-v0,18,368.04171789649627,379024,1236,20786.286164045334,51.490028381347656,,10.001907348632812,0.7
379,MetaDrive-Tut-100Env-v0,18,366.0448439373115,380295,1239,20857.549679517746,50.509578704833984,-51.092918395996094,6.696077346801758,0.69
380,MetaDrive-Tut-100Env-v0,18,363.6896174162806,381119,1241,20903.262109279633,50.02936553955078,-49.317508697509766,25.307331085205078,0.69
381,MetaDrive-Tut-100Env-v0,18,363.340479863966,382536,1244,20983.06774020195,49.48545455932617,,5.706734657287598,0.69
382,MetaDrive-Tut-100Env-v0,18,361.9789201843563,383227,1247,21021.833294391632,50.285030364990234,-50.4467658996582,9.758508682250977,0.69
383,MetaDrive-Tut-100Env-v0,18,360.45101748662523,384051,1249,21068.561389684677,49.63432693481445,-49.64777374267578,22.954486846923828,0.68
384,MetaDrive-Tut-100Env-v0,18,359.3611314452869,385384,1252,21142.796050786972,48.68473815917969,,7.909576416015625,0.68
385,MetaDrive-Tut-100Env-v0,18,361.65439012161846,386540,1254,21208.556124210358,49.646453857421875,,10.827333450317383,0.69
386,MetaDrive-Tut-100Env-v0,18,362.9030341870689,387040,1255,21236.576509952545,51.88896942138672,,18.115779876708984,0.69
387,MetaDrive-Tut-100Env-v0,18,363.7483235973465,388311,1258,21308.129130601883,49.73326873779297,-50.02692413330078,10.33865737915039,0.71
388,MetaDrive-Tut-100Env-v0,18,363.89189133231724,389211,1260,21357.96949148178,49.509986877441406,-50.10612487792969,8.148187637329102,0.71
389,MetaDrive-Tut-100Env-v0,18,359.9972625153599,390305,1263,21419.41298532486,50.982032775878906,-51.946128845214844,12.84868049621582,0.7
390,MetaDrive-Tut-100Env-v0,18,359.2101402110212,391311,1265,21476.141516685486,50.611602783203125,-51.292335510253906,8.002910614013672,0.7
391,MetaDrive-Tut-100Env-v0,18,355.7454203728688,392242,1268,21528.691510915756,50.559268951416016,,4.735339641571045,0.7
392,MetaDrive-Tut-100Env-v0,18,351.85572544568697,393244,1271,21585.476041316986,50.10265350341797,,4.652638912200928,0.7
393,MetaDrive-Tut-100Env-v0,18,351.62256782128,394206,1273,21639.802317142487,50.83988571166992,,5.679468154907227,0.7
394,MetaDrive-Tut-100Env-v0,18,351.27923687211006,395147,1275,21692.94509267807,49.29001998901367,-49.62286376953125,11.773018836975098,0.7
395,MetaDrive-Tut-100Env-v0,18,350.55850186615265,396195,1277,21752.108088493347,49.21426773071289,-49.227699279785156,10.420012474060059,0.7
396,MetaDrive-Tut-100Env-v0,18,350.1587299651121,397166,1279,21807.22337794304,50.663177490234375,,9.7842435836792,0.69
397,MetaDrive-Tut-100Env-v0,18,353.52449439136967,398167,1280,21864.7631816864,52.06989288330078,-52.50891876220703,5.996522903442383,0.69
398,MetaDrive-Tut-100Env-v0,18,350.286821062701,399089,1283,21916.411300182343,50.4151611328125,-50.286903381347656,5.253153324127197,0.68
399,MetaDrive-Tut-100Env-v0,18,349.75632419654625,400075,1285,21972.274058818817,48.972320556640625,-48.875885009765625,9.88548469543457,0.69
400,MetaDrive-Tut-100Env-v0,18,347.8784710168225,401242,1288,22037.79090166092,51.78998565673828,,6.805563926696777,0.69
401,MetaDrive-Tut-100Env-v0,18,347.97062511935246,402165,1290,22089.785318374634,52.701236724853516,-52.78293228149414,8.87867546081543,0.69
402,MetaDrive-Tut-100Env-v0,18,349.36825265238355,403462,1292,22163.821886062622,47.22150421142578,,6.607123374938965,0.7
403,MetaDrive-Tut-100Env-v0,18,348.3532530671067,404003,1293,22194.317124843597,51.7011604309082,-51.907291412353516,8.842873573303223,0.7
404,MetaDrive-Tut-100Env-v0,18,348.8441755945132,405402,1296,22273.251155376434,51.060585021972656,,9.192197799682617,0.7
405,MetaDrive-Tut-100Env-v0,18,348.3082604219404,406072,1298,22311.050932645798,46.926239013671875,,15.981836318969727,0.7
406,MetaDrive-Tut-100Env-v0,18,348.8765522394991,407074,1300,22367.38144803047,51.116722106933594,,6.209987163543701,0.69
407,MetaDrive-Tut-100Env-v0,18,343.40317067185885,408415,1304,22442.645809173584,52.03629684448242,-52.09059143066406,8.625964164733887,0.67
408,MetaDrive-Tut-100Env-v0,18,341.5630982343519,409555,1306,22506.114341259003,47.55493927001953,-47.846981048583984,13.354376792907715,0.67
409,MetaDrive-Tut-100Env-v0,18,340.5284172117363,410290,1308,22546.960378170013,51.18857192993164,,5.172868728637695,0.67
410,MetaDrive-Tut-100Env-v0,18,340.4347339343473,411186,1310,22597.54985141754,51.99068832397461,,8.002079010009766,0.69
411,MetaDrive-Tut-100Env-v0,18,341.5424318235066,412218,1312,22656.19774866104,50.482330322265625,,10.217905044555664,0.69
412,MetaDrive-Tut-100Env-v0,18,343.6862291449075,413460,1314,22726.83647465706,50.447731018066406,,27.80089569091797,0.68
413,MetaDrive-Tut-100Env-v0,18,339.478283588005,414009,1316,22757.963802576065,49.87676239013672,-49.821083068847656,8.325843811035156,0.68
414,MetaDrive-Tut-100Env-v0,18,334.0563684496726,415082,1319,22818.25372505188,49.206478118896484,,5.979849815368652,0.66
415,MetaDrive-Tut-100Env-v0,18,334.930760210341,416272,1322,22884.828493833542,48.51741027832031,,9.053104400634766,0.66
416,MetaDrive-Tut-100Env-v0,18,333.78207708671766,417302,1324,22942.940544128418,51.24401092529297,,7.982173442840576,0.66
417,MetaDrive-Tut-100Env-v0,18,331.8638068092655,418303,1325,22998.67240691185,49.14313888549805,-50.09133529663086,24.132671356201172,0.65
418,MetaDrive-Tut-100Env-v0,18,332.60506269084783,419420,1327,23062.328379154205,49.88981246948242,,10.770517349243164,0.66
419,MetaDrive-Tut-100Env-v0,18,331.0611500711683,420589,1330,23128.728917598724,48.42748260498047,-48.72831726074219,8.2008638381958,0.66
420,MetaDrive-Tut-100Env-v0,18,330.38657872643506,421239,1331,23165.965866327286,48.05592346191406,-48.8487548828125,12.834939002990723,0.65
421,MetaDrive-Tut-100Env-v0,18,333.6848774862901,422081,1333,23212.997970581055,47.76205062866211,-47.65939712524414,10.637588500976562,0.66
422,MetaDrive-Tut-100Env-v0,18,333.74256605014386,423086,1335,23269.278247356415,49.76609802246094,,11.065088272094727,0.67
423,MetaDrive-Tut-100Env-v0,18,331.6417835966557,424362,1338,23342.053330898285,49.067569732666016,,22.788515090942383,0.67
424,MetaDrive-Tut-100Env-v0,18,333.22050002322374,425276,1340,23393.363646030426,49.552425384521484,,7.235515594482422,0.68
425,MetaDrive-Tut-100Env-v0,18,335.9102127061409,426478,1342,23461.247876405716,47.58837127685547,,14.946248054504395,0.68
426,MetaDrive-Tut-100Env-v0,18,335.1521516954919,427345,1344,23510.01109814644,50.224815368652344,-50.90230941772461,7.659420013427734,0.68
427,MetaDrive-Tut-100Env-v0,18,338.7498876586095,428072,1346,23550.948750972748,46.823753356933594,,6.094322681427002,0.69
428,MetaDrive-Tut-100Env-v0,18,339.2125385910205,429423,1349,23626.445158481598,48.88829040527344,-49.36078643798828,6.455563545227051,0.69
429,MetaDrive-Tut-100Env-v0,18,339.0539527579169,430171,1351,23668.378784418106,47.933448791503906,-48.38486862182617,11.640583038330078,0.68
430,MetaDrive-Tut-100Env-v0,18,336.2590176178554,431426,1354,23739.420798778534,48.788726806640625,,11.36816120147705,0.68
431,MetaDrive-Tut-100Env-v0,18,336.4915563749928,432060,1355,23775.688762903214,48.640785217285156,,8.929557800292969,0.68
432,MetaDrive-Tut-100Env-v0,18,337.60518469585173,433069,1357,23832.791097402573,50.96776580810547,-51.31694030761719,6.037424564361572,0.68
433,MetaDrive-Tut-100Env-v0,18,336.6268815105728,434120,1360,23892.259937286377,49.396148681640625,,9.79351806640625,0.68
434,MetaDrive-Tut-100Env-v0,18,341.0680603886379,435290,1362,23958.72590327263,52.050018310546875,,7.775026321411133,0.69
435,MetaDrive-Tut-100Env-v0,18,338.3137706426024,436030,1364,24000.008833646774,47.786224365234375,,10.35940933227539,0.69
436,MetaDrive-Tut-100Env-v0,18,338.871029491864,437052,1366,24058.17746090889,49.62383270263672,,7.481934070587158,0.69
437,MetaDrive-Tut-100Env-v0,18,342.7079769615729,438260,1368,24126.880106925964,51.42076873779297,,19.720478057861328,0.7
438,MetaDrive-Tut-100Env-v0,18,344.5222118975138,439273,1370,24184.381093978882,48.439971923828125,-48.859710693359375,17.722787857055664,0.7
439,MetaDrive-Tut-100Env-v0,18,345.4693462667791,440199,1372,24236.603162765503,50.70714569091797,-50.90446853637695,12.256349563598633,0.69
440,MetaDrive-Tut-100Env-v0,18,345.567606717919,441478,1375,24308.387255191803,49.23145294189453,,10.12496566772461,0.69
441,MetaDrive-Tut-100Env-v0,18,345.88090723827446,442018,1376,24338.919499397278,48.74018096923828,,16.0999755859375,0.69
442,MetaDrive-Tut-100Env-v0,18,345.39242121712755,443515,1379,24423.277479171753,48.13779830932617,-48.33757781982422,14.74807071685791,0.69
443,MetaDrive-Tut-100Env-v0,18,344.10873620745167,444144,1380,24458.90609574318,50.62059783935547,,17.768539428710938,0.7
444,MetaDrive-Tut-100Env-v0,18,341.3580382494547,445393,1384,24529.792551994324,49.544029235839844,-50.36576461791992,5.833465099334717,0.68
445,MetaDrive-Tut-100Env-v0,18,338.8409484167185,446293,1387,24579.737162828445,49.73377990722656,-49.71818923950195,8.712038040161133,0.68
446,MetaDrive-Tut-100Env-v0,18,340.18780290056463,447274,1389,24634.947037935257,50.38880157470703,,11.694311141967773,0.68
447,MetaDrive-Tut-100Env-v0,18,336.9938189684271,448076,1391,24680.367804527283,47.88136291503906,,12.228675842285156,0.68
448,MetaDrive-Tut-100Env-v0,18,329.8238737674881,449230,1395,24745.110152244568,48.947608947753906,,10.116943359375,0.66
449,MetaDrive-Tut-100Env-v0,18,329.99060238775536,450367,1398,24808.79899406433,47.514854431152344,-47.308143615722656,12.787158966064453,0.66
450,MetaDrive-Tut-100Env-v0,18,328.7577662511761,451135,1400,24852.12109041214,49.262535095214844,-49.57310485839844,5.766765117645264,0.67
451,MetaDrive-Tut-100Env-v0,18,331.4468048503999,452457,1403,24926.13326525688,51.5730094909668,-51.42097854614258,18.877506256103516,0.68
452,MetaDrive-Tut-100Env-v0,18,330.26322524962393,453215,1405,24968.76460838318,48.680999755859375,-48.77139663696289,29.358583450317383,0.69
453,MetaDrive-Tut-100Env-v0,18,332.5459268792114,454423,1407,25035.555405139923,48.044273376464844,-47.582618713378906,13.262521743774414,0.7
454,MetaDrive-Tut-100Env-v0,18,332.49813643098116,455336,1409,25086.631574869156,47.189002990722656,,13.775250434875488,0.7
455,MetaDrive-Tut-100Env-v0,18,328.2534241884501,456083,1412,25128.320350408554,47.934730529785156,-48.38996124267578,9.760697364807129,0.71
456,MetaDrive-Tut-100Env-v0,18,327.11563853439634,457405,1415,25202.91549563408,51.30583572387695,-51.74459457397461,10.986433029174805,0.72
457,MetaDrive-Tut-100Env-v0,18,330.81561543179765,458021,1416,25237.994769096375,48.63248825073242,-48.91682434082031,11.55374526977539,0.73
458,MetaDrive-Tut-100Env-v0,18,333.02163919509644,459077,1418,25297.59098958969,50.07925033569336,-50.407691955566406,5.319681644439697,0.74
459,MetaDrive-Tut-100Env-v0,18,335.0566642488697,460190,1420,25360.187507390976,49.24689483642578,,14.842247009277344,0.74
460,MetaDrive-Tut-100Env-v0,18,335.2800109386277,461190,1423,25415.830919742584,47.611289978027344,,21.85682487487793,0.75
461,MetaDrive-Tut-100Env-v0,18,334.6012407239918,462305,1426,25478.135140657425,49.52488708496094,-49.532135009765625,8.080218315124512,0.76
462,MetaDrive-Tut-100Env-v0,18,338.4897571591028,463376,1428,25538.220467567444,49.87604522705078,,6.751315116882324,0.78
463,MetaDrive-Tut-100Env-v0,18,340.6611695687776,464550,1430,25605.409153699875,48.485591888427734,,8.070514678955078,0.79
464,MetaDrive-Tut-100Env-v0,18,340.54992778293615,465066,1431,25634.83983206749,48.34264373779297,,9.208106994628906,0.8
465,MetaDrive-Tut-100Env-v0,18,338.77558600996156,466354,1434,25707.099962234497,48.43202209472656,,7.453850746154785,0.8
466,MetaDrive-Tut-100Env-v0,18,338.6218449732726,467281,1436,25759.016842365265,48.51690673828125,-48.583980560302734,10.16607666015625,0.8
467,MetaDrive-Tut-100Env-v0,18,340.98215682345204,468184,1438,25810.050033807755,50.11509704589844,,8.690680503845215,0.81
468,MetaDrive-Tut-100Env-v0,18,340.94815616890514,469108,1440,25862.35787820816,49.56144332885742,,6.533747673034668,0.81
469,MetaDrive-Tut-100Env-v0,18,339.8897051996019,470118,1442,25919.520983457565,49.482940673828125,,10.138138771057129,0.81
470,MetaDrive-Tut-100Env-v0,18,340.8032869747452,471117,1444,25975.75510454178,51.3521842956543,-51.531394958496094,6.763192653656006,0.81
471,MetaDrive-Tut-100Env-v0,18,343.3882939803263,472113,1446,26031.572820425034,48.28882598876953,-48.605369567871094,6.14240026473999,0.82
472,MetaDrive-Tut-100Env-v0,18,343.14329551657846,473390,1449,26103.043095588684,49.047523498535156,,8.639937400817871,0.84
473,MetaDrive-Tut-100Env-v0,18,346.096811770285,474009,1450,26138.024465560913,50.88037872314453,-50.29100799560547,6.0477447509765625,0.85
474,MetaDrive-Tut-100Env-v0,18,345.44257158099435,475236,1453,26206.6555352211,48.46236801147461,,11.941627502441406,0.83
475,MetaDrive-Tut-100Env-v0,18,345.0734716893059,476224,1455,26262.77708363533,49.177406311035156,,7.566340446472168,0.83
476,MetaDrive-Tut-100Env-v0,18,342.3420012660631,477083,1458,26310.86391067505,48.60258865356445,-49.157527923583984,12.266223907470703,0.83
477,MetaDrive-Tut-100Env-v0,18,343.58298825604606,478031,1460,26364.189307928085,48.361839294433594,-48.282257080078125,10.448419570922852,0.83
478,MetaDrive-Tut-100Env-v0,18,340.9406470178377,479129,1463,26426.221999168396,48.57611846923828,-47.689727783203125,11.125720977783203,0.82
479,MetaDrive-Tut-100Env-v0,18,343.01616273937094,480227,1465,26488.330365419388,46.98614501953125,-47.68946075439453,20.00435447692871,0.83
480,MetaDrive-Tut-100Env-v0,18,340.93567148435255,481523,1468,26560.751732110977,48.7167854309082,-48.68909454345703,13.881629943847656,0.83
481,MetaDrive-Tut-100Env-v0,18,341.52513274286946,482011,1469,26588.40109372139,48.54560089111328,-48.69075012207031,45.36040496826172,0.84
482,MetaDrive-Tut-100Env-v0,18,342.0639072760036,483518,1472,26673.2224817276,51.45167541503906,,8.8126220703125,0.85
483,MetaDrive-Tut-100Env-v0,18,340.8876572907994,484233,1474,26713.773218154907,50.500999450683594,-51.98388671875,11.602872848510742,0.84
484,MetaDrive-Tut-100Env-v0,18,337.4693136718821,485213,1477,26769.09055495262,49.40762710571289,-49.56837463378906,9.93800163269043,0.83
485,MetaDrive-Tut-100Env-v0,18,333.94253372599536,486409,1480,26836.667954683304,49.743507385253906,-49.320030212402344,31.584266662597656,0.83
486,MetaDrive-Tut-100Env-v0,18,334.51503624415255,487016,1482,26870.52362394333,49.104087829589844,,7.539301872253418,0.84
487,MetaDrive-Tut-100Env-v0,18,336.9568190857852,488344,1485,26945.04673910141,48.966758728027344,,6.756632328033447,0.86
488,MetaDrive-Tut-100Env-v0,18,339.1919064704645,489230,1487,26994.92133283615,50.42839050292969,,10.19317626953125,0.86
489,MetaDrive-Tut-100Env-v0,18,338.433590044441,490032,1489,27039.417354106903,48.704071044921875,,13.184450149536133,0.86
490,MetaDrive-Tut-100Env-v0,18,338.31721697178824,491312,1493,27111.503491163254,49.566261291503906,,9.880992889404297,0.86
491,MetaDrive-Tut-100Env-v0,18,340.9447257653048,492219,1495,27162.910810232162,49.26165008544922,-49.1719856262207,9.6520414352417,0.87
492,MetaDrive-Tut-100Env-v0,18,343.73328669226333,493235,1497,27220.698035240173,50.019691467285156,-50.115692138671875,6.298560619354248,0.88
493,MetaDrive-Tut-100Env-v0,18,342.84254437765986,494098,1499,27269.029212474823,49.024085998535156,,12.860879898071289,0.88
494,MetaDrive-Tut-100Env-v0,18,345.83192886566417,495077,1501,27324.32061433792,47.84925079345703,-47.852691650390625,7.74722957611084,0.88
495,MetaDrive-Tut-100Env-v0,18,343.7653955885691,496203,1504,27383.568552970886,48.68212890625,-48.471004486083984,6.802319526672363,0.87
496,MetaDrive-Tut-100Env-v0,18,342.2194146829354,497339,1507,27431.318448781967,49.986289978027344,-50.49203109741211,11.426342010498047,0.86
497,MetaDrive-Tut-100Env-v0,18,342.86492194951194,498269,1509,27452.26949620247,49.44635772705078,-49.45043182373047,11.518826484680176,0.86
498,MetaDrive-Tut-100Env-v0,18,344.5637575687856,499027,1511,27460.118356466293,48.43617248535156,-48.756900787353516,11.980596542358398,0.86
